x = 7168, y = 7434, rule = B3/S23
5076b2o$5075bo2bo$5078bo$5078bo$5076bobo$5076bobo15b2o$5077bo16bobo$
5089b2o6bo11bobo$5085b2obo2bo2bo2bo10bo2bo$5074b2o3b2o4b2o2b2o6bo9b2o$
5074bo5bo13bobo8b2o3bo$5094b2o11b2o$5075bo3bo19bo8bo2bo5b2o$5076b3o18b
2o10bobo5bobo$5098b2o19bo$5119b2o5$5080bo$5078bobo17b2o$5079b2o17b2o$
5090bo2b2o$5075bo12bob2obo$5074b3o6bobo4b2o2bo$5073b5o5b2o7b3o$5072b2o
3b2o8bobo$5073b5o19b2o$5073bo3bo19bobo$5074bobo22bo$5073b3o23b2o$5072b
2o$5073bo$5070b3o$5070bo24bo$5093bobo$5094b2o5$5084bo$5084b3o$5087bo$
5086b2o6b2o14b2o$5093bobo14bo$5094bo16b3o$5113bo$5088b2o$5081b2o5b2o$
5081b2o37b2o$5120b2o2$5098b2o$5098b2o29b2o$5128bobo$5083b2o32bo11bo$
5082bobo33bo$5082bo33b3o$5081b2o$5125b2o$5125b2o$5130b2o$5130bobo$
5073b2o57bo$5073b2o42b2o13b2o$5118bo$5115b3o6b2o$5064b2o28b2o19bo8b2o$
5064bobo28bo$5065bo29bobo$5096b2o$5101bo$5070b2o28b3o8b2o$5070b2o28b2o
9b2o2$5063b2o37b2o$5062bobo29b2o6b2o$5062bo31b2o$5061b2o13b2o$5076bo$
5069b2o6b3o27bo$5069b2o8bo26bobo$5099b2o6b2o$5100bo$5097b3o$5097bo4$
5080b2o24b2o$5080b2o24b2o3$5115b2o$5114bobo$5081bo33bo$5081bo$5080bobo
$5079b2ob2o$5078bo5bo26b2o$5081bo29b2o$5078b2o3b2o31b2o$5116bobo$5118b
o$5079b4o20b2o13b2o$5079bo2b2o20bo$5080bob2o17b3o6b2o$5101bo8b2o$5081b
2o$5082bo3$5076b2obob2o$5076bo5bo5bo4b2o$5077bo3bo7bo3b2o$5078b3o6b3o
6$5076b2o18bo$5077bo16bobo$5074b3o18b2o3b2o$5074bo21bo5bo$5089b2o12bo$
5037b2o50b2o4bo7bo8b2o$5037b2o47b2o5b2o8bo8b2o$5085b3o5bo2b2o4bo$5086b
2o6b5ob2o$5080b2o7b2o4bo$5079bobo7b2o$5042b2o35bo$5042b2o34b2o5$4998b
2o$4998bo$4986b2o8bobo$4986bo2bo6b2o$4978b5o7bo51b3o$4977bo5bo6bo50bo
3bo$4977bo3b2o7bo49bo5bo$4978bo7bo2bo50bo5bo$4986b2o55bo$5041bo3bo$
5042b3o$5043bo3$5040b3o$5040b3o$5039bo3bo$5047bobo$5038b2o3b2o3b2o5b2o
$5048bo6b2o5$5055bo$5056b2o$5038b2o15b2o$5039bo$5036b3o$5036bo3$5062bo
bo$5063b2o$5063bo2$5066b2o$5066bo$5067b3o$5069bo$5023b2o$5021bo2bo$
5012b2o6bo7b2o$5012b2o6bo6bo$5020bo$5021bo2bo6b2o$5023b2o6bobo$5033bo$
5033b2o43$4909bo$4908bo$4908b3o67$5268bo$5269bo$5267b3o72$4449b2o$
4449bo$4437b2o8bobo$4437bobo7b2o$4432b2o4b3o$4428b4o2bo4b3o$4428b3ob2o
4b3o$4437bobo$4437b2o17$4417bo$4417b3o$4420bo$4419b2o5$4421b3o$4420b2o
b2o$4420b2ob2o$4420b5o$4419b2o3b2o5$4420b2o4$4422b2o$4422b2o30$4660b2o
$4660b2o5$4661bo$4661bo$4660bobo$4659b2ob2o$4658bo5bo$4661bo$4658b2o3b
2o3$4659b4o$4659bo2b2o$4660bob2o2$4661b2o$4662bo3$4656b2obob2o$4656bo
5bo5bo4b2o$4657bo3bo7bo3b2o$4658b3o6b3o6$4656b2o18bo$4657bo16bobo$
4654b3o18b2o3b2o$4654bo21bo5bo$4669b2o12bo$4669b2o4bo7bo8b2o$4666b2o5b
2o8bo8b2o$4665b3o5bo2b2o4bo$4666b2o6b5ob2o$4660b2o7b2o4bo$4659bobo7b2o
$4659bo$4658b2o44$4598bo$4593bo4b4o$4593bo5b4o$4588b2o9bo2bo$4588b2o9b
4o$4598b4o5b2o132bo$4598bo8bobo129b3o$4609bo128bo$4609b2o127b2o8$4736b
o$4735b3o$4734b5o$4733b2o3b2o$4590bo143b5o$4588b3o143bo3bo$4587bo147bo
bo$4587b2o147bo3$4735b2o$4735b2o2$4585bo$4584b3o116bo$4583b5o115b3o$
4582bobobobo117bo$4582b2o3b2o116b2o3$4585bo$4584bobo$4584bobo$4585bo$
4584b2o$4584b2o119b2obob2o$4584b2o$4705bo5bo2$4706b2ob2o$4708bo5$4708b
2o$4708b2o3$4783b2o$4784bo$4784bobo7bobo$4785b2o7bo3bo$4798bo$4794bo4b
o4b2o$4798bo5b2o$4794bo3bo$4794bobo22$4772bo$4771b4o$4770b2obobo3b2o$
4769b3obo2bo2b2o$4770b2obobo$4760b2o9b4o$4759bobo10bo$4759bo$4758b2o8$
4506bo$4504b2o$4505b2o102$3199bo239bo119bo119bo119bo119bo119bo449bo
119bo119bo479bo119bo119bo119bo51bo67bo$3197b3o237b3o117b3o117b3o117b3o
117b3o117b3o240bo206b3o117b3o117b3o150bo326b3o117b3o117b3o117b3o49b3o
65b3o$3196bo239bo119bo119bo119bo119bo119bo241b3o205bo119bo119bo151b3o
325bo119bo119bo119bo51bo67bo$3196b2o5bo232b2o5bo112b2o5bo112b2o5bo112b
2o5bo112b2o5bo112b2o5bo233bo208b2o5bo112b2o5bo112b2o5bo143bo328b2o5bo
112b2o5bo112b2o5bo112b2o5bo44b2o5bo60b2o5bo$3203b3o237b3o117b3o117b3o
117b3o117b3o117b3o231b2o5bo208b3o117b3o117b3o141b2o5bo328b3o117b3o117b
3o117b3o49b3o65b3o$3206bo239bo119bo119bo119bo119bo119bo237b3o209bo119b
o119bo147b3o329bo119bo119bo119bo51bo67bo$3194bo10bo228bo10bo108bo10bo
108bo10bo108bo10bo108bo10bo108bo10bo241bo196bo10bo108bo10bo108bo10bo
151bo316bo10bo108bo10bo108bo10bo108bo10bo51b2o55bo10bo$3194bo10bo2bo
225bo10bo2bo105bo10bo2bo105bo10bo2bo105bo10bo2bo105bo10bo2bo105bo10bo
2bo226bo10bo197bo10bo2bo105bo10bo2bo105bo10bo2bo136bo10bo317bo10bo2bo
105bo10bo2bo105bo10bo2bo105bo10bo2bo105bo10bo2bo$3193bobo13bo223bobo
13bo103bobo13bo103bobo13bo103bobo13bo103bobo13bo103bobo13bo225bo10bo2b
o193bobo13bo103bobo13bo103bobo13bo135bo10bo2bo313bobo13bo103bobo13bo
103bobo13bo103bobo13bo103bobo13bo$3192b2ob2o9bo3bo221b2ob2o9bo3bo101b
2ob2o9bo3bo101b2ob2o9bo3bo101b2ob2o9bo3bo101b2ob2o9bo3bo101b2ob2o9bo3b
o223bobo13bo191b2ob2o9bo3bo101b2ob2o9bo3bo101b2ob2o9bo3bo133bobo13bo
311b2ob2o9bo3bo101b2ob2o9bo3bo101b2ob2o9bo3bo101b2ob2o9bo3bo32b2o3b2o
62b2ob2o9bo3bo$3191bo5bo10bo222bo5bo10bo102bo5bo10bo102bo5bo10bo102bo
5bo10bo102bo5bo10bo102bo5bo10bo224b2ob2o9bo3bo189bo5bo10bo102bo5bo10bo
102bo5bo10bo134b2ob2o9bo3bo309bo5bo10bo102bo5bo10bo102bo5bo10bo102bo5b
o10bo34b2o3b2o61bo5bo10bo$3194bo10bo5bo222bo10bo5bo102bo10bo5bo102bo
10bo5bo102bo10bo5bo102bo10bo5bo102bo10bo5bo220bo5bo10bo194bo10bo5bo
102bo10bo5bo102bo10bo5bo130bo5bo10bo314bo10bo5bo102bo10bo5bo102bo10bo
5bo102bo10bo5bo32b5o65bo10bo5bo$3191b2o3b2o7bo5bo219b2o3b2o7bo5bo99b2o
3b2o7bo5bo99b2o3b2o7bo5bo99b2o3b2o7bo5bo99b2o3b2o7bo5bo99b2o3b2o7bo5bo
223bo10bo5bo188b2o3b2o7bo5bo99b2o3b2o7bo5bo99b2o3b2o7bo5bo133bo10bo5bo
308b2o3b2o7bo5bo99b2o3b2o7bo5bo99b2o3b2o7bo5bo99b2o3b2o7bo5bo33bobo63b
2o3b2o7bo5bo$3206bo3bo235bo3bo115bo3bo115bo3bo115bo3bo115bo3bo115bo3bo
221b2o3b2o7bo5bo203bo3bo115bo3bo115bo3bo131b2o3b2o7bo5bo323bo3bo115bo
3bo115bo3bo115bo3bo49bo65bo3bo$3207b3o237b3o117b3o117b3o117b3o117b3o
117b3o237bo3bo205b3o117b3o117b3o147bo3bo325b3o117b3o117b3o117b3o35b3o
11b3o65b3o$3192b4o236b4o116b4o116b4o116b4o116b4o116b4o252b3o191b4o116b
4o116b4o162b3o311b4o116b4o116b4o116b4o62b5o49b4o$3192bo2b2o235bo2b2o
115bo2b2o115bo2b2o115bo2b2o115bo2b2o115bo2b2o236b4o205bo2b2o115bo2b2o
115bo2b2o146b4o325bo2b2o115bo2b2o115bo2b2o115bo2b2o60b2o3b2o48bo2b2o$
3193bob2o236bob2o116bob2o116bob2o116bob2o116bob2o116bob2o236bo2b2o205b
ob2o116bob2o116bob2o146bo2b2o325bob2o116bob2o116bob2o116bob2o61b5o50bo
b2o$4274bob2o596bob2o750bo3bo$3194b2o10bo227b2o10bo107b2o10bo107b2o10b
o107b2o10bo107b2o10bo107b2o10bo437b2o10bo107b2o10bo107b2o10bo467b2o10b
o107b2o10bo107b2o10bo107b2o10bo52bobo52b2o10bo$3195bo239bo119bo119bo
119bo119bo119bo239b2o10bo197bo119bo119bo149b2o10bo317bo119bo119bo119bo
53bo10bo54bo$4276bo599bo743bo$3206bo239bo119bo119bo119bo119bo119bo449b
o119bo119bo479bo119bo119bo119bo41b3o75bo$3189b2obob2o10bobo220b2obob2o
10bobo100b2obob2o10bobo100b2obob2o10bobo100b2obob2o10bobo100b2obob2o
10bobo100b2obob2o10bobo238bo191b2obob2o10bobo100b2obob2o10bobo100b2obo
b2o10bobo148bo311b2obob2o10bobo100b2obob2o10bobo100b2obob2o10bobo100b
2obob2o10bobo35bo17bo46b2obob2o10bobo$3189bo5bo5bo4b2o221bo5bo5bo4b2o
101bo5bo5bo4b2o101bo5bo5bo4b2o101bo5bo5bo4b2o101bo5bo5bo4b2o101bo5bo5b
o4b2o222b2obob2o10bobo189bo5bo5bo4b2o101bo5bo5bo4b2o101bo5bo5bo4b2o
132b2obob2o10bobo309bo5bo5bo4b2o101bo5bo5bo4b2o101bo5bo5bo4b2o101bo5bo
5bo4b2o35b3o14b2ob2o44bo5bo5bo4b2o$3190bo3bo7bo227bo3bo7bo107bo3bo7bo
107bo3bo7bo107bo3bo7bo107bo3bo7bo107bo3bo7bo227bo5bo5bo4b2o191bo3bo7bo
107bo3bo7bo107bo3bo7bo137bo5bo5bo4b2o311bo3bo7bo107bo3bo7bo107bo3bo7bo
107bo3bo7bo39b5o8bo54bo3bo7bo$3191b3o6b3o228b3o6b3o108b3o6b3o108b3o6b
3o108b3o6b3o108b3o6b3o108b3o6b3o228bo3bo7bo197b3o6b3o108b3o6b3o108b3o
6b3o138bo3bo7bo317b3o6b3o108b3o6b3o108b3o6b3o108b3o6b3o38b2o3b2o6bo4bo
5bo45b3o6b3o$4272b3o6b3o588b3o6b3o740b3o$3207b2o3b2o233b2o3b2o113b2o3b
2o113b2o3b2o113b2o3b2o113b2o3b2o113b2o3b2o443b2o3b2o113b2o3b2o113b2o3b
2o473b2o3b2o113b2o3b2o113b2o3b2o113b2o3b2o45b2obob2o61b2o3b2o$3199bo
239bo119bo119bo119bo119bo119bo248b2o3b2o194bo119bo119bo158b2o3b2o314bo
119bo119bo119bo45bo73bo$3198bo9bo3bo225bo9bo3bo105bo9bo3bo105bo9bo3bo
105bo9bo3bo105bo9bo3bo105bo9bo3bo227bo207bo9bo3bo105bo9bo3bo105bo9bo3b
o137bo327bo9bo3bo105bo9bo3bo105bo9bo3bo105bo9bo3bo32bo72bo9bo3bo$3198b
3o8b3o226b3o8b3o106b3o8b3o106b3o8b3o106b3o8b3o106b3o8b3o106b3o8b3o227b
o9bo3bo194b3o8b3o106b3o8b3o106b3o8b3o137bo9bo3bo314b3o8b3o106b3o8b3o
106b3o8b3o106b3o8b3o106b3o8b3o$3189b2o18b3o217b2o18b3o97b2o18b3o97b2o
18b3o97b2o18b3o97b2o18b3o97b2o18b3o227b3o8b3o186b2o18b3o97b2o18b3o97b
2o18b3o137b3o8b3o306b2o18b3o97b2o18b3o97b2o18b3o97b2o18b3o29b2o66b2o
18b3o$3190bo239bo119bo119bo119bo119bo119bo239b2o18b3o187bo119bo119bo
149b2o18b3o307bo119bo119bo119bo51bo67bo$3187b3o237b3o117b3o117b3o117b
3o117b3o117b3o241bo205b3o117b3o117b3o151bo325b3o117b3o117b3o117b3o49b
3o65b3o$3187bo19b2o218bo19b2o98bo19b2o98bo19b2o98bo19b2o98bo19b2o98bo
19b2o219b3o150bo55bo19b2o98bo19b2o98bo19b2o129b3o150bo175bo19b2o98bo
19b2o98bo19b2o98bo19b2o30bo19b2o46bo19b2o106bo$3208bo239bo119bo119bo
119bo119bo119bo219bo19b2o131bobo74bo119bo119bo129bo19b2o131bobo194bo
119bo119bo119bo51bo67bo105bobo$3205b3o237b3o117b3o117b3o117b3o117b3o
117b3o241bo114bo17bobo70b3o117b3o117b3o151bo114bo17bobo190b3o117b3o
117b3o117b3o49b3o65b3o96b2o7bob2o$3205bo239bo119bo119bo119bo119bo119bo
240b3o115b2o16bo2bo5b2o62bo119bo119bo150b3o115b2o16bo2bo5b2o182bo119bo
119bo119bo51bo67bo97bobo6b2ob2o16bo$4286bo112b2o4b2o15bobo4bo3bo452bo
112b2o4b2o15bobo4bo3bo758bo6b3obob2o15b2o$4395b2o2b2o4b3o13bobo4bo5bo
13b2o545b2o2b2o4b3o13bobo4bo5bo13b2o560bo172b2o7bo2bo2bo2bo2bobo14b2o
11b2o$4395b2o2b2o4b2o7bobo4bo5b2obo3bo13b2o4b3o538b2o2b2o4b2o7bobo4bo
5b2obo3bo13b2o4b3o552bo173b2o7bo6b2o4bo14b3o7bo3b3o$4404b2o9b2o11bo5bo
10b2o6b5o546b2o9b2o11bo5bo10b2o6b5o551b3o181bobo25b2o5b4o4b2obo$4404bo
10bo13bo3bo10b3o5bo3bobo545bo10bo13bo3bo10b3o5bo3bobo735b2o26b2o2bo4bo
4bo2bo5b2o$3184bo239bo119bo119bo119bo119bo119bo406b2o12b2o6bo3b2o15bo
119bo119bo316b2o12b2o6bo3b2o135bo119bo119bo119bo119bo148bo2bo3bo5b2obo
5b2o$3183bo239bo119bo119bo119bo119bo119bo241bo170bobo9b2o23bo119bo119b
o151bo170bobo9b2o143bo119bo119bo119bo119bo132bobo18bob2o3b3o$3183b3o
237b3o117b3o117b3o117b3o117b3o117b3o238bo136b2o9b2o22b2o10b2o23b3o117b
3o117b3o148bo136b2o9b2o22b2o10b2o143b3o117b3o117b3o117b3o117b3o113b2o
9b2o5b2o25b2o$4264b3o133bo2bo7bo2bo22bo426b3o133bo2bo7bo2bo22bo750bo2b
o7bo2bo4bo$4400b3o9b3o7bo577b3o9b3o7bo765b3o9b3o$4403b9o11b2o578b9o11b
2o766b9o20bobo$4402bo2b5o2bo9b2o578bo2b5o2bo9b2o766bo2b5o2bo19b2o$
4402b2o2b3o2b2o589b2o2b3o2b2o777b2o2b3o2b2o20bo$4430bo599bo$4428b2o
598b2o$3155bo2bo26bo2bo56bo2bo26bo2bo26bo2bo26bo2bo26bo2bo26bo2bo26bo
2bo26bo2bo26bo2bo26bo2bo26bo2bo26bo2bo26bo2bo26bo2bo26bo2bo26bo2bo26bo
2bo26bo2bo26bo2bo26bo2bo26bo2bo26bo2bo26bo2bo26bo2bo26bo2bo26bo2bo26bo
2bo26bo2bo26bo2bo26bo2bo26bo2bo26bo2bo26bo2bo26bo2bo26bo2bo26bo2bo26bo
2bo26bo2bo26bo2bo26bo2bo10b2o44bo2bo26bo2bo26bo2bo26bo2bo26bo2bo26bo2b
o26bo2bo26bo2bo26bo2bo56bo2bo26bo2bo26bo2bo26bo2bo26bo2bo26bo2bo26bo2b
o26bo2bo26bo2bo10b2o164bo2bo26bo2bo26bo2bo26bo2bo56bo2bo26bo2bo26bo2bo
26bo2bo26bo2bo26bo2bo26bo2bo26bo2bo26bo2bo26bo2bo26bo2bo26bo2bo26bo2bo
26bo2bo26bo2bo26bo2bo$3154bo29bo59bo29bo29bo29bo29bo29bo29bo29bo29bo
29bo29bo29bo29bo29bo29bo29bo29bo29bo29bo29bo29bo29bo29bo29bo29bo29bo
29bo29bo29bo29bo29bo29bo29bo29bo29bo29bo29bo29bo29bo29bo59bo29bo29bo
29bo29bo29bo29bo29bo29bo59bo29bo29bo29bo29bo29bo29bo29bo29bo179bo29bo
29bo29bo59bo29bo29bo29bo29bo29bo29bo29bo29bo29bo29bo29bo29bo29bo29bo
29bo14b4o$3154bo3bo25bo3bo55bo3bo25bo3bo25bo3bo25bo3bo25bo3bo25bo3bo
25bo3bo25bo3bo25bo3bo25bo3bo25bo3bo25bo3bo25bo3bo25bo3bo25bo3bo25bo3bo
25bo3bo25bo3bo25bo3bo25bo3bo25bo3bo25bo3bo25bo3bo25bo3bo25bo3bo25bo3bo
25bo3bo25bo3bo25bo3bo25bo3bo25bo3bo25bo3bo25bo3bo25bo3bo25bo3bo25bo3bo
25bo3bo25bo3bo25bo3bo25bo3bo55bo3bo25bo3bo25bo3bo25bo3bo25bo3bo25bo3bo
25bo3bo25bo3bo25bo3bo55bo3bo25bo3bo25bo3bo25bo3bo25bo3bo25bo3bo25bo3bo
25bo3bo25bo3bo175bo3bo25bo3bo25bo3bo25bo3bo55bo3bo25bo3bo25bo3bo25bo3b
o25bo3bo25bo3bo25bo3bo25bo3bo25bo3bo25bo3bo25bo3bo25bo3bo25bo3bo25bo3b
o25bo3bo25bo3bo10bo3bo$3154b4o26b4o56b4o26b4o26b4o26b4o26b4o26b4o26b4o
26b4o26b4o26b4o26b4o26b4o26b4o26b4o26b4o26b4o26b4o26b4o26b4o26b4o26b4o
26b4o26b4o26b4o26b4o26b4o26b4o26b4o26b4o26b4o26b4o26b4o26b4o26b4o26b4o
26b4o26b4o26b4o26b4o26b4o56b4o26b4o26b4o26b4o26b4o26b4o26b4o26b4o26b4o
56b4o26b4o26b4o26b4o26b4o26b4o26b4o26b4o26b4o176b4o26b4o26b4o26b4o56b
4o26b4o26b4o26b4o26b4o26b4o26b4o26b4o26b4o26b4o26b4o26b4o26b4o26b4o26b
4o26b4o11bo$3134b2o1318b2o718b2o634bobo$3133bobo1288b3o9b2o15bobo568b
3o9b2o135bobo646b2o$3133bo1290bo9bo2bo7bo7bo570bo9bo2bo7bo127bo643bo4b
2o$3132b2o1285bo5bo7bo7b2o3bo5b2o565bo5bo7bo7b2o3bo125b2o637b2ob5o6b2o
6b2o$4417b4o12bo6bo5bo570b4o12bo6bo5bo763bo4b2o2bo5b3o5b2o$4411b2o3bob
ob2o11bo7b5o565b2o3bobob2o11bo7b5o753b2o8bo8b2o5b2o$4411b2o2bo2bob3o
11bo2bo573b2o2bo2bob3o11bo2bo761b2o8bo7bo4b2o$4416bobob2o14b2o463bo
114bobob2o14b2o771bo12b2o$4417b4o480bobo113b4o789bo$4419bo464bo17bobo
114bo791b2o$4884b2o16bo2bo5b2o$4879b2o4b2o15bobo4bo3bo$4875b2o2b2o4b3o
13bobo4bo5bo13b2o$4875b2o2b2o4b2o7bobo4bo5b2obo3bo13b2o4b3o$4884b2o9b
2o11bo5bo10b2o6b5o$4884bo10bo13bo3bo10b3o5bo3bobo$4911b2o12b2o6bo3b2o$
4916bobo9b2o$4881b2o9b2o22b2o10b2o$3079bo1800bo2bo7bo2bo22bo$3079b3o
1798b3o9b3o7bo$3082bo1800b9o11b2o$3081b2o1799bo2b5o2bo9b2o$4882b2o2b3o
2b2o$4910bo$4908b2o$3125bo2bo26bo2bo26bo2bo26bo2bo26bo2bo26bo2bo26bo2b
o26bo2bo26bo2bo26bo2bo26bo2bo26bo2bo26bo2bo26bo2bo26bo2bo26bo2bo26bo2b
o26bo2bo26bo2bo26bo2bo26bo2bo26bo2bo26bo2bo26bo2bo26bo2bo26bo2bo26bo2b
o26bo2bo26bo2bo26bo2bo26bo2bo26bo2bo26bo2bo26bo2bo26bo2bo26bo2bo26bo2b
o56bo2bo26bo2bo26bo2bo26bo2bo26bo2bo26bo2bo26bo2bo26bo2bo26bo2bo26bo2b
o26bo2bo26bo2bo26bo2bo26bo2bo26bo2bo26bo2bo26bo2bo26bo2bo26bo2bo26bo2b
o26bo2bo26bo2bo10b2o$3124bo29bo29bo29bo29bo29bo29bo29bo29bo29bo29bo29b
o29bo29bo29bo29bo29bo29bo29bo29bo29bo29bo29bo29bo29bo29bo29bo29bo29bo
29bo29bo29bo29bo29bo29bo29bo29bo59bo29bo29bo29bo29bo29bo29bo29bo29bo
29bo29bo29bo29bo29bo29bo29bo29bo29bo29bo29bo29bo29bo$3124bo3bo25bo3bo
25bo3bo25bo3bo25bo3bo25bo3bo25bo3bo25bo3bo25bo3bo25bo3bo25bo3bo25bo3bo
25bo3bo25bo3bo25bo3bo25bo3bo25bo3bo25bo3bo25bo3bo25bo3bo25bo3bo25bo3bo
25bo3bo25bo3bo25bo3bo25bo3bo25bo3bo25bo3bo25bo3bo25bo3bo25bo3bo25bo3bo
25bo3bo25bo3bo25bo3bo25bo3bo25bo3bo55bo3bo25bo3bo25bo3bo25bo3bo25bo3bo
25bo3bo25bo3bo25bo3bo25bo3bo25bo3bo25bo3bo25bo3bo25bo3bo25bo3bo25bo3bo
25bo3bo25bo3bo25bo3bo25bo3bo25bo3bo25bo3bo25bo3bo$3124b4o26b4o26b4o26b
4o26b4o26b4o26b4o26b4o26b4o26b4o26b4o26b4o26b4o26b4o26b4o26b4o26b4o26b
4o26b4o26b4o26b4o26b4o26b4o26b4o26b4o26b4o26b4o26b4o26b4o26b4o26b4o26b
4o26b4o26b4o26b4o26b4o26b4o56b4o26b4o26b4o26b4o26b4o26b4o26b4o26b4o26b
4o26b4o26b4o26b4o26b4o26b4o26b4o26b4o26b4o26b4o26b4o26b4o26b4o26b4o$
3104b2o$3103bobo1798b3o9b2o$3103bo1800bo9bo2bo7bo$3102b2o1795bo5bo7bo
7b2o3bo$4871b2o24b4o12bo6bo5bo$4871bo19b2o3bobob2o11bo7b5o$4861bo7bobo
19b2o2bo2bob3o11bo2bo$4756bo104b4o4b2o25bobob2o14b2o$4753b4o88bo16b4o
31b4o$4744bo7b4o88bobo5b2o8bo2bo33bo$4743bobo6bo2bo16bo69b2o3bo14b4o$
4742bo3b2o4b4o15bobo68b2o3bo4bobob2o3b4o$4731b2o9bo3b2o5b4o14b2obo7b2o
58b2o3bo5b2o3bo2bo$4731b2o9bo3b2o8bo14b2ob2o6bobo54b2o3bobo10bo$4743bo
bo25b2obob3o6bo52bobo4bo8bo2bo$4744bo26bobo2bo2bo2bo2bo7b2o43bo$4753bo
bo16bo4b2o6bo7b2o42b2o535bo$4754b2o26bobo588bo$4707b2o9b2o34bo27b2o
589b3o$4706bo2bo7bo2bo$4706b3o9b3o48bobo68b2o$4709b9o51b2o70bo19b2o$
4708bo2b5o2bo51bo70bobo5b2o9bobo11b2o6b2o$4708b2o2b3o2b2o123b2o5b3o10b
o11bo7bobo$4763bo87b2obo11bo5bobo7bo$4760bo90bo2bo10b2o5b2o$3095bo2bo
26bo2bo26bo2bo26bo2bo26bo2bo26bo2bo26bo2bo26bo2bo26bo2bo26bo2bo26bo2bo
26bo2bo26bo2bo26bo2bo26bo2bo26bo2bo26bo2bo26bo2bo26bo2bo26bo2bo26bo2bo
26bo2bo26bo2bo26bo2bo26bo2bo26bo2bo26bo2bo26bo2bo26bo2bo26bo2bo26bo2bo
26bo2bo26bo2bo26bo2bo26bo2bo26bo2bo26bo2bo26bo2bo26bo2bo26bo2bo26bo2bo
26bo2bo26bo2bo26bo2bo26bo2bo26bo2bo26bo2bo26bo2bo26bo2bo26bo2bo26bo2bo
26bo2bo26bo2bo26bo2bo26bo2bo26bo2bo14bo87b2obo9b2o$3094bo29bo29bo29bo
29bo29bo29bo29bo29bo29bo29bo29bo29bo29bo29bo29bo29bo29bo29bo29bo29bo
29bo29bo29bo29bo29bo29bo29bo29bo29bo29bo29bo29bo29bo29bo29bo29bo29bo
29bo29bo29bo29bo29bo29bo29bo29bo29bo29bo29bo29bo29bo29bo29bo29bo29bo
14b4o11bo15bo88b3o11b3o$3094bo3bo25bo3bo25bo3bo25bo3bo25bo3bo25bo3bo
25bo3bo25bo3bo25bo3bo25bo3bo25bo3bo25bo3bo25bo3bo25bo3bo25bo3bo25bo3bo
25bo3bo25bo3bo25bo3bo25bo3bo25bo3bo25bo3bo25bo3bo25bo3bo25bo3bo25bo3bo
25bo3bo25bo3bo25bo3bo25bo3bo25bo3bo25bo3bo25bo3bo25bo3bo25bo3bo25bo3bo
25bo3bo25bo3bo25bo3bo25bo3bo25bo3bo25bo3bo25bo3bo25bo3bo25bo3bo25bo3bo
25bo3bo25bo3bo25bo3bo25bo3bo25bo3bo25bo3bo25bo3bo25bo3bo25bo3bo10bo3bo
10bo3bo8b3obo87b2o13b2o3b2o$3094b4o26b4o26b4o26b4o26b4o26b4o26b4o26b4o
26b4o26b4o26b4o26b4o26b4o26b4o26b4o26b4o26b4o26b4o26b4o26b4o26b4o26b4o
26b4o26b4o26b4o26b4o26b4o26b4o26b4o26b4o26b4o26b4o26b4o26b4o26b4o26b4o
26b4o26b4o26b4o26b4o26b4o26b4o26b4o26b4o26b4o26b4o26b4o26b4o26b4o26b4o
26b4o26b4o26b4o26b4o26b4o11bo14b4o9bo2b4o101b2o$3074b2o1654bo2bo24bo
107bo$3073bobo1694bo$3073bo1696b2o$3072b2o1685bo5b2o4b2o8b2o$4759bobo
3b2o4b3o7b2o$4747b2o11bobo2b2o4b2o$4747b2o11bo2bo6b2o$4241bo518bobo7bo
126b2o$4241bobo515bobo135bobo$4224bo17bobo514bo137bo$4224b2o16bo2bo5b
2o$4219b2o4b2o15bobo4bo3bo$4215b2o2b2o4b3o13bobo4bo5bo13b2o$4215b2o2b
2o4b2o7bobo4bo5b2obo3bo13b2o4b3o519b2o$4224b2o9b2o11bo5bo10b2o6b5o518b
2o$4224bo10bo13bo3bo10b3o5bo3bobo517b2o$4251b2o12b2o6bo3b2o517bo$4256b
obo9b2o466bo58bobo$4221b2o9b2o22b2o10b2o466b3o56bobo$4220bo2bo7bo2bo
22bo481bo56bo$4220b3o9b3o7bo495b2o6b2o15bo$4223b9o11b2o500bobo15b3o$
4222bo2b5o2bo9b2o502bo19bo26b2o3b2o112b2o$4222b2o2b3o2b2o532b2o26bobob
obo112bobo562b2o$4250bo543b5o113bo565bo$4248b2o483b2o60b3o680bobo7bo$
4235bo2bo10b2o482b2o6b2o53bo682b2o7b4o$4234bo506b2o746b4o$4234bo3bo
1250bo2bo5b2o$4234b4o512b2o16bo720b4o5b2o$3044b2o1704b2o15b3o718b4o$
3043bobo1198b3o9b2o508b5o717bo$3043bo1200bo9bo2bo7bo469b2o28bobobobo$
3042b2o1195bo5bo7bo7b2o3bo467bobo28b2o3b2o21bobo$4211b2o24b4o12bo6bo5b
o467bo58b2o$4211bo19b2o3bobob2o11bo7b5o467b2o59bo$4201bo7bobo4b2o13b2o
2bo2bob3o11bo2bo510bo$4096bo104b4o4b2o4bobo18bobob2o14b2o509bobo157b2o
$4093b4o88bo16b4o11bo19b4o526bobo27b3o127bobo$4084bo7b4o88bobo5b2o8bo
2bo33bo528bo27bo3bo126bo$4083bobo6bo2bo16bo69b2o3bo14b4o562b2o17bo7bo
5bo$4082bo3b2o4b4o15bobo68b2o3bo4bobob2o3b4o563b2o15b2o9bo3bo$4071b2o
9bo3b2o5b4o14b2obo7b2o58b2o3bo5b2o3bo2bo566b2o16b2o9b3o$4071b2o9bo3b2o
8bo14b2ob2o6bobo54b2o3bobo10bo599b3o$4083bobo25b2obob3o6bo52bobo4bo8bo
2bo$4084bo26bobo2bo2bo2bo2bo7b2o43bo621b2o$4093bobo16bo4b2o6bo7b2o42b
2o621bo633bo$4094b2o26bobo676b3o629bo$4047b2o9b2o34bo27b2o654bobo22bo
629b3o$4046bo2bo7bo2bo717b2o27b2o$4046b3o9b3o48bobo68b2o520b2o75bo27b
2o$4049b9o51b2o70bo19b2o499b2o30bo33b2o$4048bo2b5o2bo51bo70bobo5b2o9bo
bo11b2o446bo69b3o33b2o172b2o$4048b2o2b3o2b2o123b2o5b3o10bo11bo445b3o
68bo210bobo$4103bo87b2obo11bo5bobo444bo42b3o26b2o209bo$4100bo90bo2bo
10b2o5b2o445b2o41b3o63bob2o$4085bo2bo14bo87b2obo9b2o522bo38b2o3bo$
4069b4o11bo15bo88b3o11b3o522bo37b2o2b2o$4069bo3bo10bo3bo8b3obo87b2o13b
2o3b2o$4069bo14b4o9bo2b4o101b2o493b2o3b2o$3014b2o1054bo2bo24bo107bo
494b5o20b2o3b2o$3013bobo1094bo591b3o22b5o28bo21bo$3013bo1050b3o43b2o
552b3o36bo24b3o28bo15b2obo3b4o$3012b2o1052bo32bo5b2o4b2o8b2o533b3o7bo
3b3o16bo39bo29b3o7b2o2b2obobo4b4o$4065bo33bobo3b2o4b3o7b2o532bo3bo5bo
4bo18bo78bobo2b2obob2o3bo2bo5b2o$4087b2o11bobo2b2o4b2o541bo5bo10bo16bo
bo76b3o8b2o3b4o5b2o$4087b2o11bo2bo6b2o543bo3bo29bo76b3o8b2o3b4o$4100bo
bo7bo545b3o30bo54b2o21b3o12bo174b2o$4099bobo554bo2bo29bo54b2o14b2o6bob
o186bobo$4057b2o40bo557b3o29bo12bo49bo6bobo7b2o186bo$4056bobo598b2obo
17b2o8bobo9b2o28bo21bobo4bo$4058bo599bobo17bobo8bo11b2o28b2o19b2o4b2o$
4659bo18bo10bo40b2o688b2o8bo29bo$4136b2o1282b2o6b3o28bo$4136b2o1289bo
31b3o$4136b2o518b2o3b2o749b2o13b2o$4136bo519bobobobo39b2o3b2o36bo667bo
$4049b3o24bo58bobo519b5o31bobo8b3o17b2o3b2o13bo668bobo$4051bo24b3o56bo
bo520b3o24b3o5b2o8bo3bo18b3o8bobo4b3o667b2o27bo$3160b2o741bo146bo28bo
56bo73b2o381bo65bo25bo8bo9bobo18bo3bo8b2o703b3o$3159bo742bobo173b2o6b
2o15bo105bo382bobo91bo18bo20bobo9bo682b2o23bo$3158bo12b2o712b2o15b2obo
179bobo15b3o102bo12b2o352b2o15b2obo131bo693b2o22b2o$3143b2o13bo7bo4b2o
712bobo14b2ob2o3b2o174bo19bo26b2o3b2o53b2o13bo7bo4b2o352bobo14b2ob2o3b
2o370b2o$3143bo2bo11bo8b2o5b2o704b2o6bo13b2obo4b2o193b2o26bobobobo53bo
2bo11bo8b2o5b2o344b2o6bo13b2obo4b2o106bo263bobo$3129bobo15bo11bo4b2o2b
o5b3o5b2o692b2obo2bo2bo2bo13bobo137b2o36b2o52b5o40bobo15bo11bo4b2o2bo
5b3o5b2o332b2obo2bo2bo2bo13bobo66b2o34bo9bobo262bo443bo$3127bo3bo2b3o
10bo12b2ob5o6b2o6b2o692b2o2b2o6bo8bo5bo137bobo29b2o5b2o53b3o39bo3bo2b
3o10bo12b2ob5o6b2o6b2o332b2o2b2o6bo8bo5bo67bo34b2o8bo3bo16b2o686bobo$
3127bo19bo18bo4b2o712bobo7bobo145bo29b2o61bo40bo19bo18bo4b2o352bobo7bo
bo74b3o24bo6bobo8b3o17b2o686b2o$3120b2o4bo4bo7b2o2bo2bo24b2o712b2o9b2o
272b2o4bo4bo7b2o2bo2bo24b2o352b2o9b2o76bo24bo15b2o3b2o$3120b2o5bo7bobo
2bo2b2o1025b2o5bo7bobo2bo2b2o493bobo$3127bo3bo5b3o18bo931b2o16bo68bo3b
o5b3o18bo480bo734b2o$3129bobo25bo932b2o15b3o69bobo25bo481bo734b2o28b3o
15b2o$3157b3o946b5o96b3o479bo764bo17b2o$3904bo129b3o38b2o28bobobobo
482bo94bo14b2o723b2o24bo$3146bo758bo130bo37bobo28b2o3b2o21bobo60bo398b
o92bobo12b2o725bo$3147bo755b3o129bo38bo58b2o62bo395b3o93bo15bo724bobo$
3145b3o925b2o59bo60b3o491bo741b2o$4108bo1446bo$4107bobo877b2o457b2o24b
3o80bobo$3171b2o934bobo27b3o81b2o764bobo456b2o23b2ob2o62bo17bobo$3157b
2o11b4o853b2o79bo27bo3bo66b2o11b4o763bo483b2ob2o62b2o16bo2bo3b2o$3155b
2ob2o10b2ob2o737bo113bobo79b2o17bo7bo5bo63b2ob2o10b2ob2o377bo868b5o57b
2o4b2o15bobo4b2o$3155b4o13b2o736bobo115bo79b2o15b2o9bo3bo64b4o13b2o
376bobo103bo722b2o39b2o3b2o52b2o2b2o4b3o13bobo$3156b2o21bo731b2o195b2o
16b2o9b3o66b2o21bo371b2o102b3o721b2o5b2o91b2o2b2o4b2o7bobo4bo$3143bo
35b2o956b3o53bo35b2o473b5o727b2o100b2o9b2o$3140b4o3bob2o27bobo1009b4o
3bob2o27bobo472b2o3b2o760bo67bo10bo$3132b2o5b4o4bobob2o2b2o983b2o40b2o
5b4o4bobob2o2b2o1235bo25b2obo$3132b2o5bo2bo3b2obob2o2bobo982bo41b2o5bo
2bo3b2obob2o2bobo1233bobo27bo22bo$3139b4o3b2o8b3o7b2o751bo99b3o119b3o
45b4o3b2o8b3o7b2o391bo824b2o6b2o49bo$3140b4o3b2o8b3o6b2o752bo100bo96bo
bo22bo46b4o3b2o8b3o6b2o392bo94b3o727bo32bob2o21b3o$3143bo12b3o190bo
119bo119bo119bo119bo88b3o99bo97b2o27b2o44bo12b3o190bo119bo88b3o94b3o
411bo119bo119bo72b3o35bo2bo82bo$3155bobo13b2o38b2o118b2o16b3o99b2o16b
3o99b2o16b3o99b2o16b3o99b2o16b3o210b2o75bo27b2o56bobo13b2o38b2o118b2o
16b3o99b2o16b3o459b2o118b2o16b3o99b2o16b3o99b2o16b3o70bo28b2o8bobo83b
2o$3155b2o15b2o37b2o118b2o19bo98b2o19bo98b2o19bo98b2o19bo98b2o19bo119b
2o88b2o30bo33b2o95b2o15b2o37b2o118b2o19bo98b2o19bo119b2o337b2o118b2o
19bo98b2o19bo98b2o19bo98b2o93b2o44b2o$3171bo179b2o118b2o118b2o118b2o
118b2o117bo3bo47bo69b3o33b2o111bo179b2o118b2o117bo3bo60b2o295b2o117b2o
118b2o118b2o119b2o116bo3bo$3949bo5bo13b2o29b3o68bo567bo5bo13b2o44b2o
295bobo477bobo114bo5bo13b2o$3944b2o2b2obo3bo13b2o4b3o21bo12b2o28b3o26b
2o561b2o2b2obo3bo13b2o4b3o334bo479bo111b2o2b2obo3bo13b2o4b3o$3927bo16b
2o3bo5bo10b2o6b5o20b2o10bobo28b3o63bob2o505bo16b2o3bo5bo10b2o6b5o801b
3o121b2o3bo5bo10b2o6b5o$3275bo119bo119bo119bo119bo119bo49bobo22bo3bo
10b3o5bo3bobo33bo54bo38b2o3bo212bo119bo119bo49bobo22bo3bo10b3o5bo3bobo
375bo119bo119bo119bo63bo3bo51bo74bo3bo10b3o5bo3bobo$3164bo110b2o118b2o
118b2o118b2o118b2o118b2o49b2o24b2o12b2o6bo3b2o88bo37b2o2b2o102bo110b2o
118b2o118b2o49b2o24b2o12b2o6bo3b2o375b2o118b2o118b2o118b2o61bo5bo50b2o
36bobo36b2o12b2o6bo3b2o$3164b2o105b2o3b2o13b2o98b2o3b2o13b2o98b2o3b2o
13b2o98b2o3b2o13b2o98b2o3b2o13b2o98b2o3b2o13b2o64bobo9b2o243b2o105b2o
3b2o13b2o98b2o3b2o13b2o98b2o3b2o13b2o64bobo9b2o380b2o3b2o13b2o98b2o3b
2o13b2o98b2o3b2o13b2o98b2o3b2o13b2o46bo3bo47b2o3b2o13b2o21b2o41bobo9b
2o$3163bobo46bo63b3o11b3o39bo63b3o11b3o39bo63b3o11b3o39bo63b3o11b3o39b
o63b3o11b3o39bo63b3o11b3o64b2o10b2o69b2o3b2o166bobo46bo63b3o11b3o39bo
63b3o11b3o39bo63b3o11b3o64b2o10b2o321bo63b3o11b3o39bo63b3o11b3o39bo63b
3o11b3o39bo63b3o11b3o39bo7b3o53b3o11b3o21bo42b2o10b2o$3211b3o62b2o9bob
2o40b3o62b2o9bob2o40b3o62b2o9bob2o40b3o62b2o9bob2o40b3o62b2o9bob2o40b
3o62b2o9bob2o67bo82b5o20b2o3b2o188b3o62b2o9bob2o40b3o62b2o9bob2o40b3o
62b2o9bob2o67bo332b3o62b2o9bob2o40b3o62b2o9bob2o40b3o62b2o9bob2o40b3o
62b2o9bob2o40b3o6b3o53b2o9bob2o67bo$3210b5o53b2o5b2o10bo2bo39b5o53b2o
5b2o10bo2bo39b5o53b2o5b2o10bo2bo39b5o53b2o5b2o10bo2bo39b5o53b2o5b2o10b
o2bo39b5o53b2o5b2o10bo2bo151b3o22b5o28bo21bo137b5o53b2o5b2o10bo2bo39b
5o53b2o5b2o10bo2bo39b5o53b2o5b2o10bo2bo399b5o53b2o5b2o10bo2bo39b5o53b
2o5b2o10bo2bo39b5o53b2o5b2o10bo2bo39b5o53b2o5b2o10bo2bo39b5o53b2o5b2o
10bo2bo$3209b2o3b2o51bobo5bo11bob2o38b2o3b2o51bobo5bo11bob2o38b2o3b2o
51bobo5bo11bob2o38b2o3b2o51bobo5bo11bob2o38b2o3b2o51bobo5bo11bob2o38b
2o3b2o51bobo5bo11bob2o43bo69b3o36bo24b3o28bo15b2obo3b4o133b2o3b2o51bob
o5bo11bob2o38b2o3b2o51bobo5bo11bob2o38b2o3b2o51bobo5bo11bob2o43bo354b
2o3b2o51bobo5bo11bob2o38b2o3b2o51bobo5bo11bob2o38b2o3b2o51bobo5bo11bob
2o38b2o3b2o51bobo5bo11bob2o38b2o3b2o51bobo5bo11bob2o$3267bo11bo10b3o5b
2o87bo11bo10b3o5b2o87bo11bo10b3o5b2o87bo11bo10b3o5b2o87bo11bo10b3o5b2o
87bo11bo10b3o5b2o35bo60b3o7bo22bo39bo29b3o7b2o2b2obobo4b4o190bo11bo10b
3o5b2o87bo11bo10b3o5b2o87bo11bo10b3o5b2o35bo411bo11bo10b3o5b2o87bo11bo
10b3o5b2o87bo11bo10b3o5b2o87bo11bo10b3o5b2o87bo11bo10b3o5b2o$3266b2o
13bo9b2o5bobo85b2o13bo9b2o5bobo85b2o13bo9b2o5bobo85b2o13bo9b2o5bobo85b
2o13bo9b2o5bobo85b2o13bo9b2o5bobo32b3o59bo3bo5bo23bo78bobo2b2obob2o3bo
2bo5b2o182b2o13bo9b2o5bobo85b2o13bo9b2o5bobo85b2o13bo9b2o5bobo32b3o
410b2o13bo9b2o5bobo85b2o13bo9b2o5bobo85b2o13bo9b2o5bobo85b2o13bo9b2o5b
obo39b2o44b2o13bo9b2o5bobo20bo$3156b2o119bo2bo19bo96bo2bo19bo96bo2bo
19bo96bo2bo19bo96bo2bo19bo96bo2bo19bo50bo42bo5bo27bobo76b3o8b2o3b4o5b
2o72b2o119bo2bo19bo96bo2bo19bo96bo2bo19bo50bo405bo2bo19bo96bo2bo19bo
96bo2bo19bo96bo2bo19bo39b2o55bo2bo19bo21b2o27bo$3157b2o52b3o62bo23b2o
29b3o62bo23b2o29b3o62bo23b2o29b3o62bo23b2o29b3o62bo23b2o29b3o62bo23b2o
47b2o44bo3bo29bo76b3o8b2o3b4o81b2o52b3o62bo23b2o29b3o62bo23b2o29b3o62b
o23b2o47b2o340b3o62bo23b2o29b3o62bo23b2o29b3o62bo23b2o29b3o62bo23b2o
29b3o62bo23b2o19b2o26b2o$3156bo54b3o62bo54b3o33b2o27bo54b3o33b2o27bo
54b3o33b2o27bo54b3o33b2o27bo54b3o33b2o27bo73b2o44b3o30bo54b2o21b3o12bo
83bo54b3o62bo54b3o33b2o27bo54b3o33b2o27bo73b2o339b3o33b2o27bo54b3o62bo
54b3o33b2o27bo54b3o33b2o27bo54b3o33b2o27bo73b2o$3277bo89bobo27bo89bobo
27bo89bobo27bo89bobo27bo89bobo27bo118bo2bo29bo54b2o14b2o6bobo216bo89bo
bo27bo89bobo27bo230b2o217bobo27bo119bo89bobo27bo89bobo27bo89bobo27bo$
3210bo119bo36bo82bo36bo82bo36bo82bo36bo82bo36bo149b3o29bo12bo49bo6bobo
7b2o149bo119bo36bo82bo36bo260b2o180bo36bo82bo119bo36bo82bo36bo82bo36bo
$3209bobo60bo30b2o24bobo60bo30b2o24bobo60bo30b2o24bobo60bo30b2o24bobo
60bo30b2o24bobo60bo30b2o92b2obo27bobo9b2o28bo21bobo4bo159bobo60bo30b2o
24bobo60bo30b2o24bobo60bo30b2o384bobo60bo30b2o24bobo60bo30b2o24bobo60b
o30b2o24bobo60bo30b2o24bobo60bo30b2o$3138bo9b2o58bo3bo58bo31bo24bo3bo
58bo31bo24bo3bo58bo31bo24bo3bo58bo31bo24bo3bo58bo31bo24bo3bo58bo31bo
94bobo28bo11b2o28b2o19b2o4b2o88bo9b2o58bo3bo58bo31bo24bo3bo58bo31bo24b
o3bo58bo31bo384bo3bo58bo31bo24bo3bo58bo31bo24bo3bo58bo31bo24bo3bo58bo
31bo24bo3bo58bo31bo$3137bobo7b4o58b3o59b3o10bo2bo8bo4bobo25b3o59b3o10b
o2bo8bo4bobo25b3o59b3o10bo2bo8bo4bobo25b3o59b3o10bo2bo8bo4bobo25b3o59b
3o10bo2bo8bo4bobo25b3o59b3o10bo2bo8bo4bobo95bo29bo40b2o115bobo7b4o58b
3o59b3o10bo2bo8bo4bobo25b3o59b3o10bo2bo8bo4bobo25b3o59b3o10bo2bo8bo4bo
bo177b2o34b2o170b3o59b3o10bo2bo8bo4bobo25b3o59b3o10bo2bo8bo4bobo25b3o
59b3o10bo2bo8bo4bobo25b3o59b3o10bo2bo8bo4bobo25b3o59b3o10bo2bo8bo4bobo
24bobo$3130b2o4bob2o5b3o2bo2bobo51b2o3b2o4bo65bo10bobo3b2o24b2o3b2o4bo
65bo10bobo3b2o24b2o3b2o4bo65bo10bobo3b2o24b2o3b2o4bo65bo10bobo3b2o24b
2o3b2o4bo65bo10bobo3b2o24b2o3b2o4bo65bo10bobo3b2o277b2o4bob2o5b3o2bo2b
obo51b2o3b2o4bo65bo10bobo3b2o24b2o3b2o4bo65bo10bobo3b2o24b2o3b2o4bo65b
o10bobo3b2o178bo34bobo168b2o3b2o4bo65bo10bobo3b2o24b2o3b2o4bo65bo10bob
o3b2o24b2o3b2o4bo65bo10bobo3b2o24b2o3b2o4bo65bo10bobo3b2o24b2o3b2o4bo
65bo10bobo3b2o26b2o11bobo$3130b2o3b2ob2o9b2o2bo2bo59bobo5b2o54bo2bo3b
2o5bo3b2o36bobo5b2o54bo2bo3b2o5bo3b2o36bobo5b2o54bo2bo3b2o5bo3b2o36bob
o5b2o54bo2bo3b2o5bo3b2o36bobo5b2o54bo2bo3b2o5bo3b2o36bobo5b2o54bo2bo3b
2o5bo3b2o280b2o3b2ob2o9b2o2bo2bo59bobo5b2o54bo2bo3b2o5bo3b2o36bobo5b2o
54bo2bo3b2o5bo3b2o36bobo5b2o54bo2bo3b2o5bo3b2o170b2o7bobo35bo178bobo5b
2o54bo2bo3b2o5bo3b2o36bobo5b2o54bo2bo3b2o5bo3b2o36bobo5b2o54bo2bo3b2o
5bo3b2o36bobo5b2o54bo2bo3b2o5bo3b2o36bobo5b2o54bo2bo3b2o5bo3b2o29bo12b
2o$3136bob2o6bo9b2o6b2o51b2o5b2o51b4o3b2obobo4bo3b2o37b2o5b2o51b4o3b2o
bobo4bo3b2o37b2o5b2o51b4o3b2obobo4bo3b2o37b2o5b2o51b4o3b2obobo4bo3b2o
37b2o5b2o51b4o3b2obobo4bo3b2o37b2o5b2o51b4o3b2obobo4bo3b2o96b2o3b2o
183bob2o6bo9b2o6b2o51b2o5b2o51b4o3b2obobo4bo3b2o37b2o5b2o51b4o3b2obobo
4bo3b2o37b2o5b2o51b4o3b2obobo4bo3b2o163bob2o3b3o6b2o216b2o5b2o51b4o3b
2obobo4bo3b2o37b2o5b2o51b4o3b2obobo4bo3b2o37b2o5b2o51b4o3b2obobo4bo3b
2o37b2o5b2o51b4o3b2obobo4bo3b2o37b2o5b2o51b4o3b2obobo4bo3b2o43bo$3137b
obo5bo8bo3b2o4b2o110b4o14bo3b2o96b4o14bo3b2o96b4o14bo3b2o96b4o14bo3b2o
96b4o14bo3b2o96b4o14bo3b2o96bobobobo26b2o11b2o3b2o36bo101bobo5bo8bo3b
2o4b2o110b4o14bo3b2o96b4o14bo3b2o96b4o14bo3b2o159bo2bo3bo5b2obo280b4o
14bo3b2o96b4o14bo3b2o96b4o14bo3b2o96b4o14bo3b2o96b4o14bo3b2o$3138bo6bo
10b2o118bo2bo8b2o5bobo98bo2bo8b2o5bobo98bo2bo8b2o5bobo98bo2bo8b2o5bobo
98bo2bo8b2o5bobo98bo2bo8b2o5bobo99b5o27b2ob2obo8b3o17b2o3b2o13bo103bo
6bo10b2o118bo2bo8b2o5bobo98bo2bo8b2o5bobo98bo2bo8b2o5bobo160b2o2bo4bo
4bo2bo280bo2bo8b2o5bobo98bo2bo8b2o5bobo98bo2bo8b2o5bobo98bo2bo8b2o5bob
o98bo2bo8b2o5bobo$3153bo2bo119b4o16bo99b4o16bo99b4o16bo99b4o16bo99b4o
16bo99b4o16bo101b3o27b2o2b3o8bo3bo18b3o8bobo4b3o116bo2bo119b4o16bo99b
4o16bo99b4o16bo150b2o8b2o5b4o4b2obo37b2o241b4o16bo99b4o16bo99b4o16bo
99b4o16bo99b4o16bo$3153bobo115b2o4b4o110b2o4b4o110b2o4b4o110b2o4b4o
110b2o4b4o110b2o4b4o118bo30bo3bo9bobo18bo3bo8b2o123bobo115b2o4b4o110b
2o4b4o110b2o4b4o166b2o7b3o7bo3b3o40b2o236b2o4b4o110b2o4b4o110b2o4b4o
110b2o4b4o110b2o4b4o$3225bo44bobo7bo64bo44bobo7bo64bo44bobo7bo64bo44bo
bo7bo64bo44bobo7bo64bo44bobo7bo164bo20bobo9bo196bo44bobo7bo64bo44bobo
7bo64bo44bobo7bo176b2o11b2o46b2o185bo44bobo7bo64bo44bobo7bo64bo44bobo
7bo64bo44bobo7bo64bo44bobo7bo$3226bo43bo75bo43bo75bo43bo75bo43bo75bo
43bo75bo43bo196bo208bo43bo75bo43bo75bo43bo187b2o4b2o52bobo185bo43bo75b
o43bo75bo43bo75bo43bo75bo43bo$3207b2o15b3o42b2o56b2o15b3o35b2o5b2o56b
2o15b3o35b2o5b2o56b2o15b3o35b2o5b2o56b2o15b3o35b2o5b2o56b2o15b3o35b2o
5b2o386b2o15b3o42b2o56b2o15b3o35b2o5b2o56b2o15b3o35b2o5b2o188bo3b2o55b
o166b2o15b3o35b2o5b2o56b2o15b3o42b2o56b2o15b3o35b2o5b2o56b2o15b3o35b2o
5b2o56b2o15b3o35b2o5b2o$3208bo119bo53bobo63bo53bobo63bo53bobo63bo53bob
o63bo53bobo183bo209bo119bo53bobo63bo53bobo198b2o40b2o13b2o166bo53bobo
63bo119bo53bobo63bo53bobo63bo53bobo$3205b3o24bobo73b2o15b3o24bobo27bo
45b2o15b3o24bobo27bo45b2o15b3o24bobo27bo45b2o15b3o24bobo27bo45b2o15b3o
24bobo27bo45b2o91b2o34bo9bobo205b3o24bobo73b2o15b3o24bobo27bo45b2o15b
3o24bobo27bo45b2o155bo40bo178b3o24bobo27bo45b2o15b3o24bobo73b2o15b3o
24bobo27bo45b2o15b3o24bobo27bo45b2o15b3o24bobo27bo45b2o$3205bo24bo3bo
22b2o49b2o15bo24bo3bo22b2o49b2o15bo24bo3bo22b2o49b2o15bo24bo3bo22b2o
49b2o15bo24bo3bo22b2o49b2o15bo24bo3bo22b2o49b2o91bo34b2o8bo3bo16b2o
186bo24bo3bo22b2o49b2o15bo24bo3bo22b2o49b2o15bo24bo3bo22b2o49b2o193b3o
6b2o171bo24bo3bo22b2o49b2o15bo24bo3bo22b2o49b2o15bo24bo3bo22b2o49b2o
15bo24bo3bo22b2o49b2o15bo24bo3bo22b2o49b2o$3222bo7bo25bobo83bo7bo25bob
o83bo7bo25bobo83bo7bo25bobo83bo7bo25bobo83bo7bo25bobo143b3o24bo6bobo8b
3o17b2o203bo7bo25bobo83bo7bo25bobo83bo7bo25bobo244bo8b2o188bo7bo25bobo
83bo7bo25bobo83bo7bo25bobo83bo7bo25bobo83bo7bo25bobo$3221b4o4bo4bo8b2o
11bo84b4o4bo4bo8b2o11bo84b4o4bo4bo8b2o11bo84b4o4bo4bo8b2o11bo84b4o4bo
4bo8b2o11bo84b4o4bo4bo8b2o11bo147bo24bo15b2o3b2o219b4o4bo4bo8b2o11bo
84b4o4bo4bo8b2o11bo84b4o4bo4bo8b2o11bo444b4o4bo4bo8b2o11bo84b4o4bo4bo
8b2o11bo84b4o4bo4bo8b2o11bo84b4o4bo4bo8b2o11bo84b4o4bo4bo8b2o11bo$
3220b2obobo4bo12b2o10b2o52bo30b2obobo4bo12b2o10b2o52bo30b2obobo4bo12b
2o10b2o52bo30b2obobo4bo12b2o10b2o52bo30b2obobo4bo12b2o10b2o52bo30b2obo
bo4bo12b2o10b2o52bo118bobo239b2obobo4bo12b2o10b2o52bo30b2obobo4bo12b2o
10b2o52bo30b2obobo4bo12b2o10b2o52bo390b2obobo4bo12b2o10b2o52bo30b2obob
o4bo12b2o10b2o52bo30b2obobo4bo12b2o10b2o52bo30b2obobo4bo12b2o10b2o52bo
30b2obobo4bo12b2o10b2o52bo$3219b3obo2bo3bo3bo73bobo28b3obo2bo3bo3bo73b
obo28b3obo2bo3bo3bo73bobo28b3obo2bo3bo3bo73bobo28b3obo2bo3bo3bo73bobo
28b3obo2bo3bo3bo73bobo118bo239b3obo2bo3bo3bo73bobo28b3obo2bo3bo3bo73bo
bo28b3obo2bo3bo3bo73bobo161bo226b3obo2bo3bo3bo73bobo28b3obo2bo3bo3bo
73bobo28b3obo2bo3bo3bo73bobo28b3obo2bo3bo3bo73bobo28b3obo2bo3bo3bo73bo
bo$3220b2obobo6bobo72bo3bo28b2obobo6bobo34b3o35bo3bo28b2obobo6bobo34b
3o35bo3bo28b2obobo6bobo34b3o35bo3bo28b2obobo6bobo34b3o35bo3bo28b2obobo
6bobo34b3o35bo3bo117bo240b2obobo6bobo72bo3bo28b2obobo6bobo34b3o35bo3bo
28b2obobo6bobo34b3o35bo3bo159b2o227b2obobo6bobo34b3o35bo3bo28b2obobo6b
obo72bo3bo28b2obobo6bobo34b3o35bo3bo28b2obobo6bobo34b3o35bo3bo28b2obob
o6bobo34b3o35bo3bo$3211b2o8b4o82b5o19b2o8b4o44bo37b5o19b2o8b4o44bo37b
5o19b2o8b4o44bo37b5o19b2o8b4o44bo37b5o19b2o8b4o44bo37b5o117bo231b2o8b
4o82b5o19b2o8b4o44bo37b5o19b2o8b4o44bo37b5o159bobo217b2o8b4o44bo37b5o
19b2o8b4o82b5o19b2o8b4o44bo37b5o19b2o8b4o44bo37b5o19b2o8b4o44bo37b5o$
3210bobo9bo83b2o3b2o17bobo9bo47bo35b2o3b2o17bobo9bo47bo35b2o3b2o17bobo
9bo47bo35b2o3b2o17bobo9bo47bo35b2o3b2o17bobo9bo47bo35b2o3b2o116bo14b2o
214bobo9bo83b2o3b2o17bobo9bo47bo35b2o3b2o17bobo9bo47bo35b2o3b2o377bobo
9bo47bo35b2o3b2o17bobo9bo83b2o3b2o17bobo9bo47bo35b2o3b2o17bobo9bo47bo
35b2o3b2o17bobo9bo47bo35b2o3b2o$3210bo96b5o18bo96b5o18bo96b5o18bo96b5o
18bo96b5o18bo96b5o116bobo12b2o215bo96b5o18bo96b5o18bo96b5o378bo96b5o
18bo96b5o18bo96b5o18bo96b5o18bo96b5o$3209b2o84bo12b3o18b2o84bo12b3o18b
2o84bo12b3o18b2o84bo12b3o18b2o84bo12b3o18b2o84bo12b3o118bo15bo213b2o
84bo12b3o18b2o84bo12b3o18b2o84bo12b3o378b2o84bo12b3o18b2o84bo12b3o18b
2o84bo12b3o18b2o84bo12b3o18b2o84bo12b3o$3294bobo12bo104bobo12bo104bobo
12bo104bobo12bo104bobo12bo104bobo12bo119bo314bobo12bo104bobo12bo104bob
o12bo464bobo12bo104bobo12bo104bobo12bo104bobo12bo104bobo12bo2$3397b2o
118b2o118b2o118b2o118b2o568b2o118b2o200b2o276b2o238b2o118b2o118b2o$
3192bo101b3o100bobo14b3o100bobo14b3o100bobo14b3o100bobo14b3o100bobo14b
3o345bo101b3o100bobo14b3o100bobo14b3o181b2o198b2o77bobo14b3o117b3o100b
obo14b3o100bobo14b3o100bobo14b3o$3191bobo100b3o13bo86bo16b3o13bo86bo
16b3o13bo86bo16b3o13bo86bo16b3o13bo86bo16b3o13bo330bobo100b3o13bo86bo
16b3o13bo86bo16b3o13bo169bo198bo77bo16b3o13bo103b3o13bo86bo16b3o13bo
86bo16b3o13bo86bo16b3o13bo$3179b2o10b2obo100bo11b2o106bo11b2o106bo11b
2o106bo11b2o106bo11b2o106bo11b2o320b2o10b2obo100bo11b2o106bo11b2o106bo
11b2o367b3o96bo11b2o106bo11b2o106bo11b2o106bo11b2o106bo11b2o$3179b2o
10b2ob2o111b3o117b3o117b3o117b3o117b3o117b3o136bo182b2o10b2ob2o111b3o
117b3o117b3o366bo110b3o117b3o117b3o117b3o117b3o$3191b2obo113b2o118b2o
118b2o118b2o118b2o118b2o135b3o193b2obo113b2o118b2o118b2o478b2o118b2o
118b2o118b2o118b2o$3191bobo4b2o95bo12bo106bo12bo106bo12bo106bo12bo106b
o12bo106bo12bo135b5o192bobo4b2o95bo12bo106bo12bo106bo12bo466bo12bo106b
o12bo106bo12bo106bo12bo106bo12bo$3192bo5bobo93b3o10bobo104b3o10bobo
104b3o10bobo104b3o10bobo104b3o10bobo104b3o10bobo133b2o3b2o192bo5bobo
93b3o10bobo104b3o10bobo104b3o10bobo177bo286b3o10bobo104b3o10bobo104b3o
10bobo104b3o10bobo104b3o10bobo$3200bo93b3o10b2o95b3o7b3o10b2o95b3o7b3o
10b2o95b3o7b3o10b2o95b3o7b3o10b2o95b3o7b3o10b2o341bo93b3o10b2o95b3o7b
3o10b2o95b3o7b3o10b2o177b2o276b3o7b3o10b2o105b3o10b2o95b3o7b3o10b2o95b
3o7b3o10b2o95b3o7b3o10b2o$3200b2o202bo119bo119bo119bo119bo365b2o202bo
119bo201bobo275bo239bo119bo119bo$3405bo119bo119bo119bo119bo569bo119bo
225b2o252bo239bo119bo119bo$3294bobo11b2obob2o99bobo11b2obob2o99bobo11b
2obob2o99bobo11b2obob2o99bobo11b2obob2o99bobo11b2obob2o130b3o296bobo
11b2obob2o99bobo11b2obob2o99bobo11b2obob2o196bo262bobo11b2obob2o99bobo
11b2obob2o99bobo11b2obob2o99bobo11b2obob2o99bobo11b2obob2o$3295bo119bo
119bo119bo119bo119bo149b3o297bo119bo119bo204b2o7bobo263bo119bo119bo
119bo119bo$3301bo6bo5bo106bo6bo5bo106bo6bo5bo106bo6bo5bo106bo6bo5bo
106bo6bo5bo436bo6bo5bo106bo6bo5bo106bo6bo5bo178bob2o3b3o6b2o270bo6bo5b
o106bo6bo5bo106bo6bo5bo106bo6bo5bo106bo6bo5bo$3296bo2b2o118b2o118b2o
118b2o118b2o118b2o445bo2b2o118b2o118b2o188bo2bo3bo5b2obo273b2o115bo2b
2o118b2o118b2o118b2o$3295b2o3b2o7b2ob2o98b2o6b2o7b2ob2o98b2o6b2o7b2ob
2o98b2o6b2o7b2ob2o98b2o6b2o7b2ob2o98b2o6b2o7b2ob2o131b2o298b2o3b2o7b2o
b2o98b2o6b2o7b2ob2o98b2o6b2o7b2ob2o174b2o2bo4bo4bo2bo266b2o6b2o7b2ob2o
101b2o3b2o7b2ob2o98b2o6b2o7b2ob2o98b2o6b2o7b2ob2o98b2o6b2o7b2ob2o$
3295bobo13bo100bobo16bo100bobo16bo100bobo16bo100bobo16bo100bobo16bo
133b2o298bobo13bo100bobo16bo100bobo16bo165b2o8b2o5b4o4b2obo266bobo16bo
103bobo13bo100bobo16bo100bobo16bo100bobo16bo$3412bo119bo119bo119bo119b
o569bo119bo184b2o7b3o7bo3b3o269bo239bo119bo119bo$4777b2o11b2o$4778b2o$
3295bo119bo119bo119bo119bo119bo449bo119bo119bo193bo285bo119bo119bo119b
o119bo$3294bobo17bo99bobo17bo99bobo17bo99bobo17bo99bobo17bo99bobo17bo
429bobo17bo99bobo17bo99bobo17bo459bobo17bo99bobo17bo99bobo17bo99bobo
17bo99bobo17bo$3303b2o7b2ob2o106b2o7b2ob2o106b2o7b2ob2o106b2o7b2ob2o
106b2o7b2ob2o106b2o7b2ob2o436b2o7b2ob2o106b2o7b2ob2o106b2o7b2ob2o466b
2o7b2ob2o106b2o7b2ob2o106b2o7b2ob2o106b2o7b2ob2o106b2o7b2ob2o$3302b2o
118b2o118b2o118b2o118b2o118b2o448b2o118b2o118b2o478b2o118b2o118b2o118b
2o118b2o$3294b3o7bo6bo5bo96b3o7bo6bo5bo96b3o7bo6bo5bo96b3o7bo6bo5bo96b
3o7bo6bo5bo96b3o7bo6bo5bo426b3o7bo6bo5bo96b3o7bo6bo5bo96b3o7bo6bo5bo
456b3o7bo6bo5bo96b3o7bo6bo5bo96b3o7bo6bo5bo96b3o7bo6bo5bo96b3o7bo6bo5b
o$3294b3o117b3o117b3o117b3o117b3o117b3o447b3o117b3o117b3o477b3o117b3o
117b3o117b3o117b3o$3295bo15b2obob2o97bo15b2obob2o97bo15b2obob2o97bo15b
2obob2o97bo15b2obob2o97bo15b2obob2o427bo15b2obob2o97bo15b2obob2o97bo
15b2obob2o457bo15b2obob2o97bo15b2obob2o97bo15b2obob2o97bo15b2obob2o97b
o15b2obob2o3$3295bo14b2o103bo14b2o103bo14b2o103bo14b2o103bo14b2o103bo
14b2o433bo14b2o103bo14b2o103bo14b2o463bo14b2o103bo14b2o103bo14b2o103bo
14b2o103bo14b2o$3294b3o13bobo101b3o13bobo101b3o13bobo101b3o13bobo101b
3o13bobo101b3o13bobo431b3o13bobo101b3o13bobo101b3o13bobo461b3o13bobo
101b3o13bobo101b3o13bobo101b3o13bobo101b3o13bobo$3294b3o14bo102b3o14bo
102b3o14bo102b3o14bo102b3o14bo102b3o14bo226b2o204b3o14bo102b3o14bo102b
3o14bo462b3o14bo102b3o14bo102b3o14bo102b3o14bo102b3o14bo$3311b2o118b2o
118b2o118b2o118b2o118b2o225b2o221b2o118b2o118b2o478b2o118b2o118b2o118b
2o118b2o$3310b3o117b3o117b3o117b3o117b3o117b3o447b3o117b3o117b3o477b3o
117b3o117b3o117b3o117b3o$3294bobo13b2o102bobo13b2o102bobo13b2o102bobo
13b2o102bobo13b2o102bobo13b2o432bobo13b2o102bobo13b2o102bobo13b2o462bo
bo13b2o102bobo13b2o102bobo13b2o102bobo13b2o102bobo13b2o$3295bo17bo101b
o17bo101bo17bo101bo17bo101bo17bo101bo17bo197b2o34b2o196bo17bo101bo17bo
101bo17bo461bo17bo101bo17bo101bo17bo101bo17bo101bo17bo$4111bo34bobo$
4100b2o7bobo35bo$3341b2o118b2o118b2o118b2o118b2o118b2o150bob2o3b3o6b2o
280b2o118b2o118b2o478b2o118b2o118b2o118b2o118b2o$3312bo28b2o89bo28b2o
89bo28b2o89bo28b2o89bo28b2o89bo28b2o146bo2bo3bo5b2obo256bo28b2o89bo28b
2o89bo28b2o449bo28b2o89bo28b2o89bo28b2o89bo28b2o89bo28b2o$3311b3o117b
3o117b3o117b3o117b3o117b3o174b2o2bo4bo4bo2bo35b2o218b3o117b3o117b3o
477b3o117b3o117b3o117b3o117b3o$3310b5o115b5o115b5o115b5o115b5o115b5o
162b2o8b2o5b4o4b2obo35b2o217b5o115b5o115b5o475b5o115b5o115b5o115b5o
115b5o$3309b2o3b2o113b2o3b2o113b2o3b2o113b2o3b2o113b2o3b2o113b2o3b2o
161b2o7b3o7bo3b3o256b2o3b2o113b2o3b2o113b2o3b2o473b2o3b2o113b2o3b2o
113b2o3b2o113b2o3b2o113b2o3b2o$3310b5o27bo87b5o27bo87b5o27bo87b5o27bo
87b5o27bo87b5o27bo144b2o11b2o46b2o210b5o27bo87b5o27bo87b5o27bo447b5o
27bo87b5o27bo87b5o27bo87b5o27bo87b5o27bo$3310bo3bo26bobo86bo3bo26bobo
86bo3bo26bobo86bo3bo26bobo86bo3bo26bobo86bo3bo26bobo144b2o4b2o52bobo
209bo3bo26bobo86bo3bo26bobo86bo3bo26bobo446bo3bo26bobo86bo3bo26bobo86b
o3bo26bobo86bo3bo26bobo86bo3bo26bobo$3311bobo26bo3bo86bobo26bo3bo86bob
o26bo3bo86bobo26bo3bo86bobo26bo3bo86bobo26bo3bo144bo3b2o55bo210bobo26b
o3bo86bobo26bo3bo86bobo26bo3bo446bobo26bo3bo86bobo26bo3bo86bobo26bo3bo
86bobo26bo3bo86bobo26bo3bo$3312bo28b3o88bo28b3o88bo28b3o88bo28b3o88bo
28b3o88bo28b3o149b2o40b2o13b2o210bo28b3o88bo28b3o88bo28b3o448bo28b3o
88bo28b3o88bo28b3o88bo28b3o88bo28b3o$3339b2o3b2o113b2o3b2o113b2o3b2o
113b2o3b2o113b2o3b2o113b2o3b2o149bo40bo252b2o3b2o113b2o3b2o113b2o3b2o
473b2o3b2o113b2o3b2o113b2o3b2o113b2o3b2o113b2o3b2o$4133b3o6b2o$3311b2o
118b2o118b2o118b2o118b2o118b2o220bo8b2o217b2o118b2o118b2o478b2o118b2o
118b2o118b2o118b2o$3311b2o118b2o118b2o118b2o118b2o118b2o448b2o118b2o
118b2o478b2o118b2o118b2o118b2o118b2o2$3338b2o118b2o118b2o118b2o118b2o
118b2o162bo285b2o118b2o118b2o478b2o118b2o118b2o118b2o118b2o$3337b2o
118b2o118b2o118b2o118b2o118b2o162b2o284b2o118b2o118b2o478b2o118b2o118b
2o118b2o118b2o$3339bo119bo119bo119bo119bo119bo161bobo285bo119bo119bo
479bo119bo119bo119bo119bo$3326b2o118b2o118b2o118b2o118b2o118b2o448b2o
118b2o118b2o478b2o118b2o118b2o118b2o118b2o$3325bobo117bobo117bobo117bo
bo117bobo117bobo447bobo117bobo117bobo477bobo117bobo117bobo117bobo117bo
bo$3327bo119bo119bo119bo119bo119bo449bo119bo119bo479bo119bo119bo119bo
119bo2$3355b2o118b2o118b2o118b2o118b2o118b2o448b2o118b2o118b2o478b2o
118b2o118b2o118b2o118b2o$3355b2o118b2o118b2o118b2o118b2o118b2o152b2o
294b2o118b2o118b2o478b2o118b2o118b2o118b2o118b2o$3340bo119bo119bo119bo
119bo119bo167b2o280bo119bo119bo479bo119bo119bo119bo119bo$3339b3o117b3o
117b3o117b3o117b3o117b3o168bo278b3o117b3o117b3o477b3o117b3o117b3o117b
3o117b3o$3318b3o17b5o95b3o17b5o95b3o17b5o95b3o17b5o95b3o17b5o95b3o17b
5o425b3o17b5o95b3o17b5o95b3o17b5o455b3o17b5o95b3o17b5o95b3o17b5o95b3o
17b5o95b3o17b5o$3320bo16b2o3b2o96bo16b2o3b2o96bo16b2o3b2o96bo16b2o3b2o
96bo16b2o3b2o96bo16b2o3b2o426bo16b2o3b2o96bo16b2o3b2o96bo16b2o3b2o456b
o16b2o3b2o96bo16b2o3b2o96bo16b2o3b2o96bo16b2o3b2o96bo16b2o3b2o$3319bo
35bo83bo35bo83bo35bo83bo35bo83bo35bo83bo35bo413bo35bo83bo35bo83bo35bo
443bo35bo83bo35bo83bo35bo83bo35bo83bo35bo$3309b2o44bo73b2o44bo73b2o44b
o73b2o44bo73b2o44bo73b2o44bo403b2o44bo73b2o44bo73b2o44bo433b2o44bo73b
2o44bo73b2o44bo73b2o44bo73b2o44bo$3309b2o43bobo72b2o43bobo72b2o43bobo
72b2o43bobo72b2o43bobo72b2o43bobo160bo241b2o43bobo72b2o43bobo72b2o43bo
bo432b2o43bobo72b2o43bobo72b2o43bobo72b2o43bobo72b2o43bobo$3339b3o11b
2ob2o101b3o11b2ob2o101b3o11b2ob2o101b3o11b2ob2o101b3o11b2ob2o101b3o11b
2ob2o158b2o271b3o11b2ob2o101b3o11b2ob2o101b3o11b2ob2o461b3o11b2ob2o
101b3o11b2ob2o101b3o11b2ob2o101b3o11b2ob2o101b3o11b2ob2o$3339b3o10bo5b
o100b3o10bo5bo100b3o10bo5bo100b3o10bo5bo100b3o10bo5bo100b3o10bo5bo157b
obo270b3o10bo5bo100b3o10bo5bo100b3o10bo5bo460b3o10bo5bo100b3o10bo5bo
100b3o10bo5bo100b3o10bo5bo100b3o10bo5bo$3311b2o42bo75b2o42bo75b2o42bo
75b2o42bo75b2o42bo75b2o42bo185b2o218b2o42bo75b2o42bo75b2o42bo435b2o42b
o75b2o42bo75b2o42bo75b2o42bo75b2o42bo$3310bobo39b2o3b2o71bobo39b2o3b2o
71bobo39b2o3b2o71bobo39b2o3b2o71bobo39b2o3b2o71bobo39b2o3b2o182bo218bo
bo39b2o3b2o71bobo39b2o3b2o71bobo39b2o3b2o431bobo39b2o3b2o71bobo39b2o3b
2o71bobo39b2o3b2o71bobo39b2o3b2o71bobo39b2o3b2o$3312bo26b2o91bo26b2o
91bo26b2o91bo26b2o91bo26b2o91bo26b2o189b2o7bobo220bo26b2o91bo26b2o91bo
26b2o451bo26b2o91bo26b2o91bo26b2o91bo26b2o91bo26b2o$3339b2o118b2o118b
2o118b2o118b2o118b2o182bob2o3b3o6b2o248b2o118b2o118b2o478b2o118b2o118b
2o118b2o118b2o$3353b4o116b4o116b4o116b4o116b4o116b4o162bo2bo3bo5b2obo
267b4o116b4o116b4o476b4o116b4o116b4o116b4o116b4o$3353bo2b2o115bo2b2o
115bo2b2o115bo2b2o115bo2b2o115bo2b2o160b2o2bo4bo4bo2bo267bo2b2o115bo2b
2o115bo2b2o475bo2b2o115bo2b2o115bo2b2o115bo2b2o115bo2b2o$3294bo8b2o49b
ob2o56bo8b2o49bob2o56bo8b2o49bob2o56bo8b2o49bob2o56bo8b2o49bob2o56bo8b
2o49bob2o149b2o8b2o5b4o4b2obo208bo8b2o49bob2o56bo8b2o49bob2o56bo8b2o
49bob2o416bo8b2o49bob2o56bo8b2o49bob2o56bo8b2o49bob2o56bo8b2o49bob2o
56bo8b2o49bob2o$3292bobo6bo2bo107bobo6bo2bo107bobo6bo2bo107bobo6bo2bo
107bobo6bo2bo107bobo6bo2bo202b2o7b3o7bo3b3o209bobo6bo2bo107bobo6bo2bo
107bobo6bo2bo467bobo6bo2bo107bobo6bo2bo107bobo6bo2bo107bobo6bo2bo107bo
bo6bo2bo$3291bobo7bo3bo2b2o45b2o54bobo7bo3bo2b2o45b2o54bobo7bo3bo2b2o
45b2o54bobo7bo3bo2b2o45b2o54bobo7bo3bo2b2o45b2o54bobo7bo3bo2b2o45b2o
160b2o11b2o209bobo7bo3bo2b2o45b2o54bobo7bo3bo2b2o45b2o54bobo7bo3bo2b2o
45b2o414bobo7bo3bo2b2o45b2o54bobo7bo3bo2b2o45b2o54bobo7bo3bo2b2o45b2o
54bobo7bo3bo2b2o45b2o54bobo7bo3bo2b2o45b2o$3285b2o3bo2bo7bo2b2o2b3o45b
o48b2o3bo2bo7bo2b2o2b3o45bo48b2o3bo2bo7bo2b2o2b3o45bo48b2o3bo2bo7bo2b
2o2b3o45bo48b2o3bo2bo7bo2b2o2b3o45bo48b2o3bo2bo7bo2b2o2b3o45bo161b2o
215b2o3bo2bo7bo2b2o2b3o45bo48b2o3bo2bo7bo2b2o2b3o45bo48b2o3bo2bo7bo2b
2o2b3o45bo408b2o3bo2bo7bo2b2o2b3o45bo48b2o3bo2bo7bo2b2o2b3o45bo48b2o3b
o2bo7bo2b2o2b3o45bo48b2o3bo2bo7bo2b2o2b3o45bo48b2o3bo2bo7bo2b2o2b3o45b
o$3285b2o4bobo16b2obo91b2o4bobo16b2obo91b2o4bobo16b2obo91b2o4bobo16b2o
bo91b2o4bobo16b2obo91b2o4bobo16b2obo205bo215b2o4bobo16b2obo91b2o4bobo
16b2obo91b2o4bobo16b2obo451b2o4bobo16b2obo91b2o4bobo16b2obo91b2o4bobo
16b2obo91b2o4bobo16b2obo91b2o4bobo16b2obo$3292bobo4b3o8bo2bo98bobo4b3o
8bo2bo98bobo4b3o8bo2bo98bobo4b3o8bo2bo98bobo4b3o8bo2bo98bobo4b3o8bo2bo
428bobo4b3o8bo2bo98bobo4b3o8bo2bo98bobo4b3o8bo2bo458bobo4b3o8bo2bo98bo
bo4b3o8bo2bo98bobo4b3o8bo2bo98bobo4b3o8bo2bo98bobo4b3o8bo2bo$3294bo15b
2obo36b2obob2o57bo15b2obo36b2obob2o57bo15b2obo36b2obob2o57bo15b2obo36b
2obob2o57bo15b2obo36b2obob2o57bo15b2obo36b2obob2o387bo15b2obo36b2obob
2o57bo15b2obo36b2obob2o57bo15b2obo36b2obob2o417bo15b2obo36b2obob2o57bo
15b2obo36b2obob2o57bo15b2obo36b2obob2o57bo15b2obo36b2obob2o57bo15b2obo
36b2obob2o$3308b3o6b2o31bo5bo5bo65b3o6b2o31bo5bo5bo65b3o6b2o31bo5bo5bo
65b3o6b2o31bo5bo5bo65b3o6b2o31bo5bo5bo65b3o6b2o31bo5bo5bo395b3o6b2o31b
o5bo5bo65b3o6b2o31bo5bo5bo65b3o6b2o31bo5bo5bo425b3o6b2o31bo5bo5bo65b3o
6b2o31bo5bo5bo65b3o6b2o31bo5bo5bo65b3o6b2o31bo5bo5bo65b3o6b2o31bo5bo5b
o$3308b2o7bobo31bo3bo7bo64b2o7bobo31bo3bo7bo64b2o7bobo31bo3bo7bo64b2o
7bobo31bo3bo7bo64b2o7bobo31bo3bo7bo64b2o7bobo31bo3bo7bo394b2o7bobo31bo
3bo7bo64b2o7bobo31bo3bo7bo64b2o7bobo31bo3bo7bo424b2o7bobo31bo3bo7bo64b
2o7bobo31bo3bo7bo64b2o7bobo31bo3bo7bo64b2o7bobo31bo3bo7bo64b2o7bobo31b
o3bo7bo$3319bo32b3o6b3o75bo32b3o6b3o75bo32b3o6b3o75bo32b3o6b3o75bo32b
3o6b3o75bo32b3o6b3o405bo32b3o6b3o75bo32b3o6b3o75bo32b3o6b3o435bo32b3o
6b3o75bo32b3o6b3o75bo32b3o6b3o75bo32b3o6b3o75bo32b3o6b3o$3319b2o118b2o
118b2o118b2o118b2o118b2o448b2o118b2o118b2o478b2o118b2o118b2o118b2o118b
2o$3294b2o2b2o114b2o2b2o234b2o2b2o114b2o2b2o564b2o2b2o114b2o2b2o594b2o
2b2o234b2o2b2o114b2o2b2o$3294b2o2b2o114b2o2b2o234b2o2b2o114b2o2b2o564b
2o2b2o114b2o2b2o594b2o2b2o234b2o2b2o114b2o2b2o$3290b2o10b2o106b2o118b
2o10b2o118b2o118b2o118b2o436b2o10b2o118b2o118b2o466b2o10b2o106b2o10b2o
118b2o118b2o118b2o$3290b2o10b2o106b2o118b2o10b2o118b2o118b2o118b2o436b
2o10b2o118b2o118b2o466b2o10b2o106b2o10b2o118b2o118b2o118b2o$3370bo119b
o119bo119bo119bo119bo449bo119bo119bo479bo119bo119bo119bo119bo$3368bobo
117bobo117bobo117bobo117bobo117bobo447bobo117bobo117bobo477bobo117bobo
117bobo117bobo117bobo$3290b2o10b2o49b2o14b2o39b2o61b2o14b2o39b2o10b2o
49b2o14b2o51b2o49b2o14b2o51b2o49b2o14b2o51b2o49b2o14b2o369b2o10b2o49b
2o14b2o51b2o49b2o14b2o51b2o49b2o14b2o399b2o10b2o49b2o14b2o39b2o10b2o
49b2o14b2o51b2o49b2o14b2o51b2o49b2o14b2o51b2o49b2o14b2o$3290b2o10b2o
49b2o55b2o61b2o55b2o10b2o49b2o67b2o49b2o67b2o49b2o67b2o49b2o385b2o10b
2o49b2o67b2o49b2o67b2o49b2o415b2o10b2o49b2o55b2o10b2o49b2o67b2o49b2o
67b2o49b2o67b2o49b2o$3414b2o2b2o114b2o2b2o114b2o2b2o114b2o2b2o684b2o2b
2o714b2o2b2o114b2o2b2o114b2o2b2o$3414b2o2b2o114b2o2b2o114b2o2b2o114b2o
2b2o684b2o2b2o714b2o2b2o114b2o2b2o114b2o2b2o$3290b2o10b2o63b2o53b2o63b
2o53b2o63b2o53b2o63b2o41b2o75b2o53b2o63b2o371b2o10b2o63b2o41b2o75b2o
53b2o63b2o401b2o10b2o63b2o53b2o63b2o53b2o63b2o41b2o75b2o53b2o63b2o$
3290b2o10b2o64b2o52b2o64b2o52b2o64b2o52b2o64b2o40b2o76b2o52b2o64b2o
370b2o10b2o64b2o40b2o76b2o52b2o64b2o400b2o10b2o64b2o52b2o64b2o52b2o64b
2o40b2o76b2o52b2o64b2o$3367bo119bo119bo119bo119bo119bo449bo119bo119bo
479bo119bo119bo119bo119bo2$3290b2o10b2o118b2o118b2o118b2o106b2o130b2o
436b2o10b2o106b2o130b2o466b2o10b2o118b2o118b2o106b2o130b2o$3290b2o10b
2o118b2o118b2o118b2o106b2o130b2o436b2o10b2o106b2o130b2o466b2o10b2o118b
2o118b2o106b2o130b2o$3294b2o2b2o114b2o2b2o234b2o2b2o114b2o2b2o564b2o2b
2o114b2o2b2o594b2o2b2o234b2o2b2o114b2o2b2o$3294b2o2b2o60bo53b2o2b2o60b
o119bo53b2o2b2o60bo53b2o2b2o60bo119bo383b2o2b2o60bo53b2o2b2o60bo119bo
413b2o2b2o60bo119bo53b2o2b2o60bo53b2o2b2o60bo119bo$3353b2o5b2o111b2o5b
2o111b2o5b2o111b2o5b2o111b2o5b2o111b2o5b2o441b2o5b2o111b2o5b2o111b2o5b
2o471b2o5b2o111b2o5b2o111b2o5b2o111b2o5b2o111b2o5b2o$3353b2o4bobo111b
2o4bobo111b2o4bobo111b2o4bobo111b2o4bobo111b2o4bobo441b2o4bobo111b2o4b
obo111b2o4bobo471b2o4bobo111b2o4bobo111b2o4bobo111b2o4bobo111b2o4bobo
6$3352b2o118b2o118b2o118b2o118b2o118b2o448b2o118b2o118b2o478b2o118b2o
118b2o118b2o118b2o$3353b2o118b2o118b2o118b2o118b2o118b2o448b2o118b2o
118b2o478b2o118b2o118b2o118b2o118b2o$3352bo119bo119bo119bo119bo119bo
449bo119bo119bo479bo119bo119bo119bo119bo$3341b2o118b2o118b2o118b2o118b
2o118b2o448b2o118b2o118b2o478b2o118b2o118b2o118b2o118b2o$3340bo3bo115b
o3bo115bo3bo115bo3bo115bo3bo115bo3bo445bo3bo115bo3bo115bo3bo475bo3bo
115bo3bo115bo3bo115bo3bo115bo3bo$3339bo5bo7bo105bo5bo7bo105bo5bo7bo
105bo5bo7bo105bo5bo7bo105bo5bo7bo435bo5bo7bo105bo5bo7bo105bo5bo7bo465b
o5bo7bo105bo5bo7bo105bo5bo7bo105bo5bo7bo105bo5bo7bo$3329b2o8bo3bob2o4b
obo95b2o8bo3bob2o4bobo95b2o8bo3bob2o4bobo95b2o8bo3bob2o4bobo95b2o8bo3b
ob2o4bobo95b2o8bo3bob2o4bobo425b2o8bo3bob2o4bobo95b2o8bo3bob2o4bobo95b
2o8bo3bob2o4bobo455b2o8bo3bob2o4bobo95b2o8bo3bob2o4bobo95b2o8bo3bob2o
4bobo95b2o8bo3bob2o4bobo95b2o8bo3bob2o4bobo$3329b2o8bo5bo3b2o98b2o8bo
5bo3b2o98b2o8bo5bo3b2o98b2o8bo5bo3b2o98b2o8bo5bo3b2o98b2o8bo5bo3b2o
428b2o8bo5bo3b2o98b2o8bo5bo3b2o98b2o8bo5bo3b2o458b2o8bo5bo3b2o98b2o8bo
5bo3b2o98b2o8bo5bo3b2o98b2o8bo5bo3b2o98b2o8bo5bo3b2o$3340bo3bo4b2o109b
o3bo4b2o109bo3bo4b2o109bo3bo4b2o109bo3bo4b2o109bo3bo4b2o439bo3bo4b2o
109bo3bo4b2o109bo3bo4b2o469bo3bo4b2o109bo3bo4b2o109bo3bo4b2o109bo3bo4b
2o109bo3bo4b2o$3341b2o6b2o110b2o6b2o110b2o6b2o110b2o6b2o110b2o6b2o110b
2o6b2o440b2o6b2o110b2o6b2o110b2o6b2o470b2o6b2o110b2o6b2o110b2o6b2o110b
2o6b2o110b2o6b2o$3351bobo7b2o108bobo7b2o108bobo7b2o108bobo7b2o108bobo
7b2o108bobo7b2o438bobo7b2o108bobo7b2o108bobo7b2o468bobo7b2o108bobo7b2o
108bobo7b2o108bobo7b2o108bobo7b2o$3353bo7bobo109bo7bobo109bo7bobo109bo
7bobo109bo7bobo109bo7bobo439bo7bobo109bo7bobo109bo7bobo469bo7bobo109bo
7bobo109bo7bobo109bo7bobo109bo7bobo$3363bo119bo119bo119bo119bo119bo
449bo119bo119bo479bo119bo119bo119bo119bo$3363b2o118b2o118b2o118b2o118b
2o118b2o448b2o118b2o118b2o478b2o118b2o118b2o118b2o118b2o17$3430b2o118b
2o118b2o118b2o118b2o118b2o448b2o118b2o118b2o478b2o118b2o118b2o118b2o
118b2o$3430b2o118b2o118b2o118b2o118b2o118b2o48b2o398b2o118b2o118b2o
478b2o118b2o118b2o118b2o118b2o$4080b2o2$3439b2o118b2o118b2o118b2o118b
2o118b2o448b2o118b2o118b2o478b2o118b2o118b2o118b2o118b2o$3438bobo117bo
bo117bobo117bobo117bobo117bobo447bobo117bobo117bobo477bobo117bobo117bo
bo117bobo117bobo$3439bo119bo119bo119bo119bo119bo449bo119bo119bo479bo
119bo119bo119bo119bo3$3433b2o1048b2o958b2o118b2o118b2o$3433b2o120b2o
118b2o118b2o118b2o118b2o446b2o120b2o118b2o478b2o118b2o116b2o118b2o118b
2o$3555b2o118b2o118b2o118b2o118b2o568b2o118b2o478b2o118b2o$3440b2o118b
2o118b2o118b2o118b2o118b2o448b2o118b2o118b2o478b2o118b2o118b2o118b2o
118b2o$3440bobo117bobo117bobo117bobo117bobo117bobo447bobo117bobo117bob
o477bobo117bobo117bobo117bobo117bobo$3442bo119bo119bo119bo119bo119bo
449bo119bo119bo479bo119bo119bo119bo119bo$3427b2o13b2o103b2o13b2o103b2o
13b2o103b2o13b2o103b2o13b2o103b2o13b2o433b2o13b2o103b2o13b2o103b2o13b
2o463b2o13b2o103b2o13b2o103b2o13b2o103b2o13b2o103b2o13b2o$3428bo119bo
119bo119bo119bo119bo449bo119bo119bo479bo119bo119bo119bo119bo$3425b3o6b
2o109b3o6b2o109b3o6b2o109b3o6b2o109b3o6b2o109b3o6b2o439b3o6b2o109b3o6b
2o109b3o6b2o469b3o6b2o109b3o6b2o109b3o6b2o109b3o6b2o109b3o6b2o$3425bo
8b2o109bo8b2o109bo8b2o109bo8b2o109bo8b2o109bo8b2o439bo8b2o109bo8b2o
109bo8b2o469bo8b2o109bo8b2o109bo8b2o109bo8b2o109bo8b2o13$3429b2o118b2o
118b2o118b2o118b2o118b2o448b2o118b2o118b2o478b2o118b2o118b2o118b2o118b
2o$3429b2o118b2o118b2o118b2o118b2o118b2o448b2o118b2o118b2o478b2o118b2o
118b2o118b2o118b2o3$3438b2o118b2o118b2o118b2o118b2o118b2o448b2o118b2o
118b2o478b2o118b2o118b2o118b2o118b2o$3437bobo117bobo117bobo117bobo117b
obo117bobo447bobo117bobo117bobo477bobo117bobo117bobo117bobo117bobo$
3438bo119bo119bo119bo119bo119bo449bo119bo119bo479bo119bo119bo119bo119b
o3$3552b2o118b2o118b2o118b2o118b2o568b2o118b2o478b2o118b2o$3434b2o116b
2o118b2o118b2o118b2o118b2o450b2o116b2o118b2o478b2o118b2o120b2o118b2o
118b2o$3434b2o1048b2o958b2o118b2o118b2o$3439b2o118b2o118b2o118b2o118b
2o118b2o448b2o118b2o118b2o478b2o118b2o118b2o118b2o118b2o$3439bobo117bo
bo117bobo117bobo117bobo117bobo447bobo117bobo117bobo477bobo117bobo117bo
bo117bobo117bobo$3441bo119bo119bo119bo119bo119bo449bo119bo119bo479bo
119bo119bo119bo119bo$3426b2o13b2o103b2o13b2o103b2o13b2o103b2o13b2o103b
2o13b2o103b2o13b2o433b2o13b2o103b2o13b2o103b2o13b2o463b2o13b2o103b2o
13b2o103b2o13b2o103b2o13b2o103b2o13b2o$3427bo119bo119bo119bo119bo119bo
449bo119bo119bo479bo119bo119bo119bo119bo$3424b3o6b2o109b3o6b2o109b3o6b
2o109b3o6b2o109b3o6b2o109b3o6b2o439b3o6b2o109b3o6b2o109b3o6b2o469b3o6b
2o109b3o6b2o109b3o6b2o109b3o6b2o109b3o6b2o$3424bo8b2o109bo8b2o109bo8b
2o109bo8b2o109bo8b2o109bo8b2o439bo8b2o109bo8b2o109bo8b2o469bo8b2o109bo
8b2o109bo8b2o109bo8b2o109bo8b2o2$3403bo119bo119bo119bo119bo119bo449bo
119bo119bo479bo119bo119bo119bo119bo$3403b3o117b3o117b3o117b3o117b3o
117b3o447b3o117b3o117b3o477b3o117b3o117b3o117b3o117b3o$3406bo119bo119b
o119bo119bo119bo449bo119bo119bo479bo119bo119bo119bo119bo$3405b2o118b2o
118b2o118b2o118b2o118b2o448b2o118b2o118b2o478b2o118b2o118b2o118b2o118b
2o4$3390b2o2b2o114b2o2b2o234b2o2b2o114b2o2b2o564b2o2b2o114b2o2b2o594b
2o2b2o234b2o2b2o114b2o2b2o$3390b2o2b2o114b2o2b2o234b2o2b2o114b2o2b2o
564b2o2b2o114b2o2b2o594b2o2b2o234b2o2b2o114b2o2b2o$3386b2o118b2o118b2o
10b2o118b2o118b2o118b2o448b2o118b2o118b2o466b2o118b2o10b2o118b2o118b2o
118b2o$3386b2o118b2o118b2o10b2o118b2o118b2o118b2o448b2o118b2o118b2o
466b2o118b2o10b2o118b2o118b2o118b2o$3408bo119bo119bo119bo119bo119bo
449bo119bo119bo479bo119bo119bo119bo119bo$3407b3o117b3o117b3o117b3o117b
3o117b3o447b3o117b3o117b3o477b3o117b3o117b3o117b3o117b3o$3386b2o18b5o
95b2o18b5o95b2o10b2o6b5o107b2o6b5o107b2o6b5o107b2o6b5o437b2o6b5o107b2o
6b5o107b2o6b5o455b2o18b5o95b2o10b2o6b5o107b2o6b5o107b2o6b5o107b2o6b5o$
3386b2o17b2o3b2o94b2o17b2o3b2o94b2o10b2o5b2o3b2o106b2o5b2o3b2o106b2o5b
2o3b2o106b2o5b2o3b2o436b2o5b2o3b2o106b2o5b2o3b2o106b2o5b2o3b2o454b2o
17b2o3b2o94b2o10b2o5b2o3b2o106b2o5b2o3b2o106b2o5b2o3b2o106b2o5b2o3b2o$
3358bo31b2o2b2o10b5o67bo31b2o2b2o10b5o67bo31b2o2b2o10b5o67bo31b2o2b2o
10b5o67bo31b2o2b2o10b5o67bo47b5o397bo31b2o2b2o10b5o67bo31b2o2b2o10b5o
67bo47b5o427bo31b2o2b2o10b5o67bo31b2o2b2o10b5o67bo31b2o2b2o10b5o67bo
31b2o2b2o10b5o67bo47b5o$3358b3o29b2o2b2o10bo3bo67b3o29b2o2b2o10bo3bo
67b3o29b2o2b2o10bo3bo67b3o29b2o2b2o10bo3bo67b3o29b2o2b2o10bo3bo67b3o
45bo3bo397b3o29b2o2b2o10bo3bo67b3o29b2o2b2o10bo3bo67b3o45bo3bo427b3o
29b2o2b2o10bo3bo67b3o29b2o2b2o10bo3bo67b3o29b2o2b2o10bo3bo67b3o29b2o2b
2o10bo3bo67b3o45bo3bo$3361bo24b2o10b2o7bobo71bo36b2o7bobo71bo36b2o7bob
o71bo36b2o7bobo71bo24b2o19bobo71bo36b2o7bobo401bo36b2o7bobo71bo24b2o
19bobo71bo36b2o7bobo431bo36b2o7bobo71bo36b2o7bobo71bo36b2o7bobo71bo24b
2o19bobo71bo36b2o7bobo$3360b2o24b2o10b2o8bo71b2o36b2o8bo71b2o36b2o8bo
71b2o36b2o8bo71b2o24b2o20bo71b2o36b2o8bo401b2o36b2o8bo71b2o24b2o20bo
71b2o36b2o8bo431b2o36b2o8bo71b2o36b2o8bo71b2o36b2o8bo71b2o24b2o20bo71b
2o36b2o8bo3$3386b2o10b2o8b2o108b2o8b2o108b2o8b2o108b2o8b2o96b2o20b2o
108b2o8b2o438b2o8b2o96b2o20b2o108b2o8b2o468b2o8b2o108b2o8b2o108b2o8b2o
96b2o20b2o108b2o8b2o$3345b2o2b2o35b2o10b2o8b2o108b2o8b2o55b2o2b2o47b2o
8b2o55b2o2b2o47b2o8b2o55b2o2b2o35b2o20b2o55b2o2b2o47b2o8b2o385b2o2b2o
47b2o8b2o55b2o2b2o35b2o20b2o108b2o8b2o415b2o2b2o47b2o8b2o55b2o2b2o47b
2o8b2o55b2o2b2o47b2o8b2o55b2o2b2o35b2o20b2o55b2o2b2o47b2o8b2o$3345b2o
2b2o39b2o2b2o114b2o2b2o69b2o2b2o114b2o2b2o39b2o2b2o69b2o2b2o39b2o2b2o
69b2o2b2o444b2o2b2o39b2o2b2o69b2o2b2o39b2o2b2o549b2o2b2o39b2o2b2o69b2o
2b2o114b2o2b2o39b2o2b2o69b2o2b2o39b2o2b2o69b2o2b2o$3337b2o14b2o35b2o2b
2o61b2o14b2o35b2o2b2o61b2o2b2o10b2o106b2o10b2o35b2o2b2o65b2o10b2o35b2o
2b2o77b2o436b2o10b2o35b2o2b2o65b2o47b2o2b2o65b2o10b2o466b2o10b2o35b2o
2b2o65b2o10b2o106b2o10b2o35b2o2b2o77b2o35b2o2b2o65b2o$3337b2o14b2o102b
2o14b2o102b2o2b2o10b2o106b2o10b2o106b2o10b2o118b2o436b2o10b2o106b2o
118b2o10b2o466b2o10b2o106b2o10b2o106b2o10b2o118b2o106b2o$3363bo119bo
119bo119bo119bo119bo449bo119bo119bo479bo119bo119bo119bo119bo$3362b3o
117b3o117b3o117b3o117b3o117b3o447b3o117b3o117b3o477b3o117b3o117b3o117b
3o117b3o$3337b2o14b2o6b5o91b2o14b2o6b5o91b2o2b2o10b2o6b5o95b2o10b2o6b
5o95b2o10b2o6b5o107b2o6b5o425b2o10b2o6b5o95b2o18b5o95b2o10b2o6b5o455b
2o10b2o6b5o95b2o10b2o6b5o95b2o10b2o6b5o107b2o6b5o95b2o18b5o$3337b2o14b
2o5b2o3b2o90b2o14b2o5b2o3b2o90b2o2b2o10b2o5b2o3b2o94b2o10b2o5b2o3b2o
94b2o10b2o5b2o3b2o106b2o5b2o3b2o424b2o10b2o5b2o3b2o94b2o17b2o3b2o94b2o
10b2o5b2o3b2o454b2o10b2o5b2o3b2o94b2o10b2o5b2o3b2o94b2o10b2o5b2o3b2o
106b2o5b2o3b2o94b2o17b2o3b2o$3345b2o2b2o10b5o115b5o115b5o99b2o2b2o10b
5o99b2o2b2o10b5o115b5o445b5o99b2o2b2o10b5o99b2o2b2o10b5o475b5o99b2o2b
2o10b5o99b2o2b2o10b5o115b5o99b2o2b2o10b5o$3345b2o2b2o10bo3bo115bo3bo
115bo3bo99b2o2b2o10bo3bo99b2o2b2o10bo3bo115bo3bo445bo3bo99b2o2b2o10bo
3bo99b2o2b2o10bo3bo475bo3bo99b2o2b2o10bo3bo99b2o2b2o10bo3bo115bo3bo99b
2o2b2o10bo3bo$3337b2o2b2o19bobo92b2o14b2o7bobo92b2o2b2o10b2o7bobo108b
2o7bobo96b2o10b2o7bobo108b2o7bobo426b2o10b2o7bobo108b2o7bobo108b2o7bob
o456b2o10b2o7bobo108b2o7bobo96b2o10b2o7bobo108b2o7bobo96b2o10b2o7bobo$
3337b2o2b2o20bo93b2o14b2o8bo93b2o2b2o10b2o8bo109b2o8bo97b2o10b2o8bo
109b2o8bo427b2o10b2o8bo109b2o8bo109b2o8bo457b2o10b2o8bo109b2o8bo97b2o
10b2o8bo109b2o8bo97b2o10b2o8bo3$3337b2o2b2o20b2o92b2o14b2o8b2o92b2o2b
2o10b2o8b2o108b2o8b2o96b2o10b2o8b2o108b2o8b2o426b2o10b2o8b2o108b2o8b2o
108b2o8b2o456b2o10b2o8b2o108b2o8b2o96b2o10b2o8b2o108b2o8b2o96b2o10b2o
8b2o$3337b2o2b2o20b2o92b2o14b2o8b2o92b2o2b2o10b2o8b2o108b2o8b2o96b2o
10b2o8b2o108b2o8b2o426b2o10b2o8b2o108b2o8b2o108b2o8b2o456b2o10b2o8b2o
108b2o8b2o96b2o10b2o8b2o108b2o8b2o96b2o10b2o8b2o$3345b2o2b2o234b2o2b2o
114b2o2b2o114b2o2b2o564b2o2b2o114b2o2b2o594b2o2b2o114b2o2b2o114b2o2b2o
234b2o2b2o$3345b2o2b2o234b2o2b2o114b2o2b2o114b2o2b2o564b2o2b2o114b2o2b
2o594b2o2b2o114b2o2b2o114b2o2b2o234b2o2b2o35$3458b2o58b2o58b2o58b2o58b
2o58b2o58b2o58b2o58b2o58b2o58b2o58b2o$3458b2o58b2o58b2o58b2o58b2o58b2o
58b2o58b2o58b2o58b2o58b2o58b2o4$3459bo59bo59bo59bo59bo59bo59bo59bo59bo
59bo59bo59bo$3458bobo57bobo57bobo57bobo57bobo57bobo57bobo57bobo57bobo
57bobo57bobo57bobo$3457bo3bo55bo3bo55bo3bo55bo3bo55bo3bo55bo3bo55bo3bo
55bo3bo55bo3bo55bo3bo55bo3bo55bo3bo$3458b3o57b3o57b3o57b3o57b3o57b3o
57b3o57b3o57b3o57b3o57b3o57b3o$3456b2o3b2o53b2o3b2o53b2o3b2o53b2o3b2o
53b2o3b2o53b2o3b2o53b2o3b2o53b2o3b2o53b2o3b2o53b2o3b2o53b2o3b2o53b2o3b
2o5$3461bo59bo59bo59bo59bo59bo59bo59bo59bo59bo59bo59bo$3461bo59bo59bo
59bo59bo59bo59bo59bo59bo59bo59bo59bo$3457b3obo55b3obo55b3obo55b3obo55b
3obo55b3obo55b3obo55b3obo55b3obo55b3obo55b3obo55b3obo2$3456bo59bo59bo
59bo59bo59bo59bo59bo59bo59bo59bo59bo$3450b2o4b2obo50b2o4b2obo50b2o4b2o
bo50b2o4b2obo50b2o4b2obo50b2o4b2obo50b2o4b2obo50b2o4b2obo50b2o4b2obo
50b2o4b2obo50b2o4b2obo50b2o4b2obo$3450bo7b2o50bo7b2o50bo7b2o50bo7b2o
50bo7b2o50bo7b2o50bo7b2o50bo7b2o50bo7b2o50bo7b2o50bo7b2o50bo7b2o$3448b
obo57bobo57bobo57bobo57bobo57bobo57bobo57bobo57bobo57bobo57bobo57bobo$
3448b2o58b2o58b2o58b2o58b2o58b2o58b2o58b2o58b2o58b2o58b2o58b2o$3445bo
12b2o3b2o40bo12b2o3b2o40bo12b2o3b2o40bo12b2o3b2o40bo12b2o3b2o40bo12b2o
3b2o40bo12b2o3b2o40bo12b2o3b2o40bo12b2o3b2o40bo12b2o3b2o40bo12b2o3b2o
40bo12b2o3b2o$3445b2o11b2o3b2o40b2o11b2o3b2o40b2o11b2o3b2o40b2o11b2o3b
2o40b2o11b2o3b2o40b2o11b2o3b2o40b2o11b2o3b2o40b2o11b2o3b2o40b2o11b2o3b
2o40b2o11b2o3b2o40b2o11b2o3b2o40b2o11b2o3b2o$3444bobo4bo7b5o40bobo4bo
7b5o40bobo4bo7b5o40bobo4bo7b5o40bobo4bo7b5o40bobo4bo7b5o40bobo4bo7b5o
40bobo4bo7b5o40bobo4bo7b5o40bobo4bo7b5o40bobo4bo7b5o40bobo4bo7b5o$
3450bo9bobo47bo9bobo47bo9bobo47bo9bobo47bo9bobo47bo9bobo47bo9bobo47bo
9bobo47bo9bobo47bo9bobo47bo9bobo47bo9bobo$3450b3o57b3o57b3o57b3o57b3o
57b3o57b3o57b3o57b3o57b3o57b3o57b3o$3460b3o57b3o57b3o57b3o57b3o57b3o
57b3o57b3o57b3o57b3o57b3o57b3o5$3443bo59bo59bo59bo59bo59bo59bo59bo59bo
59bo59bo59bo$3443bobo14b2o41bobo14b2o41bobo14b2o41bobo14b2o41bobo14b2o
41bobo14b2o41bobo14b2o41bobo14b2o41bobo14b2o41bobo14b2o41bobo14b2o41bo
bo14b2o$3443b2o15b2o41b2o15b2o41b2o15b2o41b2o15b2o41b2o15b2o41b2o15b2o
41b2o15b2o41b2o15b2o41b2o15b2o41b2o15b2o41b2o15b2o41b2o15b2o3$3430bo
59bo59bo59bo59bo59bo59bo59bo59bo59bo59bo59bo$3430b2o58b2o58b2o58b2o58b
2o58b2o58b2o58b2o58b2o58b2o58b2o58b2o$3429bobo4b2o51bobo4b2o51bobo4b2o
51bobo4b2o51bobo4b2o51bobo4b2o51bobo4b2o51bobo4b2o51bobo4b2o51bobo4b2o
51bobo4b2o51bobo4b2o$3435bobo57bobo57bobo57bobo57bobo57bobo57bobo57bob
o57bobo57bobo57bobo57bobo$3435bo59bo59bo59bo59bo59bo59bo59bo59bo59bo
59bo59bo$3408b2o24b2o32b2o24b2o32b2o24b2o32b2o24b2o32b2o24b2o32b2o24b
2o32b2o24b2o32b2o24b2o32b2o24b2o32b2o24b2o32b2o24b2o32b2o24b2o$3408b2o
58b2o58b2o58b2o58b2o58b2o58b2o58b2o58b2o58b2o58b2o58b2o8$3431b2o58b2o
58b2o58b2o58b2o58b2o58b2o58b2o58b2o58b2o58b2o58b2o$3415bo15b2o42bo15b
2o42bo15b2o42bo15b2o42bo15b2o42bo15b2o42bo15b2o42bo15b2o42bo15b2o42bo
15b2o42bo15b2o42bo15b2o$3405b2o3b2o3b2o48b2o3b2o3b2o48b2o3b2o3b2o48b2o
3b2o3b2o48b2o3b2o3b2o48b2o3b2o3b2o48b2o3b2o3b2o48b2o3b2o3b2o48b2o3b2o
3b2o48b2o3b2o3b2o48b2o3b2o3b2o48b2o3b2o3b2o$3414bobo57bobo57bobo57bobo
57bobo57bobo57bobo57bobo57bobo57bobo57bobo57bobo$3406bo3bo55bo3bo55bo
3bo55bo3bo55bo3bo55bo3bo55bo3bo55bo3bo55bo3bo55bo3bo55bo3bo55bo3bo$
3407b3o22bo34b3o22bo34b3o22bo34b3o22bo34b3o22bo34b3o22bo34b3o22bo34b3o
22bo34b3o22bo34b3o22bo34b3o22bo34b3o22bo$3407b3o11bo9bobo33b3o11bo9bob
o33b3o11bo9bobo33b3o11bo9bobo33b3o11bo9bobo33b3o11bo9bobo33b3o11bo9bob
o33b3o11bo9bobo33b3o11bo9bobo33b3o11bo9bobo33b3o11bo9bobo33b3o11bo9bob
o$3420b2o8bo3bo45b2o8bo3bo45b2o8bo3bo45b2o8bo3bo45b2o8bo3bo45b2o8bo3bo
45b2o8bo3bo45b2o8bo3bo45b2o8bo3bo45b2o8bo3bo45b2o8bo3bo45b2o8bo3bo$
3420bobo8b3o46bobo8b3o46bobo8b3o46bobo8b3o46bobo8b3o46bobo8b3o46bobo8b
3o46bobo8b3o46bobo8b3o46bobo8b3o46bobo8b3o46bobo8b3o$3410bo18b2o3b2o
34bo18b2o3b2o34bo18b2o3b2o34bo18b2o3b2o34bo18b2o3b2o34bo18b2o3b2o34bo
18b2o3b2o34bo18b2o3b2o34bo18b2o3b2o34bo18b2o3b2o34bo18b2o3b2o34bo18b2o
3b2o$3409b3o57b3o57b3o57b3o57b3o57b3o57b3o57b3o57b3o57b3o57b3o57b3o$
3408bo3bo55bo3bo55bo3bo55bo3bo55bo3bo55bo3bo55bo3bo55bo3bo55bo3bo55bo
3bo55bo3bo55bo3bo$3410bo59bo59bo59bo59bo59bo59bo59bo59bo59bo59bo59bo$
3407bo5bo53bo5bo53bo5bo53bo5bo53bo5bo53bo5bo53bo5bo53bo5bo53bo5bo53bo
5bo53bo5bo53bo5bo$3407bo5bo14b2o37bo5bo14b2o37bo5bo14b2o37bo5bo14b2o
37bo5bo14b2o37bo5bo14b2o37bo5bo14b2o37bo5bo14b2o37bo5bo14b2o37bo5bo14b
2o37bo5bo14b2o37bo5bo14b2o$3408bo3bo14b2o39bo3bo14b2o39bo3bo14b2o39bo
3bo14b2o39bo3bo14b2o39bo3bo14b2o39bo3bo14b2o39bo3bo14b2o39bo3bo14b2o
39bo3bo14b2o39bo3bo14b2o39bo3bo14b2o$3409b3o17bo39b3o17bo39b3o17bo39b
3o17bo39b3o17bo39b3o17bo39b3o17bo39b3o17bo39b3o17bo39b3o17bo39b3o17bo
39b3o17bo7$3430bo59bo59bo59bo59bo59bo59bo59bo59bo59bo59bo59bo$3429b3o
57b3o57b3o57b3o57b3o57b3o57b3o57b3o57b3o57b3o57b3o57b3o$3410b2o16b5o
37b2o16b5o37b2o16b5o37b2o16b5o37b2o16b5o37b2o16b5o37b2o16b5o37b2o16b5o
37b2o16b5o37b2o16b5o37b2o16b5o37b2o16b5o$3410b2o15b2o3b2o36b2o15b2o3b
2o36b2o15b2o3b2o36b2o15b2o3b2o36b2o15b2o3b2o36b2o15b2o3b2o36b2o15b2o3b
2o36b2o15b2o3b2o36b2o15b2o3b2o36b2o15b2o3b2o36b2o15b2o3b2o36b2o15b2o3b
2o4$3429b3o57b3o57b3o57b3o57b3o57b3o57b3o57b3o57b3o57b3o57b3o57b3o$
3429b3o57b3o57b3o57b3o57b3o57b3o57b3o57b3o57b3o57b3o57b3o57b3o3$3429b
2o58b2o58b2o58b2o58b2o58b2o58b2o58b2o58b2o58b2o58b2o58b2o$3429b2o58b2o
58b2o58b2o58b2o58b2o58b2o58b2o58b2o58b2o58b2o58b2o197$5773bobo$5774b2o
$5774bo584$5378b2o58b2o58b2o58b2o58b2o58b2o$5378b2o58b2o58b2o58b2o58b
2o58b2o4$5379bo59bo59bo59bo59bo59bo$5378bobo57bobo57bobo57bobo57bobo
57bobo$5377bo3bo55bo3bo55bo3bo55bo3bo55bo3bo55bo3bo$5378b3o57b3o57b3o
57b3o57b3o57b3o$5376b2o3b2o53b2o3b2o53b2o3b2o53b2o3b2o53b2o3b2o53b2o3b
2o5$5381bo59bo59bo59bo59bo59bo$5381bo59bo59bo59bo59bo59bo$5377b3obo55b
3obo55b3obo55b3obo55b3obo55b3obo2$5376bo59bo59bo59bo59bo59bo$5370b2o4b
2obo50b2o4b2obo50b2o4b2obo50b2o4b2obo50b2o4b2obo50b2o4b2obo$5370bo7b2o
50bo7b2o50bo7b2o50bo7b2o50bo7b2o50bo7b2o$5368bobo57bobo57bobo57bobo57b
obo57bobo$5368b2o58b2o58b2o58b2o58b2o58b2o$5365bo12b2o3b2o40bo12b2o3b
2o40bo12b2o3b2o40bo12b2o3b2o40bo12b2o3b2o40bo12b2o3b2o$5365b2o11b2o3b
2o40b2o11b2o3b2o40b2o11b2o3b2o40b2o11b2o3b2o40b2o11b2o3b2o40b2o11b2o3b
2o$5364bobo4bo7b5o40bobo4bo7b5o40bobo4bo7b5o40bobo4bo7b5o40bobo4bo7b5o
40bobo4bo7b5o$5370bo9bobo47bo9bobo47bo9bobo47bo9bobo47bo9bobo47bo9bobo
$5370b3o57b3o57b3o57b3o57b3o57b3o$5380b3o57b3o57b3o57b3o57b3o57b3o5$
5363bo59bo59bo59bo59bo59bo$5363bobo14b2o41bobo14b2o41bobo14b2o41bobo
14b2o41bobo14b2o41bobo14b2o$5363b2o15b2o41b2o15b2o41b2o15b2o41b2o15b2o
41b2o15b2o41b2o15b2o3$5350bo59bo59bo59bo59bo59bo$5350b2o58b2o58b2o58b
2o58b2o58b2o$5349bobo4b2o51bobo4b2o51bobo4b2o51bobo4b2o51bobo4b2o51bob
o4b2o$5355bobo57bobo57bobo57bobo57bobo57bobo$5355bo59bo59bo59bo59bo59b
o$5328b2o24b2o32b2o24b2o32b2o24b2o32b2o24b2o32b2o24b2o32b2o24b2o$5328b
2o58b2o58b2o58b2o58b2o58b2o8$5351b2o58b2o58b2o58b2o58b2o58b2o$5335bo
15b2o42bo15b2o42bo15b2o42bo15b2o42bo15b2o42bo15b2o$5325b2o3b2o3b2o48b
2o3b2o3b2o48b2o3b2o3b2o48b2o3b2o3b2o48b2o3b2o3b2o48b2o3b2o3b2o$5334bob
o57bobo57bobo57bobo57bobo57bobo$5326bo3bo55bo3bo55bo3bo55bo3bo55bo3bo
55bo3bo$5327b3o22bo34b3o22bo34b3o22bo34b3o22bo34b3o22bo34b3o22bo$5327b
3o11bo9bobo33b3o11bo9bobo33b3o11bo9bobo33b3o11bo9bobo33b3o11bo9bobo33b
3o11bo9bobo$5340b2o8bo3bo45b2o8bo3bo45b2o8bo3bo45b2o8bo3bo45b2o8bo3bo
45b2o8bo3bo$5340bobo8b3o46bobo8b3o46bobo8b3o46bobo8b3o46bobo8b3o46bobo
8b3o$5330bo18b2o3b2o34bo18b2o3b2o34bo18b2o3b2o34bo18b2o3b2o34bo18b2o3b
2o34bo18b2o3b2o$5329b3o57b3o57b3o57b3o57b3o57b3o$5328bo3bo55bo3bo55bo
3bo55bo3bo55bo3bo55bo3bo$5330bo59bo59bo59bo59bo59bo$5327bo5bo53bo5bo
53bo5bo53bo5bo53bo5bo53bo5bo$5327bo5bo14b2o37bo5bo14b2o37bo5bo14b2o37b
o5bo14b2o37bo5bo14b2o37bo5bo14b2o$5328bo3bo14b2o39bo3bo14b2o39bo3bo14b
2o39bo3bo14b2o39bo3bo14b2o39bo3bo14b2o$5329b3o17bo39b3o17bo39b3o17bo
39b3o17bo39b3o17bo39b3o17bo7$5350bo59bo59bo59bo59bo59bo$5349b3o57b3o
57b3o57b3o57b3o57b3o$5330b2o16b5o37b2o16b5o37b2o16b5o37b2o16b5o37b2o
16b5o37b2o16b5o$5330b2o15b2o3b2o36b2o15b2o3b2o36b2o15b2o3b2o36b2o15b2o
3b2o36b2o15b2o3b2o36b2o15b2o3b2o4$5349b3o57b3o57b3o57b3o57b3o57b3o$
5349b3o57b3o57b3o57b3o57b3o57b3o3$5349b2o58b2o58b2o58b2o58b2o58b2o$
5349b2o58b2o58b2o58b2o58b2o58b2o107$6673bobo$6674b2o$6674bo284$6578b2o
58b2o58b2o58b2o58b2o58b2o58b2o58b2o58b2o58b2o$6578b2o58b2o58b2o58b2o
58b2o58b2o58b2o58b2o58b2o58b2o4$6579bo59bo59bo59bo59bo59bo59bo59bo59bo
59bo$6578bobo57bobo57bobo57bobo57bobo57bobo57bobo57bobo57bobo57bobo$
6577bo3bo55bo3bo55bo3bo55bo3bo55bo3bo55bo3bo55bo3bo55bo3bo55bo3bo55bo
3bo$6578b3o57b3o57b3o57b3o57b3o57b3o57b3o57b3o57b3o57b3o$6576b2o3b2o
53b2o3b2o53b2o3b2o53b2o3b2o53b2o3b2o53b2o3b2o53b2o3b2o53b2o3b2o53b2o3b
2o53b2o3b2o5$6581bo59bo59bo59bo59bo59bo59bo59bo59bo59bo$6581bo59bo59bo
59bo59bo59bo59bo59bo59bo59bo$6577b3obo55b3obo55b3obo55b3obo55b3obo55b
3obo55b3obo55b3obo55b3obo55b3obo2$6576bo59bo59bo59bo59bo59bo59bo59bo
59bo59bo$6570b2o4b2obo50b2o4b2obo50b2o4b2obo50b2o4b2obo50b2o4b2obo50b
2o4b2obo50b2o4b2obo50b2o4b2obo50b2o4b2obo50b2o4b2obo$6570bo7b2o50bo7b
2o50bo7b2o50bo7b2o50bo7b2o50bo7b2o50bo7b2o50bo7b2o50bo7b2o50bo7b2o$
6568bobo57bobo57bobo57bobo57bobo57bobo57bobo57bobo57bobo57bobo$6568b2o
58b2o58b2o58b2o58b2o58b2o58b2o58b2o58b2o58b2o$6565bo12b2o3b2o40bo12b2o
3b2o40bo12b2o3b2o40bo12b2o3b2o40bo12b2o3b2o40bo12b2o3b2o40bo12b2o3b2o
40bo12b2o3b2o40bo12b2o3b2o40bo12b2o3b2o$6565b2o11b2o3b2o40b2o11b2o3b2o
40b2o11b2o3b2o40b2o11b2o3b2o40b2o11b2o3b2o40b2o11b2o3b2o40b2o11b2o3b2o
40b2o11b2o3b2o40b2o11b2o3b2o40b2o11b2o3b2o$6564bobo4bo7b5o40bobo4bo7b
5o40bobo4bo7b5o40bobo4bo7b5o40bobo4bo7b5o40bobo4bo7b5o40bobo4bo7b5o40b
obo4bo7b5o40bobo4bo7b5o40bobo4bo7b5o$6570bo9bobo47bo9bobo47bo9bobo47bo
9bobo47bo9bobo47bo9bobo47bo9bobo47bo9bobo47bo9bobo47bo9bobo$6570b3o57b
3o57b3o57b3o57b3o57b3o57b3o57b3o57b3o57b3o$6580b3o57b3o57b3o57b3o57b3o
57b3o57b3o57b3o57b3o57b3o2$3459bo59bo59bo59bo59bo59bo59bo59bo59bo59bo
59bo59bo$3457b3o57b3o57b3o57b3o57b3o57b3o57b3o57b3o57b3o57b3o57b3o57b
3o$3456bo59bo59bo59bo59bo59bo59bo59bo59bo59bo59bo59bo$3456b2o58b2o58b
2o58b2o58b2o58b2o58b2o58b2o58b2o58b2o58b2o58b2o2445bo59bo59bo59bo59bo
59bo59bo59bo59bo59bo$6563bobo14b2o41bobo14b2o41bobo14b2o41bobo14b2o41b
obo14b2o41bobo14b2o41bobo14b2o41bobo14b2o41bobo14b2o41bobo14b2o$6563b
2o15b2o41b2o15b2o41b2o15b2o41b2o15b2o41b2o15b2o41b2o15b2o41b2o15b2o41b
2o15b2o41b2o15b2o41b2o15b2o2$3454bo59bo59bo59bo59bo59bo59bo59bo59bo59b
o59bo59bo$3453b3o57b3o57b3o57b3o57b3o57b3o57b3o57b3o57b3o57b3o57b3o57b
3o2434bo59bo59bo59bo59bo59bo59bo59bo59bo59bo$3453b3o57b3o57b3o57b3o57b
3o57b3o57b3o57b3o57b3o57b3o57b3o57b3o2434b2o58b2o58b2o58b2o58b2o58b2o
58b2o58b2o58b2o58b2o$6549bobo4b2o51bobo4b2o51bobo4b2o51bobo4b2o51bobo
4b2o51bobo4b2o51bobo4b2o51bobo4b2o51bobo4b2o51bobo4b2o$3451b2o3b2o53b
2o3b2o53b2o3b2o53b2o3b2o53b2o3b2o53b2o3b2o53b2o3b2o53b2o3b2o53b2o3b2o
53b2o3b2o53b2o3b2o53b2o3b2o2437bobo57bobo57bobo57bobo57bobo57bobo57bob
o57bobo57bobo57bobo$3451b2o3b2o53b2o3b2o53b2o3b2o53b2o3b2o53b2o3b2o53b
2o3b2o53b2o3b2o53b2o3b2o53b2o3b2o53b2o3b2o53b2o3b2o53b2o3b2o2437bo59bo
59bo59bo59bo59bo59bo59bo59bo59bo$6528b2o24b2o32b2o24b2o32b2o24b2o32b2o
24b2o32b2o24b2o32b2o24b2o32b2o24b2o32b2o24b2o32b2o24b2o32b2o24b2o$
6528b2o58b2o58b2o58b2o58b2o58b2o58b2o58b2o58b2o58b2o$3429bo24b2o33bo
24b2o33bo24b2o33bo24b2o33bo24b2o33bo24b2o33bo24b2o33bo24b2o33bo24b2o
33bo24b2o33bo24b2o33bo24b2o$3429b3o21bobo33b3o21bobo33b3o21bobo33b3o
21bobo33b3o21bobo33b3o21bobo33b3o21bobo33b3o21bobo33b3o21bobo33b3o21bo
bo33b3o21bobo33b3o21bobo$3432bo19b2o2bo35bo19b2o2bo35bo19b2o2bo35bo19b
2o2bo35bo19b2o2bo35bo19b2o2bo35bo19b2o2bo35bo19b2o2bo35bo19b2o2bo35bo
19b2o2bo35bo19b2o2bo35bo19b2o2bo$3431b2o20b2o36b2o20b2o36b2o20b2o36b2o
20b2o36b2o20b2o36b2o20b2o36b2o20b2o36b2o20b2o36b2o20b2o36b2o20b2o36b2o
20b2o36b2o20b2o$3453b2o58b2o58b2o58b2o58b2o58b2o58b2o58b2o58b2o58b2o
58b2o58b2o$3453bo59bo59bo59bo59bo59bo59bo59bo59bo59bo59bo59bo2$3434bo
18bo5bo34bo18bo5bo34bo18bo5bo34bo18bo5bo34bo18bo5bo34bo18bo5bo34bo18bo
5bo34bo18bo5bo34bo18bo5bo34bo18bo5bo34bo18bo5bo34bo18bo5bo2431b2o58b2o
58b2o58b2o58b2o58b2o58b2o58b2o58b2o58b2o$3433b3o17bo5bo33b3o17bo5bo33b
3o17bo5bo33b3o17bo5bo33b3o17bo5bo33b3o17bo5bo33b3o17bo5bo33b3o17bo5bo
33b3o17bo5bo33b3o17bo5bo33b3o17bo5bo33b3o17bo5bo2415bo15b2o42bo15b2o
42bo15b2o42bo15b2o42bo15b2o42bo15b2o42bo15b2o42bo15b2o42bo15b2o42bo15b
2o$3433b3o11bo6bo3bo34b3o11bo6bo3bo34b3o11bo6bo3bo34b3o11bo6bo3bo34b3o
11bo6bo3bo34b3o11bo6bo3bo34b3o11bo6bo3bo34b3o11bo6bo3bo34b3o11bo6bo3bo
34b3o11bo6bo3bo34b3o11bo6bo3bo34b3o11bo6bo3bo2406b2o3b2o3b2o48b2o3b2o
3b2o48b2o3b2o3b2o48b2o3b2o3b2o48b2o3b2o3b2o48b2o3b2o3b2o48b2o3b2o3b2o
48b2o3b2o3b2o48b2o3b2o3b2o48b2o3b2o3b2o$3447bobo5b3o49bobo5b3o49bobo5b
3o49bobo5b3o49bobo5b3o49bobo5b3o49bobo5b3o49bobo5b3o49bobo5b3o49bobo5b
3o49bobo5b3o49bobo5b3o2416bobo57bobo57bobo57bobo57bobo57bobo57bobo57bo
bo57bobo57bobo$3431b2o3b2o9b2o42b2o3b2o9b2o42b2o3b2o9b2o42b2o3b2o9b2o
42b2o3b2o9b2o42b2o3b2o9b2o42b2o3b2o9b2o42b2o3b2o9b2o42b2o3b2o9b2o42b2o
3b2o9b2o42b2o3b2o9b2o42b2o3b2o9b2o2417bo3bo55bo3bo55bo3bo55bo3bo55bo3b
o55bo3bo55bo3bo55bo3bo55bo3bo55bo3bo$3431b2o3b2o53b2o3b2o53b2o3b2o53b
2o3b2o53b2o3b2o53b2o3b2o53b2o3b2o53b2o3b2o53b2o3b2o53b2o3b2o53b2o3b2o
53b2o3b2o2429b3o22bo34b3o22bo34b3o22bo34b3o22bo34b3o22bo34b3o22bo34b3o
22bo34b3o22bo34b3o22bo34b3o22bo$6527b3o11bo9bobo33b3o11bo9bobo33b3o11b
o9bobo33b3o11bo9bobo33b3o11bo9bobo33b3o11bo9bobo33b3o11bo9bobo33b3o11b
o9bobo33b3o11bo9bobo33b3o11bo9bobo$6540b2o8bo3bo45b2o8bo3bo45b2o8bo3bo
45b2o8bo3bo45b2o8bo3bo45b2o8bo3bo45b2o8bo3bo45b2o8bo3bo45b2o8bo3bo45b
2o8bo3bo$3434b2o58b2o58b2o58b2o58b2o58b2o58b2o58b2o58b2o58b2o58b2o58b
2o2444bobo8b3o46bobo8b3o46bobo8b3o46bobo8b3o46bobo8b3o46bobo8b3o46bobo
8b3o46bobo8b3o46bobo8b3o46bobo8b3o$3433bobo4bo52bobo4bo52bobo4bo52bobo
4bo52bobo4bo52bobo4bo52bobo4bo52bobo4bo52bobo4bo52bobo4bo52bobo4bo52bo
bo4bo2429bo18b2o3b2o34bo18b2o3b2o34bo18b2o3b2o34bo18b2o3b2o34bo18b2o3b
2o34bo18b2o3b2o34bo18b2o3b2o34bo18b2o3b2o34bo18b2o3b2o34bo18b2o3b2o$
3432b2o2bo2bo52b2o2bo2bo52b2o2bo2bo52b2o2bo2bo52b2o2bo2bo52b2o2bo2bo
52b2o2bo2bo52b2o2bo2bo52b2o2bo2bo52b2o2bo2bo52b2o2bo2bo52b2o2bo2bo
2429b3o57b3o57b3o57b3o57b3o57b3o57b3o57b3o57b3o57b3o$3433b2o3b4o51b2o
3b4o51b2o3b4o51b2o3b4o51b2o3b4o51b2o3b4o51b2o3b4o51b2o3b4o51b2o3b4o51b
2o3b4o51b2o3b4o51b2o3b4o2426bo3bo55bo3bo55bo3bo55bo3bo55bo3bo55bo3bo
55bo3bo55bo3bo55bo3bo55bo3bo$3433b2o20b2o36b2o20b2o36b2o20b2o36b2o20b
2o36b2o20b2o36b2o20b2o36b2o20b2o36b2o20b2o36b2o20b2o36b2o20b2o36b2o20b
2o36b2o20b2o2413bo59bo59bo59bo59bo59bo59bo59bo59bo59bo$3433bo21b2o36bo
21b2o36bo21b2o36bo21b2o36bo21b2o36bo21b2o36bo21b2o36bo21b2o36bo21b2o
36bo21b2o36bo21b2o36bo21b2o2410bo5bo53bo5bo53bo5bo53bo5bo53bo5bo53bo5b
o53bo5bo53bo5bo53bo5bo53bo5bo$6527bo5bo14b2o37bo5bo14b2o37bo5bo14b2o
37bo5bo14b2o37bo5bo14b2o37bo5bo14b2o37bo5bo14b2o37bo5bo14b2o37bo5bo14b
2o37bo5bo14b2o$3433bo5bo53bo5bo53bo5bo53bo5bo53bo5bo53bo5bo53bo5bo53bo
5bo53bo5bo53bo5bo53bo5bo53bo5bo2428bo3bo14b2o39bo3bo14b2o39bo3bo14b2o
39bo3bo14b2o39bo3bo14b2o39bo3bo14b2o39bo3bo14b2o39bo3bo14b2o39bo3bo14b
2o39bo3bo14b2o$3433bo5bo53bo5bo53bo5bo53bo5bo53bo5bo53bo5bo53bo5bo53bo
5bo53bo5bo53bo5bo53bo5bo53bo5bo2429b3o17bo39b3o17bo39b3o17bo39b3o17bo
39b3o17bo39b3o17bo39b3o17bo39b3o17bo39b3o17bo39b3o17bo$3434bo3bo55bo3b
o55bo3bo55bo3bo55bo3bo55bo3bo55bo3bo55bo3bo55bo3bo55bo3bo55bo3bo55bo3b
o$3435b3o57b3o57b3o57b3o57b3o57b3o57b3o57b3o57b3o57b3o57b3o57b3o5$
6550bo59bo59bo59bo59bo59bo59bo59bo59bo59bo$6549b3o57b3o57b3o57b3o57b3o
57b3o57b3o57b3o57b3o57b3o$6530b2o16b5o37b2o16b5o37b2o16b5o37b2o16b5o
37b2o16b5o37b2o16b5o37b2o16b5o37b2o16b5o37b2o16b5o37b2o16b5o$6530b2o
15b2o3b2o36b2o15b2o3b2o36b2o15b2o3b2o36b2o15b2o3b2o36b2o15b2o3b2o36b2o
15b2o3b2o36b2o15b2o3b2o36b2o15b2o3b2o36b2o15b2o3b2o36b2o15b2o3b2o$
3435b2o58b2o58b2o58b2o58b2o58b2o58b2o58b2o58b2o58b2o58b2o58b2o$3435b2o
58b2o58b2o58b2o58b2o58b2o58b2o58b2o58b2o58b2o58b2o58b2o2$6549b3o57b3o
57b3o57b3o57b3o57b3o57b3o57b3o57b3o57b3o$6549b3o57b3o57b3o57b3o57b3o
57b3o57b3o57b3o57b3o57b3o3$6549b2o58b2o58b2o58b2o58b2o58b2o58b2o58b2o
58b2o58b2o$6549b2o58b2o58b2o58b2o58b2o58b2o58b2o58b2o58b2o58b2o213$
5379bo59bo59bo59bo59bo59bo$5377b3o57b3o57b3o57b3o57b3o57b3o$5376bo59bo
59bo59bo59bo59bo$5376b2o58b2o58b2o58b2o58b2o58b2o4$5374bo59bo59bo59bo
59bo59bo$5373b3o57b3o57b3o57b3o57b3o57b3o$5373b3o57b3o57b3o57b3o57b3o
57b3o2$5371b2o3b2o53b2o3b2o53b2o3b2o53b2o3b2o53b2o3b2o53b2o3b2o$5371b
2o3b2o53b2o3b2o53b2o3b2o53b2o3b2o53b2o3b2o53b2o3b2o3$5349bo24b2o33bo
24b2o33bo24b2o33bo24b2o33bo24b2o33bo24b2o$5349b3o21bobo33b3o21bobo33b
3o21bobo33b3o21bobo33b3o21bobo33b3o21bobo$5352bo19b2o2bo35bo19b2o2bo
35bo19b2o2bo35bo19b2o2bo35bo19b2o2bo35bo19b2o2bo$5351b2o20b2o36b2o20b
2o36b2o20b2o36b2o20b2o36b2o20b2o36b2o20b2o$5373b2o58b2o58b2o58b2o58b2o
58b2o$5373bo59bo59bo59bo59bo59bo2$5354bo18bo5bo34bo18bo5bo34bo18bo5bo
34bo18bo5bo34bo18bo5bo34bo18bo5bo$5353b3o17bo5bo33b3o17bo5bo33b3o17bo
5bo33b3o17bo5bo33b3o17bo5bo33b3o17bo5bo$5353b3o11bo6bo3bo34b3o11bo6bo
3bo34b3o11bo6bo3bo34b3o11bo6bo3bo34b3o11bo6bo3bo34b3o11bo6bo3bo$5367bo
bo5b3o49bobo5b3o49bobo5b3o49bobo5b3o49bobo5b3o49bobo5b3o$5351b2o3b2o9b
2o42b2o3b2o9b2o42b2o3b2o9b2o42b2o3b2o9b2o42b2o3b2o9b2o42b2o3b2o9b2o$
5351b2o3b2o53b2o3b2o53b2o3b2o53b2o3b2o53b2o3b2o53b2o3b2o3$5354b2o58b2o
58b2o58b2o58b2o58b2o$5353bobo4bo52bobo4bo52bobo4bo52bobo4bo52bobo4bo
52bobo4bo$5352b2o2bo2bo52b2o2bo2bo52b2o2bo2bo52b2o2bo2bo52b2o2bo2bo52b
2o2bo2bo$5353b2o3b4o51b2o3b4o51b2o3b4o51b2o3b4o51b2o3b4o51b2o3b4o$
5353b2o20b2o36b2o20b2o36b2o20b2o36b2o20b2o36b2o20b2o36b2o20b2o$5353bo
21b2o36bo21b2o36bo21b2o36bo21b2o36bo21b2o36bo21b2o2$5353bo5bo53bo5bo
53bo5bo53bo5bo53bo5bo53bo5bo$5353bo5bo53bo5bo53bo5bo53bo5bo53bo5bo53bo
5bo$5354bo3bo55bo3bo55bo3bo55bo3bo55bo3bo55bo3bo$5355b3o57b3o57b3o57b
3o57b3o57b3o9$5355b2o58b2o58b2o58b2o58b2o58b2o$5355b2o58b2o58b2o58b2o
58b2o58b2o70$6579bo59bo59bo59bo59bo59bo59bo59bo59bo59bo$6577b3o57b3o
57b3o57b3o57b3o57b3o57b3o57b3o57b3o57b3o$6576bo59bo59bo59bo59bo59bo59b
o59bo59bo59bo$6576b2o58b2o58b2o58b2o58b2o58b2o58b2o58b2o58b2o58b2o4$
6574bo59bo59bo59bo59bo59bo59bo59bo59bo59bo$6573b3o57b3o57b3o57b3o57b3o
57b3o57b3o57b3o57b3o57b3o$6573b3o57b3o57b3o57b3o57b3o57b3o57b3o57b3o
57b3o57b3o2$6571b2o3b2o53b2o3b2o53b2o3b2o53b2o3b2o53b2o3b2o53b2o3b2o
53b2o3b2o53b2o3b2o53b2o3b2o53b2o3b2o$6571b2o3b2o53b2o3b2o53b2o3b2o53b
2o3b2o53b2o3b2o53b2o3b2o53b2o3b2o53b2o3b2o53b2o3b2o53b2o3b2o3$6549bo
24b2o33bo24b2o33bo24b2o33bo24b2o33bo24b2o33bo24b2o33bo24b2o33bo24b2o
33bo24b2o33bo24b2o$6549b3o21bobo33b3o21bobo33b3o21bobo33b3o21bobo33b3o
21bobo33b3o21bobo33b3o21bobo33b3o21bobo33b3o21bobo33b3o21bobo$6552bo
19b2o2bo35bo19b2o2bo35bo19b2o2bo35bo19b2o2bo35bo19b2o2bo35bo19b2o2bo
35bo19b2o2bo35bo19b2o2bo35bo19b2o2bo35bo19b2o2bo$6551b2o20b2o36b2o20b
2o36b2o20b2o36b2o20b2o36b2o20b2o36b2o20b2o36b2o20b2o36b2o20b2o36b2o20b
2o36b2o20b2o$6573b2o58b2o58b2o58b2o58b2o58b2o58b2o58b2o58b2o58b2o$
6573bo59bo59bo59bo59bo59bo59bo59bo59bo59bo2$6554bo18bo5bo34bo18bo5bo
34bo18bo5bo34bo18bo5bo34bo18bo5bo34bo18bo5bo34bo18bo5bo34bo18bo5bo34bo
18bo5bo34bo18bo5bo$6553b3o17bo5bo33b3o17bo5bo33b3o17bo5bo33b3o17bo5bo
33b3o17bo5bo33b3o17bo5bo33b3o17bo5bo33b3o17bo5bo33b3o17bo5bo33b3o17bo
5bo$6553b3o11bo6bo3bo34b3o11bo6bo3bo34b3o11bo6bo3bo34b3o11bo6bo3bo34b
3o11bo6bo3bo34b3o11bo6bo3bo34b3o11bo6bo3bo34b3o11bo6bo3bo34b3o11bo6bo
3bo34b3o11bo6bo3bo$6567bobo5b3o49bobo5b3o49bobo5b3o49bobo5b3o49bobo5b
3o49bobo5b3o49bobo5b3o49bobo5b3o49bobo5b3o49bobo5b3o$6551b2o3b2o9b2o
42b2o3b2o9b2o42b2o3b2o9b2o42b2o3b2o9b2o42b2o3b2o9b2o42b2o3b2o9b2o42b2o
3b2o9b2o42b2o3b2o9b2o42b2o3b2o9b2o42b2o3b2o9b2o$6551b2o3b2o53b2o3b2o
53b2o3b2o53b2o3b2o53b2o3b2o53b2o3b2o53b2o3b2o53b2o3b2o53b2o3b2o53b2o3b
2o3$6554b2o58b2o58b2o58b2o58b2o58b2o58b2o58b2o58b2o58b2o$6553bobo4bo
52bobo4bo52bobo4bo52bobo4bo52bobo4bo52bobo4bo52bobo4bo52bobo4bo52bobo
4bo52bobo4bo$6552b2o2bo2bo52b2o2bo2bo52b2o2bo2bo52b2o2bo2bo52b2o2bo2bo
52b2o2bo2bo52b2o2bo2bo52b2o2bo2bo52b2o2bo2bo52b2o2bo2bo$6553b2o3b4o51b
2o3b4o51b2o3b4o51b2o3b4o51b2o3b4o51b2o3b4o51b2o3b4o51b2o3b4o51b2o3b4o
51b2o3b4o$6553b2o20b2o36b2o20b2o36b2o20b2o36b2o20b2o36b2o20b2o36b2o20b
2o36b2o20b2o36b2o20b2o36b2o20b2o36b2o20b2o$6553bo21b2o36bo21b2o36bo21b
2o36bo21b2o36bo21b2o36bo21b2o36bo21b2o36bo21b2o36bo21b2o36bo21b2o2$
6553bo5bo53bo5bo53bo5bo53bo5bo53bo5bo53bo5bo53bo5bo53bo5bo53bo5bo53bo
5bo$6553bo5bo53bo5bo53bo5bo53bo5bo53bo5bo53bo5bo53bo5bo53bo5bo53bo5bo
53bo5bo$6554bo3bo55bo3bo55bo3bo55bo3bo55bo3bo55bo3bo55bo3bo55bo3bo55bo
3bo55bo3bo$6555b3o57b3o57b3o57b3o57b3o57b3o57b3o57b3o57b3o57b3o9$6555b
2o58b2o58b2o58b2o58b2o58b2o58b2o58b2o58b2o58b2o$6555b2o58b2o58b2o58b2o
58b2o58b2o58b2o58b2o58b2o58b2o220$2757b2o58b2o58b2o58b2o58b2o58b2o58b
2o58b2o58b2o58b2o58b2o58b2o1528b2o58b2o58b2o58b2o58b2o58b2o1018b2o58b
2o58b2o58b2o58b2o58b2o58b2o58b2o58b2o58b2o$2757b2o58b2o58b2o58b2o58b2o
58b2o58b2o58b2o58b2o58b2o58b2o58b2o1528b2o58b2o58b2o58b2o58b2o58b2o
1018b2o58b2o58b2o58b2o58b2o58b2o58b2o58b2o58b2o58b2o$2781b2o58b2o58b2o
58b2o58b2o58b2o58b2o58b2o58b2o58b2o58b2o58b2o1528b2o58b2o58b2o58b2o58b
2o58b2o1018b2o58b2o58b2o58b2o58b2o58b2o58b2o58b2o58b2o58b2o$2781b2o58b
2o58b2o58b2o58b2o58b2o58b2o58b2o58b2o58b2o58b2o58b2o1528b2o58b2o58b2o
58b2o58b2o58b2o1018b2o58b2o58b2o58b2o58b2o58b2o58b2o58b2o58b2o58b2o$
2757bo59bo59bo59bo59bo59bo59bo59bo59bo59bo59bo59bo1529bo59bo59bo59bo
59bo59bo1019bo59bo59bo59bo59bo59bo59bo59bo59bo59bo$2756b3o57b3o57b3o
57b3o57b3o57b3o57b3o57b3o57b3o57b3o57b3o57b3o1527b3o57b3o57b3o57b3o57b
3o57b3o1017b3o57b3o57b3o57b3o57b3o57b3o57b3o57b3o57b3o57b3o$2755bo3bo
55bo3bo55bo3bo55bo3bo55bo3bo55bo3bo55bo3bo55bo3bo55bo3bo55bo3bo55bo3bo
55bo3bo1525bo3bo55bo3bo55bo3bo55bo3bo55bo3bo55bo3bo1015bo3bo55bo3bo55b
o3bo55bo3bo55bo3bo55bo3bo55bo3bo55bo3bo55bo3bo55bo3bo$2757bo59bo59bo
59bo59bo59bo59bo59bo59bo59bo59bo59bo1529bo59bo59bo59bo59bo59bo1019bo
59bo59bo59bo59bo59bo59bo59bo59bo59bo$2754bo5bo53bo5bo53bo5bo53bo5bo53b
o5bo53bo5bo53bo5bo53bo5bo53bo5bo53bo5bo53bo5bo53bo5bo1523bo5bo53bo5bo
53bo5bo53bo5bo53bo5bo53bo5bo1013bo5bo53bo5bo53bo5bo53bo5bo53bo5bo53bo
5bo53bo5bo53bo5bo53bo5bo53bo5bo$2754bo5bo53bo5bo53bo5bo53bo5bo53bo5bo
53bo5bo53bo5bo53bo5bo53bo5bo53bo5bo53bo5bo53bo5bo1523bo5bo53bo5bo53bo
5bo53bo5bo53bo5bo53bo5bo1013bo5bo53bo5bo53bo5bo53bo5bo53bo5bo53bo5bo
53bo5bo53bo5bo53bo5bo53bo5bo$2755bo3bo55bo3bo55bo3bo55bo3bo55bo3bo55bo
3bo55bo3bo55bo3bo55bo3bo55bo3bo55bo3bo55bo3bo1525bo3bo55bo3bo55bo3bo
55bo3bo55bo3bo55bo3bo1015bo3bo55bo3bo55bo3bo55bo3bo55bo3bo55bo3bo55bo
3bo55bo3bo55bo3bo55bo3bo$2756b3o57b3o57b3o57b3o57b3o57b3o57b3o57b3o57b
3o57b3o57b3o57b3o1527b3o57b3o57b3o57b3o57b3o57b3o1017b3o57b3o57b3o57b
3o57b3o57b3o57b3o57b3o57b3o57b3o3$2780b5o55b5o55b5o55b5o55b5o55b5o55b
5o55b5o55b5o55b5o55b5o55b5o1525b5o55b5o55b5o55b5o55b5o55b5o1015b5o55b
5o55b5o55b5o55b5o55b5o55b5o55b5o55b5o55b5o$2779bob3obo53bob3obo53bob3o
bo53bob3obo53bob3obo53bob3obo53bob3obo53bob3obo53bob3obo53bob3obo53bob
3obo53bob3obo1523bob3obo53bob3obo53bob3obo53bob3obo53bob3obo53bob3obo
1013bob3obo53bob3obo53bob3obo53bob3obo53bob3obo53bob3obo53bob3obo53bob
3obo53bob3obo53bob3obo$2759bo20bo3bo34bo20bo3bo34bo20bo3bo34bo20bo3bo
34bo20bo3bo34bo20bo3bo34bo20bo3bo34bo20bo3bo34bo20bo3bo34bo20bo3bo34bo
20bo3bo34bo20bo3bo1504bo20bo3bo34bo20bo3bo34bo20bo3bo34bo20bo3bo34bo
20bo3bo34bo20bo3bo994bo20bo3bo34bo20bo3bo34bo20bo3bo34bo20bo3bo34bo20b
o3bo34bo20bo3bo34bo20bo3bo34bo20bo3bo34bo20bo3bo34bo20bo3bo5bo$2781b3o
57b3o57b3o57b3o57b3o57b3o57b3o57b3o57b3o57b3o57b3o57b3o1527b3o57b3o57b
3o57b3o57b3o57b3o1017b3o57b3o57b3o57b3o57b3o57b3o57b3o57b3o57b3o57b3o
5bo$2782bo59bo59bo59bo59bo59bo59bo59bo59bo59bo59bo59bo1529bo59bo59bo
59bo59bo59bo1019bo59bo59bo59bo59bo59bo59bo59bo59bo59bo6b3o$2759bo59bo
59bo59bo59bo59bo59bo59bo59bo59bo59bo59bo1529bo59bo59bo59bo59bo59bo
1019bo59bo59bo59bo59bo59bo59bo59bo59bo59bo$2757bobo57bobo57bobo57bobo
57bobo57bobo57bobo57bobo57bobo57bobo57bobo57bobo1527bobo57bobo57bobo
57bobo57bobo57bobo1017bobo57bobo57bobo57bobo57bobo57bobo57bobo57bobo
57bobo57bobo$2758b2o58b2o58b2o58b2o58b2o58b2o58b2o58b2o58b2o58b2o58b2o
58b2o1528b2o58b2o58b2o58b2o58b2o58b2o1018b2o58b2o58b2o58b2o58b2o58b2o
58b2o58b2o58b2o58b2o$2784bo59bo59bo59bo59bo59bo59bo59bo59bo59bo59bo59b
o1529bo59bo59bo59bo59bo59bo1019bo59bo59bo59bo59bo59bo59bo59bo59bo59bo$
2784bo59bo59bo59bo59bo59bo59bo59bo59bo59bo59bo59bo1529bo59bo59bo59bo
59bo59bo1019bo59bo59bo59bo59bo59bo59bo59bo59bo59bo$2777bo5bobo51bo5bob
o51bo5bobo51bo5bobo51bo5bobo51bo5bobo51bo5bobo51bo5bobo51bo5bobo51bo5b
obo51bo5bobo51bo5bobo1521bo5bobo51bo5bobo51bo5bobo51bo5bobo51bo5bobo
51bo5bobo1011bo5bobo51bo5bobo51bo5bobo51bo5bobo51bo5bobo51bo5bobo51bo
5bobo51bo5bobo51bo5bobo51bo5bobo$2752b2o3b2o18bobo2b2ob2o25b2o3b2o18bo
bo2b2ob2o25b2o3b2o18bobo2b2ob2o25b2o3b2o18bobo2b2ob2o25b2o3b2o18bobo2b
2ob2o25b2o3b2o18bobo2b2ob2o25b2o3b2o18bobo2b2ob2o25b2o3b2o18bobo2b2ob
2o25b2o3b2o18bobo2b2ob2o25b2o3b2o18bobo2b2ob2o25b2o3b2o18bobo2b2ob2o
25b2o3b2o18bobo2b2ob2o1495b2o3b2o18bobo2b2ob2o25b2o3b2o18bobo2b2ob2o
25b2o3b2o18bobo2b2ob2o25b2o3b2o18bobo2b2ob2o25b2o3b2o18bobo2b2ob2o25b
2o3b2o18bobo2b2ob2o985b2o3b2o18bobo2b2ob2o25b2o3b2o18bobo2b2ob2o25b2o
3b2o18bobo2b2ob2o25b2o3b2o18bobo2b2ob2o25b2o3b2o18bobo2b2ob2o25b2o3b2o
18bobo2b2ob2o25b2o3b2o18bobo2b2ob2o25b2o3b2o18bobo2b2ob2o25b2o3b2o18bo
bo2b2ob2o25b2o3b2o18bobo2b2ob2o$2766bo10b2o2bo5bo38bo10b2o2bo5bo38bo
10b2o2bo5bo38bo10b2o2bo5bo38bo10b2o2bo5bo38bo10b2o2bo5bo38bo10b2o2bo5b
o38bo10b2o2bo5bo38bo10b2o2bo5bo38bo10b2o2bo5bo38bo10b2o2bo5bo38bo10b2o
2bo5bo1508bo10b2o2bo5bo38bo10b2o2bo5bo38bo10b2o2bo5bo38bo10b2o2bo5bo
38bo10b2o2bo5bo38bo10b2o2bo5bo998bo10b2o2bo5bo38bo10b2o2bo5bo38bo10b2o
2bo5bo38bo10b2o2bo5bo38bo10b2o2bo5bo38bo10b2o2bo5bo38bo10b2o2bo5bo38bo
10b2o2bo5bo38bo10b2o2bo5bo38bo10b2o2bo5bo$2753bo3bo9bo16bo28bo3bo9bo
16bo28bo3bo9bo16bo28bo3bo9bo16bo28bo3bo9bo16bo28bo3bo9bo16bo28bo3bo9bo
16bo28bo3bo9bo16bo28bo3bo9bo16bo28bo3bo9bo16bo28bo3bo9bo16bo28bo3bo9bo
16bo1498bo3bo9bo16bo28bo3bo9bo16bo28bo3bo9bo16bo28bo3bo9bo16bo28bo3bo
9bo16bo28bo3bo9bo16bo988bo3bo9bo16bo28bo3bo9bo16bo28bo3bo9bo16bo28bo3b
o9bo16bo28bo3bo9bo16bo28bo3bo9bo16bo28bo3bo9bo16bo28bo3bo9bo16bo28bo3b
o9bo16bo28bo3bo9bo16bo$2754b3o8b3o13b2o3b2o26b3o8b3o13b2o3b2o26b3o8b3o
13b2o3b2o26b3o8b3o13b2o3b2o26b3o8b3o13b2o3b2o26b3o8b3o13b2o3b2o26b3o8b
3o13b2o3b2o26b3o8b3o13b2o3b2o26b3o8b3o13b2o3b2o26b3o8b3o13b2o3b2o26b3o
8b3o13b2o3b2o26b3o8b3o13b2o3b2o1496b3o8b3o13b2o3b2o26b3o8b3o13b2o3b2o
26b3o8b3o13b2o3b2o26b3o8b3o13b2o3b2o26b3o8b3o13b2o3b2o26b3o8b3o13b2o3b
2o986b3o8b3o13b2o3b2o26b3o8b3o13b2o3b2o26b3o8b3o13b2o3b2o26b3o8b3o13b
2o3b2o26b3o8b3o13b2o3b2o26b3o8b3o13b2o3b2o26b3o8b3o13b2o3b2o26b3o8b3o
13b2o3b2o26b3o8b3o13b2o3b2o26b3o8b3o13b2o3b2o$2734b2o18b3o37b2o18b3o
37b2o18b3o37b2o18b3o37b2o18b3o37b2o18b3o37b2o18b3o37b2o18b3o37b2o18b3o
37b2o18b3o37b2o18b3o37b2o18b3o1507b2o18b3o37b2o18b3o37b2o18b3o37b2o18b
3o37b2o18b3o37b2o18b3o997b2o18b3o37b2o18b3o37b2o18b3o37b2o18b3o37b2o
18b3o37b2o18b3o37b2o18b3o37b2o18b3o37b2o18b3o37b2o18b3o$2734b2o58b2o
58b2o58b2o58b2o58b2o58b2o58b2o58b2o58b2o58b2o58b2o1528b2o58b2o58b2o58b
2o58b2o58b2o1018b2o58b2o58b2o58b2o58b2o58b2o58b2o58b2o58b2o58b2o$2770b
o14bo44bo14bo44bo14bo44bo14bo44bo14bo44bo14bo44bo14bo44bo14bo44bo14bo
44bo14bo44bo14bo44bo14bo1514bo14bo44bo14bo44bo14bo44bo14bo44bo14bo44bo
14bo1004bo14bo44bo14bo44bo14bo44bo14bo44bo14bo44bo14bo44bo14bo44bo14bo
44bo14bo44bo14bo$2769bo15bo43bo15bo43bo15bo43bo15bo43bo15bo43bo15bo43b
o15bo43bo15bo43bo15bo43bo15bo43bo15bo43bo15bo1513bo15bo43bo15bo43bo15b
o43bo15bo43bo15bo43bo15bo1003bo15bo43bo15bo43bo15bo43bo15bo43bo15bo43b
o15bo43bo15bo43bo15bo43bo15bo43bo15bo$2769b3o14bo42b3o14bo42b3o14bo42b
3o14bo42b3o14bo42b3o14bo42b3o14bo42b3o14bo42b3o14bo42b3o14bo42b3o14bo
42b3o14bo1512b3o14bo42b3o14bo42b3o14bo42b3o14bo42b3o14bo42b3o14bo1002b
3o14bo42b3o14bo42b3o14bo42b3o14bo42b3o14bo42b3o14bo42b3o14bo42b3o14bo
42b3o14bo42b3o14bo$2755b2o58b2o58b2o58b2o58b2o58b2o58b2o58b2o58b2o58b
2o58b2o58b2o1528b2o58b2o58b2o58b2o58b2o58b2o1018b2o58b2o58b2o58b2o58b
2o58b2o58b2o58b2o58b2o58b2o$2755b2o58b2o58b2o58b2o58b2o58b2o58b2o58b2o
58b2o58b2o58b2o58b2o1528b2o58b2o58b2o58b2o58b2o58b2o1018b2o58b2o58b2o
58b2o58b2o58b2o58b2o58b2o58b2o58b2o$2783b2o58b2o58b2o58b2o58b2o58b2o
58b2o58b2o58b2o58b2o58b2o58b2o1528b2o58b2o58b2o58b2o58b2o58b2o1018b2o
58b2o58b2o58b2o58b2o58b2o58b2o58b2o58b2o58b2o$2783b2o58b2o58b2o58b2o
58b2o58b2o58b2o58b2o58b2o58b2o58b2o58b2o1528b2o58b2o58b2o58b2o58b2o58b
2o1018b2o58b2o58b2o58b2o58b2o58b2o58b2o58b2o58b2o58b2o3$2779b2o58b2o
58b2o58b2o58b2o58b2o58b2o58b2o58b2o58b2o58b2o58b2o1528b2o58b2o58b2o58b
2o58b2o58b2o1018b2o58b2o58b2o58b2o58b2o58b2o58b2o58b2o58b2o58b2o$2731b
2o3b2o41bobo9b2o3b2o41bobo9b2o3b2o41bobo9b2o3b2o41bobo9b2o3b2o41bobo9b
2o3b2o41bobo9b2o3b2o41bobo9b2o3b2o41bobo9b2o3b2o41bobo9b2o3b2o41bobo9b
2o3b2o41bobo9b2o3b2o41bobo1479b2o3b2o41bobo9b2o3b2o41bobo9b2o3b2o41bob
o9b2o3b2o41bobo9b2o3b2o41bobo9b2o3b2o41bobo969b2o3b2o41bobo9b2o3b2o41b
obo9b2o3b2o41bobo9b2o3b2o41bobo9b2o3b2o41bobo9b2o3b2o41bobo9b2o3b2o41b
obo9b2o3b2o41bobo9b2o3b2o41bobo9b2o3b2o41bobo$2733b3o45bo11b3o45bo11b
3o45bo11b3o45bo11b3o45bo11b3o45bo11b3o45bo11b3o45bo11b3o45bo11b3o45bo
11b3o45bo11b3o45bo1481b3o45bo11b3o45bo11b3o45bo11b3o45bo11b3o45bo11b3o
45bo971b3o45bo11b3o45bo11b3o45bo11b3o45bo11b3o45bo11b3o45bo11b3o45bo
11b3o45bo11b3o45bo11b3o45bo$2732bo3bo44b2o9bo3bo44b2o9bo3bo44b2o9bo3bo
44b2o9bo3bo44b2o9bo3bo44b2o9bo3bo44b2o9bo3bo44b2o9bo3bo44b2o9bo3bo44b
2o9bo3bo44b2o9bo3bo44b2o1479bo3bo44b2o9bo3bo44b2o9bo3bo44b2o9bo3bo44b
2o9bo3bo44b2o9bo3bo44b2o969bo3bo44b2o9bo3bo44b2o9bo3bo44b2o9bo3bo44b2o
9bo3bo44b2o9bo3bo44b2o9bo3bo44b2o9bo3bo44b2o9bo3bo44b2o9bo3bo44b2o$
2733bobo57bobo57bobo57bobo57bobo57bobo57bobo57bobo57bobo57bobo57bobo
57bobo1527bobo57bobo57bobo57bobo57bobo57bobo1017bobo57bobo57bobo57bobo
57bobo57bobo57bobo57bobo57bobo57bobo$2734bo59bo59bo59bo59bo59bo59bo59b
o59bo59bo59bo59bo1529bo59bo59bo59bo59bo59bo1019bo59bo59bo59bo59bo59bo
59bo59bo59bo59bo$2740b2o13bo44b2o13bo44b2o13bo44b2o13bo44b2o13bo44b2o
13bo44b2o13bo44b2o13bo44b2o13bo44b2o13bo44b2o13bo44b2o13bo1514b2o13bo
44b2o13bo44b2o13bo44b2o13bo44b2o13bo44b2o13bo1004b2o13bo44b2o13bo44b2o
13bo44b2o13bo44b2o13bo44b2o13bo44b2o13bo44b2o13bo44b2o13bo44b2o13bo$
2741bo12bo46bo12bo46bo12bo46bo12bo46bo12bo46bo12bo46bo12bo46bo12bo46bo
12bo46bo12bo46bo12bo46bo12bo1516bo12bo46bo12bo46bo12bo46bo12bo46bo12bo
46bo12bo1006bo12bo46bo12bo46bo12bo46bo12bo46bo12bo46bo12bo46bo12bo46bo
12bo46bo12bo46bo12bo$2741bobo10b3o44bobo10b3o44bobo10b3o44bobo10b3o44b
obo10b3o44bobo10b3o44bobo10b3o44bobo10b3o44bobo10b3o44bobo10b3o44bobo
10b3o44bobo10b3o1514bobo10b3o44bobo10b3o44bobo10b3o44bobo10b3o44bobo
10b3o44bobo10b3o1004bobo10b3o44bobo10b3o44bobo10b3o44bobo10b3o44bobo
10b3o44bobo10b3o44bobo10b3o44bobo10b3o44bobo10b3o44bobo10b3o$2742b2o
58b2o58b2o58b2o58b2o58b2o58b2o58b2o58b2o58b2o58b2o58b2o1528b2o58b2o58b
2o58b2o58b2o58b2o1018b2o58b2o58b2o58b2o58b2o58b2o58b2o58b2o58b2o58b2o$
2731b3o57b3o57b3o57b3o57b3o57b3o57b3o57b3o57b3o57b3o57b3o57b3o1527b3o
57b3o57b3o57b3o57b3o57b3o1017b3o57b3o57b3o57b3o57b3o57b3o57b3o57b3o57b
3o57b3o$2737bobo57bobo57bobo57bobo57bobo57bobo57bobo57bobo57bobo57bobo
57bobo57bobo1527bobo57bobo57bobo57bobo57bobo57bobo1017bobo57bobo57bobo
57bobo57bobo57bobo57bobo57bobo57bobo57bobo$2731bobo4b2o51bobo4b2o51bob
o4b2o51bobo4b2o51bobo4b2o51bobo4b2o51bobo4b2o51bobo4b2o51bobo4b2o51bob
o4b2o51bobo4b2o51bobo4b2o1521bobo4b2o51bobo4b2o51bobo4b2o51bobo4b2o51b
obo4b2o51bobo4b2o1011bobo4b2o51bobo4b2o51bobo4b2o51bobo4b2o51bobo4b2o
51bobo4b2o51bobo4b2o51bobo4b2o51bobo4b2o51bobo4b2o$2730b5o3bo51b5o3bo
51b5o3bo51b5o3bo51b5o3bo51b5o3bo51b5o3bo51b5o3bo51b5o3bo51b5o3bo51b5o
3bo51b5o3bo1521b5o3bo51b5o3bo51b5o3bo51b5o3bo51b5o3bo51b5o3bo1011b5o3b
o51b5o3bo51b5o3bo51b5o3bo51b5o3bo51b5o3bo51b5o3bo51b5o3bo51b5o3bo51b5o
3bo$2729b2o3b2o53b2o3b2o53b2o3b2o53b2o3b2o53b2o3b2o53b2o3b2o53b2o3b2o
53b2o3b2o53b2o3b2o53b2o3b2o53b2o3b2o53b2o3b2o1523b2o3b2o53b2o3b2o53b2o
3b2o53b2o3b2o53b2o3b2o53b2o3b2o1013b2o3b2o53b2o3b2o53b2o3b2o53b2o3b2o
53b2o3b2o53b2o3b2o53b2o3b2o53b2o3b2o53b2o3b2o53b2o3b2o$2729b2o3b2o53b
2o3b2o53b2o3b2o53b2o3b2o53b2o3b2o53b2o3b2o53b2o3b2o53b2o3b2o53b2o3b2o
53b2o3b2o53b2o3b2o53b2o3b2o1523b2o3b2o53b2o3b2o53b2o3b2o53b2o3b2o53b2o
3b2o53b2o3b2o1013b2o3b2o53b2o3b2o53b2o3b2o53b2o3b2o53b2o3b2o53b2o3b2o
53b2o3b2o53b2o3b2o53b2o3b2o53b2o3b2o3$2732bo12bo46bo12bo46bo12bo46bo
12bo46bo12bo46bo12bo46bo12bo46bo12bo46bo12bo46bo12bo46bo12bo46bo12bo
1516bo12bo46bo12bo46bo12bo46bo12bo46bo12bo46bo12bo1006bo12bo46bo12bo
46bo12bo46bo12bo46bo12bo46bo12bo46bo12bo46bo12bo46bo12bo46bo12bo$2730b
2o14b2o42b2o14b2o42b2o14b2o42b2o14b2o42b2o14b2o42b2o14b2o42b2o14b2o42b
2o14b2o42b2o14b2o42b2o14b2o42b2o14b2o42b2o14b2o1512b2o14b2o42b2o14b2o
42b2o14b2o42b2o14b2o42b2o14b2o42b2o14b2o1002b2o14b2o42b2o14b2o42b2o14b
2o42b2o14b2o42b2o14b2o42b2o14b2o42b2o14b2o42b2o14b2o42b2o14b2o42b2o14b
2o$2745b2o58b2o58b2o58b2o58b2o58b2o58b2o58b2o58b2o58b2o58b2o58b2o1528b
2o58b2o58b2o58b2o58b2o58b2o1018b2o58b2o58b2o58b2o58b2o58b2o58b2o58b2o
58b2o58b2o$2729bo59bo59bo59bo59bo59bo59bo59bo59bo59bo59bo59bo1529bo59b
o59bo59bo59bo59bo1019bo59bo59bo59bo59bo59bo59bo59bo59bo59bo2$2730bo2bo
56bo2bo56bo2bo56bo2bo56bo2bo56bo2bo56bo2bo56bo2bo56bo2bo56bo2bo56bo2bo
56bo2bo1526bo2bo56bo2bo56bo2bo56bo2bo56bo2bo56bo2bo1016bo2bo56bo2bo56b
o2bo56bo2bo56bo2bo56bo2bo56bo2bo56bo2bo56bo2bo56bo2bo$2732b2o24b3o31b
2o24b3o31b2o24b3o31b2o24b3o31b2o24b3o31b2o24b3o31b2o24b3o31b2o24b3o31b
2o24b3o31b2o24b3o31b2o24b3o31b2o24b3o1501b2o24b3o31b2o24b3o31b2o24b3o
31b2o24b3o31b2o24b3o31b2o24b3o991b2o24b3o31b2o24b3o31b2o24b3o31b2o24b
3o31b2o24b3o31b2o24b3o31b2o24b3o31b2o24b3o31b2o24b3o31b2o24b3o$2758bo
59bo59bo59bo59bo59bo59bo59bo59bo59bo59bo59bo1529bo59bo59bo59bo59bo59bo
1019bo59bo59bo59bo59bo59bo59bo59bo59bo59bo$2759bo59bo59bo59bo59bo59bo
59bo59bo59bo59bo59bo59bo1529bo59bo59bo59bo59bo59bo1019bo59bo59bo59bo
59bo59bo59bo59bo59bo59bo3$2746b2o8b2o48b2o8b2o48b2o8b2o48b2o8b2o48b2o
8b2o48b2o8b2o48b2o8b2o48b2o8b2o48b2o8b2o48b2o8b2o48b2o8b2o48b2o8b2o
1518b2o8b2o48b2o8b2o48b2o8b2o48b2o8b2o48b2o8b2o48b2o8b2o1008b2o8b2o48b
2o8b2o48b2o8b2o48b2o8b2o48b2o8b2o48b2o8b2o48b2o8b2o48b2o8b2o48b2o8b2o
48b2o8b2o$2745b3o8bobo46b3o8bobo46b3o8bobo46b3o8bobo46b3o8bobo46b3o8bo
bo46b3o8bobo46b3o8bobo46b3o8bobo46b3o8bobo46b3o8bobo46b3o8bobo1516b3o
8bobo46b3o8bobo46b3o8bobo46b3o8bobo46b3o8bobo46b3o8bobo1006b3o8bobo46b
3o8bobo46b3o8bobo46b3o8bobo46b3o8bobo46b3o8bobo46b3o8bobo46b3o8bobo46b
3o8bobo46b3o8bobo$2745b2obo9bo46b2obo9bo46b2obo9bo46b2obo9bo46b2obo9bo
46b2obo9bo46b2obo9bo46b2obo9bo46b2obo9bo46b2obo9bo46b2obo9bo46b2obo9bo
1516b2obo9bo46b2obo9bo46b2obo9bo46b2obo9bo46b2obo9bo46b2obo9bo1006b2ob
o9bo46b2obo9bo46b2obo9bo46b2obo9bo46b2obo9bo46b2obo9bo46b2obo9bo46b2ob
o9bo46b2obo9bo46b2obo9bo$2746b3o9b2o46b3o9b2o46b3o9b2o46b3o9b2o46b3o9b
2o46b3o9b2o46b3o9b2o46b3o9b2o46b3o9b2o46b3o9b2o46b3o9b2o46b3o9b2o1516b
3o9b2o46b3o9b2o46b3o9b2o46b3o9b2o46b3o9b2o46b3o9b2o1006b3o9b2o46b3o9b
2o46b3o9b2o46b3o9b2o46b3o9b2o46b3o9b2o46b3o9b2o46b3o9b2o46b3o9b2o46b3o
9b2o$2747bo59bo59bo59bo59bo59bo59bo59bo59bo59bo59bo59bo1529bo59bo59bo
59bo59bo59bo1019bo59bo59bo59bo59bo59bo59bo59bo59bo59bo2$2787b2o58b2o
58b2o58b2o58b2o58b2o58b2o58b2o58b2o58b2o58b2o58b2o1528b2o58b2o58b2o58b
2o58b2o58b2o1018b2o58b2o58b2o58b2o58b2o58b2o58b2o58b2o58b2o58b2o$2787b
2o58b2o58b2o58b2o58b2o58b2o58b2o58b2o58b2o58b2o58b2o58b2o1528b2o58b2o
58b2o58b2o58b2o58b2o1018b2o58b2o58b2o58b2o58b2o58b2o58b2o58b2o58b2o58b
2o3$2773b3o14bo42b3o14bo42b3o14bo42b3o14bo42b3o14bo42b3o14bo42b3o14bo
42b3o14bo42b3o14bo42b3o14bo42b3o14bo42b3o14bo1512b3o14bo42b3o14bo42b3o
14bo42b3o14bo42b3o14bo42b3o14bo1002b3o14bo42b3o14bo42b3o14bo42b3o14bo
42b3o14bo42b3o14bo42b3o14bo42b3o14bo42b3o14bo42b3o14bo$2773bo15bo43bo
15bo43bo15bo43bo15bo43bo15bo43bo15bo43bo15bo43bo15bo43bo15bo43bo15bo
43bo15bo43bo15bo1513bo15bo43bo15bo43bo15bo43bo15bo43bo15bo43bo15bo
1003bo15bo43bo15bo43bo15bo43bo15bo43bo15bo43bo15bo43bo15bo43bo15bo43bo
15bo43bo15bo$2761b2o11bo14bo31b2o11bo14bo31b2o11bo14bo31b2o11bo14bo31b
2o11bo14bo31b2o11bo14bo31b2o11bo14bo31b2o11bo14bo31b2o11bo14bo31b2o11b
o14bo31b2o11bo14bo31b2o11bo14bo1501b2o11bo14bo31b2o11bo14bo31b2o11bo
14bo31b2o11bo14bo31b2o11bo14bo31b2o11bo14bo991b2o11bo14bo31b2o11bo14bo
31b2o11bo14bo31b2o11bo14bo31b2o11bo14bo31b2o11bo14bo31b2o11bo14bo31b2o
11bo14bo31b2o11bo14bo31b2o11bo14bo$2761b2o58b2o58b2o58b2o58b2o58b2o58b
2o58b2o58b2o58b2o58b2o58b2o1528b2o58b2o58b2o58b2o58b2o58b2o1018b2o58b
2o58b2o58b2o58b2o58b2o58b2o58b2o58b2o58b2o2$2775b3o7b2o3b2o43b3o7b2o3b
2o43b3o7b2o3b2o43b3o7b2o3b2o43b3o7b2o3b2o43b3o7b2o3b2o43b3o7b2o3b2o43b
3o7b2o3b2o43b3o7b2o3b2o43b3o7b2o3b2o43b3o7b2o3b2o43b3o7b2o3b2o1513b3o
7b2o3b2o43b3o7b2o3b2o43b3o7b2o3b2o43b3o7b2o3b2o43b3o7b2o3b2o43b3o7b2o
3b2o1003b3o7b2o3b2o43b3o7b2o3b2o43b3o7b2o3b2o43b3o7b2o3b2o43b3o7b2o3b
2o43b3o7b2o3b2o43b3o7b2o3b2o43b3o7b2o3b2o43b3o7b2o3b2o43b3o7b2o3b2o$
2777bo10bo48bo10bo48bo10bo48bo10bo48bo10bo48bo10bo48bo10bo48bo10bo48bo
10bo48bo10bo48bo10bo48bo10bo1518bo10bo48bo10bo48bo10bo48bo10bo48bo10bo
48bo10bo1008bo10bo48bo10bo48bo10bo48bo10bo48bo10bo48bo10bo48bo10bo48bo
10bo48bo10bo48bo10bo$2776bo4b2o2bo5bo44bo4b2o2bo5bo44bo4b2o2bo5bo44bo
4b2o2bo5bo44bo4b2o2bo5bo44bo4b2o2bo5bo44bo4b2o2bo5bo44bo4b2o2bo5bo44bo
4b2o2bo5bo44bo4b2o2bo5bo44bo4b2o2bo5bo44bo4b2o2bo5bo1514bo4b2o2bo5bo
44bo4b2o2bo5bo44bo4b2o2bo5bo44bo4b2o2bo5bo44bo4b2o2bo5bo44bo4b2o2bo5bo
1004bo4b2o2bo5bo44bo4b2o2bo5bo44bo4b2o2bo5bo44bo4b2o2bo5bo44bo4b2o2bo
5bo44bo4b2o2bo5bo44bo4b2o2bo5bo44bo4b2o2bo5bo44bo4b2o2bo5bo44bo4b2o2bo
5bo$2781bobo2b2ob2o50bobo2b2ob2o50bobo2b2ob2o50bobo2b2ob2o50bobo2b2ob
2o50bobo2b2ob2o50bobo2b2ob2o50bobo2b2ob2o50bobo2b2ob2o50bobo2b2ob2o50b
obo2b2ob2o50bobo2b2ob2o1520bobo2b2ob2o50bobo2b2ob2o50bobo2b2ob2o50bobo
2b2ob2o50bobo2b2ob2o50bobo2b2ob2o1010bobo2b2ob2o50bobo2b2ob2o50bobo2b
2ob2o50bobo2b2ob2o50bobo2b2ob2o50bobo2b2ob2o50bobo2b2ob2o50bobo2b2ob2o
50bobo2b2ob2o50bobo2b2ob2o$2781bo5bobo51bo5bobo51bo5bobo51bo5bobo51bo
5bobo51bo5bobo51bo5bobo51bo5bobo51bo5bobo51bo5bobo51bo5bobo51bo5bobo
1521bo5bobo51bo5bobo51bo5bobo51bo5bobo51bo5bobo51bo5bobo1011bo5bobo51b
o5bobo51bo5bobo51bo5bobo51bo5bobo51bo5bobo51bo5bobo51bo5bobo51bo5bobo
51bo5bobo$2788bo59bo59bo59bo59bo59bo59bo59bo59bo59bo59bo59bo1529bo59bo
59bo59bo59bo59bo1019bo59bo59bo59bo59bo59bo59bo59bo59bo59bo$2788bo59bo
59bo59bo59bo59bo59bo59bo59bo59bo59bo59bo1529bo59bo59bo59bo59bo59bo
1019bo59bo59bo59bo59bo59bo59bo59bo59bo59bo$2768b2o58b2o58b2o58b2o58b2o
58b2o58b2o58b2o58b2o58b2o58b2o58b2o1528b2o58b2o58b2o58b2o58b2o58b2o
1018b2o58b2o58b2o58b2o58b2o58b2o58b2o58b2o58b2o58b2o$2767bobo57bobo57b
obo57bobo57bobo57bobo57bobo57bobo57bobo57bobo57bobo57bobo1527bobo57bob
o57bobo57bobo57bobo57bobo1017bobo57bobo57bobo57bobo57bobo57bobo57bobo
57bobo57bobo57bobo$2758b2o3b2o4bo48b2o3b2o4bo48b2o3b2o4bo48b2o3b2o4bo
48b2o3b2o4bo48b2o3b2o4bo48b2o3b2o4bo48b2o3b2o4bo48b2o3b2o4bo48b2o3b2o
4bo48b2o3b2o4bo48b2o3b2o4bo1518b2o3b2o4bo48b2o3b2o4bo48b2o3b2o4bo48b2o
3b2o4bo48b2o3b2o4bo48b2o3b2o4bo1008b2o3b2o4bo48b2o3b2o4bo48b2o3b2o4bo
48b2o3b2o4bo48b2o3b2o4bo48b2o3b2o4bo48b2o3b2o4bo48b2o3b2o4bo48b2o3b2o
4bo48b2o3b2o4bo$2760b3o23bo33b3o23bo33b3o23bo33b3o23bo33b3o23bo33b3o
23bo33b3o23bo33b3o23bo33b3o23bo33b3o23bo33b3o23bo33b3o23bo1503b3o23bo
33b3o23bo33b3o23bo33b3o23bo33b3o23bo33b3o23bo993b3o23bo33b3o23bo33b3o
23bo33b3o23bo33b3o23bo33b3o23bo33b3o23bo33b3o23bo33b3o23bo33b3o23bo$
2759bo3bo21b3o31bo3bo21b3o31bo3bo21b3o31bo3bo21b3o31bo3bo21b3o31bo3bo
21b3o31bo3bo21b3o31bo3bo21b3o31bo3bo21b3o31bo3bo21b3o31bo3bo21b3o31bo
3bo21b3o1501bo3bo21b3o31bo3bo21b3o31bo3bo21b3o31bo3bo21b3o31bo3bo21b3o
31bo3bo21b3o991bo3bo21b3o31bo3bo21b3o31bo3bo21b3o31bo3bo21b3o31bo3bo
21b3o31bo3bo21b3o31bo3bo21b3o31bo3bo21b3o31bo3bo21b3o31bo3bo21b3o$
2760bobo21bo3bo31bobo21bo3bo31bobo21bo3bo31bobo21bo3bo31bobo21bo3bo31b
obo21bo3bo31bobo21bo3bo31bobo21bo3bo31bobo21bo3bo31bobo21bo3bo31bobo
21bo3bo31bobo21bo3bo1501bobo21bo3bo31bobo21bo3bo31bobo21bo3bo31bobo21b
o3bo31bobo21bo3bo31bobo21bo3bo991bobo21bo3bo31bobo21bo3bo31bobo21bo3bo
31bobo21bo3bo31bobo21bo3bo31bobo21bo3bo31bobo21bo3bo31bobo21bo3bo31bob
o21bo3bo31bobo21bo3bo$2761bo21bob3obo31bo21bob3obo31bo21bob3obo31bo21b
ob3obo31bo21bob3obo31bo21bob3obo31bo21bob3obo31bo21bob3obo31bo21bob3ob
o31bo21bob3obo31bo21bob3obo31bo21bob3obo1501bo21bob3obo31bo21bob3obo
31bo21bob3obo31bo21bob3obo31bo21bob3obo31bo21bob3obo991bo21bob3obo31bo
21bob3obo31bo21bob3obo31bo21bob3obo31bo21bob3obo31bo21bob3obo31bo21bob
3obo31bo21bob3obo31bo21bob3obo31bo21bob3obo$2784b5o55b5o55b5o55b5o55b
5o55b5o55b5o55b5o55b5o55b5o55b5o55b5o1525b5o55b5o55b5o55b5o55b5o55b5o
1015b5o55b5o55b5o55b5o55b5o55b5o55b5o55b5o55b5o55b5o$2746b2o14b3o41b2o
14b3o41b2o14b3o41b2o14b3o41b2o14b3o41b2o14b3o41b2o14b3o41b2o14b3o41b2o
14b3o41b2o14b3o41b2o14b3o41b2o14b3o1511b2o14b3o41b2o14b3o41b2o14b3o41b
2o14b3o41b2o14b3o41b2o14b3o1001b2o14b3o41b2o14b3o41b2o14b3o41b2o14b3o
41b2o14b3o41b2o14b3o41b2o14b3o41b2o14b3o41b2o14b3o41b2o14b3o$2745b3o
14b3o40b3o14b3o40b3o14b3o40b3o14b3o40b3o14b3o40b3o14b3o40b3o14b3o40b3o
14b3o40b3o14b3o40b3o14b3o40b3o14b3o40b3o14b3o1510b3o14b3o40b3o14b3o40b
3o14b3o40b3o14b3o40b3o14b3o40b3o14b3o1000b3o14b3o40b3o14b3o40b3o14b3o
40b3o14b3o40b3o14b3o40b3o14b3o40b3o14b3o40b3o14b3o40b3o14b3o40b3o14b3o
$2745b2obo56b2obo56b2obo56b2obo56b2obo56b2obo56b2obo56b2obo56b2obo56b
2obo56b2obo56b2obo1526b2obo56b2obo56b2obo56b2obo56b2obo56b2obo1016b2ob
o56b2obo56b2obo56b2obo56b2obo56b2obo56b2obo56b2obo56b2obo56b2obo$2746b
3o57b3o57b3o57b3o57b3o57b3o57b3o57b3o57b3o57b3o57b3o57b3o1527b3o57b3o
57b3o57b3o57b3o57b3o1017b3o57b3o57b3o57b3o57b3o57b3o57b3o57b3o57b3o57b
3o$2747bo59bo59bo59bo59bo59bo59bo59bo59bo59bo59bo59bo1529bo59bo59bo59b
o59bo59bo1019bo59bo59bo59bo59bo59bo59bo59bo59bo59bo$2760b2o3b2o53b2o3b
2o53b2o3b2o53b2o3b2o53b2o3b2o53b2o3b2o53b2o3b2o53b2o3b2o53b2o3b2o53b2o
3b2o53b2o3b2o53b2o3b2o1523b2o3b2o53b2o3b2o53b2o3b2o53b2o3b2o53b2o3b2o
53b2o3b2o1013b2o3b2o53b2o3b2o53b2o3b2o53b2o3b2o53b2o3b2o53b2o3b2o53b2o
3b2o53b2o3b2o53b2o3b2o53b2o3b2o$2761b5o55b5o55b5o55b5o55b5o55b5o55b5o
55b5o55b5o55b5o55b5o55b5o1525b5o55b5o55b5o55b5o55b5o55b5o1015b5o55b5o
55b5o55b5o55b5o55b5o55b5o55b5o55b5o55b5o$2762b3o57b3o57b3o57b3o57b3o
57b3o57b3o57b3o57b3o57b3o57b3o57b3o1527b3o57b3o57b3o57b3o57b3o57b3o
1017b3o57b3o57b3o57b3o57b3o57b3o57b3o57b3o57b3o57b3o$2763bo59bo59bo59b
o59bo59bo59bo59bo59bo59bo59bo59bo1529bo59bo59bo59bo59bo59bo1019bo59bo
59bo59bo59bo59bo59bo59bo59bo59bo2$2785b2o58b2o58b2o58b2o58b2o58b2o58b
2o58b2o58b2o58b2o58b2o58b2o1528b2o58b2o58b2o58b2o58b2o58b2o1018b2o58b
2o58b2o58b2o58b2o58b2o58b2o58b2o58b2o58b2o$2785b2o58b2o58b2o58b2o58b2o
58b2o58b2o58b2o58b2o58b2o58b2o58b2o1528b2o58b2o58b2o58b2o58b2o58b2o
1018b2o58b2o58b2o58b2o58b2o58b2o58b2o58b2o58b2o58b2o5$2763b2o58b2o58b
2o58b2o58b2o58b2o58b2o58b2o58b2o58b2o58b2o58b2o1528b2o58b2o58b2o58b2o
58b2o58b2o1018b2o58b2o58b2o58b2o58b2o58b2o58b2o58b2o58b2o58b2o$2763b2o
58b2o58b2o58b2o58b2o58b2o58b2o58b2o58b2o58b2o58b2o58b2o1528b2o58b2o58b
2o58b2o58b2o58b2o1018b2o58b2o58b2o58b2o58b2o58b2o58b2o58b2o58b2o58b2o$
2729b2o2b2o54b2o2b2o114b2o2b2o54b2o2b2o114b2o2b2o54b2o2b2o54b2o2b2o54b
2o2b2o54b2o2b2o1584b2o2b2o54b2o2b2o54b2o2b2o54b2o2b2o1134b2o2b2o53b2o
2b2o55b2o2b2o114b2o2b2o54b2o2b2o54b2o2b2o54b2o2b2o54b2o2b2o$2729b2o2b
2o54b2o2b2o114b2o2b2o54b2o2b2o114b2o2b2o54b2o2b2o54b2o2b2o54b2o2b2o54b
2o2b2o1584b2o2b2o54b2o2b2o54b2o2b2o54b2o2b2o1134b2o2b2o53b2o2b2o55b2o
2b2o114b2o2b2o54b2o2b2o54b2o2b2o54b2o2b2o54b2o2b2o$2721b2o14b2o46b2o
54b2o14b2o46b2o54b2o2b2o10b2o46b2o10b2o46b2o10b2o58b2o46b2o10b2o58b2o
58b2o58b2o1516b2o10b2o58b2o46b2o70b2o46b2o10b2o58b2o1006b2o10b2o45b2o
59b2o10b2o46b2o10b2o46b2o10b2o58b2o58b2o58b2o46b2o70b2o$2721b2o14b2o
46b2o54b2o14b2o46b2o54b2o2b2o10b2o46b2o10b2o46b2o10b2o58b2o46b2o10b2o
58b2o58b2o58b2o1516b2o10b2o58b2o46b2o70b2o46b2o10b2o58b2o1006b2o10b2o
45b2o59b2o10b2o46b2o10b2o46b2o10b2o58b2o58b2o58b2o46b2o70b2o3$2721b2o
14b2o46b2o54b2o14b2o46b2o54b2o2b2o10b2o46b2o10b2o46b2o10b2o58b2o46b2o
10b2o58b2o58b2o58b2o1516b2o10b2o58b2o46b2o70b2o46b2o10b2o58b2o1006b2o
10b2o45b2o59b2o10b2o46b2o10b2o46b2o10b2o58b2o58b2o58b2o46b2o70b2o$
2721b2o14b2o46b2o54b2o14b2o46b2o54b2o2b2o10b2o46b2o10b2o46b2o10b2o58b
2o46b2o10b2o58b2o58b2o58b2o1516b2o10b2o58b2o46b2o70b2o46b2o10b2o58b2o
1006b2o10b2o45b2o59b2o10b2o46b2o10b2o46b2o10b2o58b2o58b2o58b2o46b2o70b
2o$2729b2o2b2o54b2o2b2o114b2o2b2o114b2o2b2o54b2o2b2o54b2o2b2o54b2o2b2o
54b2o2b2o1704b2o2b2o54b2o2b2o54b2o2b2o54b2o2b2o1133b2o2b2o55b2o2b2o54b
2o2b2o54b2o2b2o54b2o2b2o114b2o2b2o54b2o2b2o$2729b2o2b2o54b2o2b2o114b2o
2b2o114b2o2b2o54b2o2b2o54b2o2b2o54b2o2b2o54b2o2b2o1704b2o2b2o54b2o2b2o
54b2o2b2o54b2o2b2o1133b2o2b2o55b2o2b2o54b2o2b2o54b2o2b2o54b2o2b2o114b
2o2b2o54b2o2b2o$2323bo397b2o2b2o58b2o10b2o42b2o14b2o58b2o42b2o2b2o10b
2o58b2o58b2o58b2o46b2o10b2o46b2o70b2o58b2o1516b2o10b2o58b2o58b2o46b2o
70b2o58b2o1006b2o10b2o57b2o59b2o58b2o46b2o10b2o58b2o58b2o46b2o58b2o10b
2o58b2o$2323b3o395b2o2b2o58b2o10b2o42b2o14b2o58b2o42b2o2b2o10b2o58b2o
58b2o58b2o46b2o10b2o46b2o70b2o58b2o1516b2o10b2o58b2o58b2o46b2o70b2o58b
2o1006b2o10b2o57b2o59b2o58b2o46b2o10b2o58b2o58b2o46b2o58b2o10b2o58b2o$
2326bo419b2o58b2o58b2o58b2o58b2o58b2o58b2o58b2o58b2o58b2o58b2o58b2o
1528b2o58b2o58b2o58b2o58b2o58b2o1018b2o58b2o58b2o58b2o58b2o58b2o58b2o
58b2o58b2o58b2o$2325b2o418b3o57b3o57b3o57b3o57b3o57b3o57b3o57b3o57b3o
57b3o57b3o57b3o1527b3o57b3o57b3o57b3o57b3o57b3o1017b3o57b3o57b3o57b3o
57b3o57b3o57b3o57b3o57b3o57b3o$2721b2o2b2o18b2obo36b2o10b2o6b2obo32b2o
14b2o6b2obo48b2o6b2obo32b2o2b2o10b2o6b2obo48b2o6b2obo48b2o6b2obo48b2o
6b2obo36b2o10b2o6b2obo36b2o18b2obo48b2o6b2obo48b2o6b2obo1506b2o10b2o6b
2obo48b2o6b2obo48b2o6b2obo36b2o18b2obo48b2o6b2obo48b2o6b2obo996b2o10b
2o6b2obo47b2o7b2obo48b2o6b2obo48b2o6b2obo36b2o10b2o6b2obo48b2o6b2obo
48b2o6b2obo36b2o18b2obo36b2o10b2o6b2obo48b2o6b2obo$2721b2o2b2o19b3o36b
2o10b2o7b3o32b2o14b2o7b3o48b2o7b3o32b2o2b2o10b2o7b3o48b2o7b3o48b2o7b3o
48b2o7b3o36b2o10b2o7b3o36b2o19b3o48b2o7b3o48b2o7b3o1506b2o10b2o7b3o48b
2o7b3o48b2o7b3o36b2o19b3o48b2o7b3o48b2o7b3o996b2o10b2o7b3o47b2o8b3o48b
2o7b3o48b2o7b3o36b2o10b2o7b3o48b2o7b3o48b2o7b3o36b2o19b3o36b2o10b2o7b
3o48b2o7b3o$2729b2o2b2o12bo41b2o2b2o12bo59bo41b2o2b2o12bo41b2o2b2o12bo
59bo41b2o2b2o12bo41b2o2b2o12bo41b2o2b2o12bo41b2o2b2o12bo59bo59bo1511b
2o2b2o12bo41b2o2b2o12bo41b2o2b2o12bo41b2o2b2o12bo59bo59bo1001b2o2b2o
12bo40b2o2b2o13bo41b2o2b2o12bo59bo41b2o2b2o12bo41b2o2b2o12bo59bo41b2o
2b2o12bo41b2o2b2o12bo59bo$2729b2o2b2o54b2o2b2o114b2o2b2o54b2o2b2o114b
2o2b2o54b2o2b2o54b2o2b2o54b2o2b2o1644b2o2b2o54b2o2b2o54b2o2b2o54b2o2b
2o1134b2o2b2o53b2o2b2o55b2o2b2o114b2o2b2o54b2o2b2o114b2o2b2o54b2o2b2o
2$2325b2obob2o$2325bo5bo$2307b2o17bo3bo$2308bo18b3o$2308bobo4bo$2309b
2o3bobo$2312b2o3bo$2312b2o3bo$2312b2o3bo$2314bobo$2315bo23b2o670b2o
418b2o$2340bo670b2o418b2o$2329b2o9bobo7b2o656b2o10bo4bo402b2o10bo4bo$
2328b3o10b2o6bobo655b3o10bo4bobo399b3o10bo4bobo$2328b2obo16b3o12bo644b
2o10bo7b2o398b2o10bo7b2o$2329b3o15b3o8b2o3b4o635b2o7b2o2b2o11b2o392b2o
7b2o2b2o11b2o$2330bo17b3o8b2o3b4o633bobo7b2o2bo2b2o8b2o391bobo7b2o2bo
2b2o8b2o$2349bobo2b2obob2o3bo2bo633bo14b4o5bobo4b2o387bo14b4o5bobo4b2o
$2350b2o2b2obobo4b4o632b2o15bo7bo6bobo385b2o15bo7bo6bobo$2356b2obo3b4o
4b2o661bo419bo$2363bo7bobo636b2o22b2o394b2o22b2o$2343b2o28bo636b2o418b
2o$2342b2o29b2o639bo419bo$2344bo4bo396b2o58b2o58b2o58b2o58b2o25b2o31b
2o58b2o58b2o58b2o58b2o58b2o58b2o25b2o1501b2o58b2o58b2o58b2o58b2o58b2o
1018b2o58b2o58b2o58b2o58b2o58b2o58b2o58b2o58b2o58b2o$2347b2o396b3o57b
3o57b3o57b3o57b3o25bobo21b2o6b3o57b3o57b3o57b3o57b3o57b3o57b3o25bobo
21b2o1476b3o57b3o57b3o57b3o57b3o57b3o1017b3o57b3o57b3o57b3o57b3o57b3o
57b3o57b3o57b3o57b3o$2348b2o395b2obo56b2obo56b2obo56b2obo56b2obo48bo7b
2obo56b2obo56b2obo56b2obo56b2obo56b2obo56b2obo48bo1477b2obo56b2obo56b
2obo56b2obo56b2obo56b2obo1016b2obo56b2obo56b2obo56b2obo56b2obo56b2obo
56b2obo56b2obo56b2obo56b2obo$2370b2o374b3o57b3o57b3o57b3o57b3o37b2o7bo
bo8b3o57b3o57b3o57b3o57b3o57b3o57b3o37b2o7bobo1478b3o57b3o57b3o57b3o
57b3o57b3o1017b3o57b3o57b3o57b3o57b3o57b3o57b3o57b3o57b3o57b3o$2370bo
376bo59bo59bo59bo59bo38bobo6b2o10bo59bo59bo59bo59bo59bo59bo38bobo6b2o
1480bo59bo59bo59bo59bo59bo1019bo59bo59bo59bo59bo59bo59bo59bo59bo59bo$
2336b2o13bo10bo5bobo645bo4b2o6bo406bo4b2o6bo152b2o10b2o$2337bo12b2o9b
2o5b2o632bo12bobo2bo2bo2bo2bo392bo12bobo2bo2bo2bo2bo152b2o10b2o$2337bo
bo5bo4bobo7b2o638b2o13b2obob3o6bo390b2o13b2obob3o6bo127b2o$2338b2o3bob
o13b3o639b2o12b2ob2o6bobo392b2o12b2ob2o6bobo128b2o$2342bobo15b2o3b2o
648b2obo7b2o407b2obo7b2o96bobo55b2o10b2o$2341bo2bo16b2o642b2o8bobo407b
2o8bobo104bo3bo55b2o10b2o$2342bobo17bo641bobo9bo407bobo9bo105bo19bo14b
2o$2343bobo658bo419bo110b2o4bo4bo14b4o12b2o$2345bo657b2o418b2o110b2o5b
o12bo4b2obobo36b2o2b2o2b2o2b2o$3542bo3bo3bob2o5b3obo2bo2b2o31b2o2b2o2b
2o2b2o$3544bobo2bob4o5b2obobo3b2o6b2o$3549b2o2b2o6b4o12b2o$3562bo39b2o
10b2o$2357b2o28b2o28b2o28b2o28b2o28b2o28b2o28b2o28b2o28b2o28b2o28b2o
28b2o28b2o28b2o28b2o28b2o28b2o28b2o28b2o28b2o28b2o28b2o28b2o28b2o28b2o
28b2o28b2o28b2o28b2o28b2o28b2o28b2o28b2o28b2o28b2o28b2o28b2o28b2o28b2o
73b2o10b2o$2356b4o26b4o26b4o26b4o26b4o26b4o26b4o26b4o26b4o26b4o26b4o
26b4o26b4o26b4o26b4o26b4o26b4o26b4o26b4o26b4o26b4o26b4o26b4o26b4o26b4o
26b4o26b4o26b4o26b4o26b4o26b4o26b4o26b4o26b4o26b4o26b4o26b4o26b4o26b4o
26b4o11b2o34b2o$2355b2ob2o25b2ob2o25b2ob2o25b2ob2o25b2ob2o25b2ob2o25b
2ob2o25b2ob2o25b2ob2o25b2ob2o25b2ob2o25b2ob2o25b2ob2o25b2ob2o25b2ob2o
25b2ob2o25b2ob2o25b2ob2o25b2ob2o25b2ob2o25b2ob2o25b2ob2o25b2ob2o25b2ob
2o25b2ob2o25b2ob2o25b2ob2o25b2ob2o25b2ob2o25b2ob2o25b2ob2o25b2ob2o25b
2ob2o25b2ob2o25b2ob2o25b2ob2o25b2ob2o25b2ob2o25b2ob2o25b2ob2o10b2ob2o
32b2o$2356b2o28b2o28b2o28b2o28b2o28b2o28b2o28b2o28b2o28b2o28b2o28b2o
28b2o28b2o28b2o28b2o28b2o28b2o28b2o28b2o28b2o28b2o28b2o28b2o28b2o28b2o
28b2o28b2o28b2o28b2o28b2o28b2o28b2o28b2o28b2o28b2o28b2o28b2o28b2o28b2o
13b4o57b2o10b2o$3542b2o58b2o10b2o$3554b2o$3529bo24bobo$3524b2obo3bob2o
19bo$3524bo9bo$2741b2o58b2o58b2o58b2o58b2o58b2o58b2o58b2o58b2o58b2o58b
2o58b2o122b2o5b2o11b2o$2353bo388bo59bo59bo59bo59bo59bo59bo59bo59bo59bo
59bo59bo119b3o2b5o2b3o7bobo636bo1529bo$2353b3o383b3o57b3o57b3o57b3o57b
3o57b3o57b3o57b3o57b3o57b3o57b3o57b3o120bo2bo7bo2bo9bo636b3o1527b3o$
2356bo382bo6b2o51bo6b2o51bo6b2o51bo6b2o51bo6b2o51bo6b2o51bo6b2o51bo6b
2o51bo6b2o51bo6b2o51bo6b2o51bo6b2o115b2o9b2o37b2o611bo749b2o58b2o58b2o
58b2o58b2o58b2o478bo539b2o58b2o58b2o58b2o58b2o58b2o58b2o58b2o58b2o58b
2o$2355b2o388b3o57b3o57b3o57b3o57b3o57b3o57b3o57b3o57b3o57b3o57b3o57b
3o153b3o2bo5bo3bo608b2o748b3o57b3o57b3o57b3o57b3o57b3o477b2o538b3o57b
3o57b3o57b3o57b3o57b3o57b3o57b3o57b3o57b3o$2745b2obo56b2obo56b2obo56b
2obo56b2obo56b2obo56b2obo56b2obo56b2obo56b2obo56b2obo56b2obo148bo3bo9b
o5bo3b2o1352b2obo56b2obo56b2obo56b2obo56b2obo56b2obo1016b2obo56b2obo
56b2obo56b2obo56b2obo56b2obo56b2obo56b2obo56b2obo56b2obo$2746b3o57b3o
57b3o57b3o57b3o57b3o57b3o57b3o57b3o57b3o57b3o57b3o119bo8b2o16bobo4bo8b
o3bob2o2b2o1353b3o57b3o57b3o57b3o57b3o57b3o1017b3o57b3o57b3o57b3o57b3o
57b3o57b3o57b3o57b3o57b3o$2747bo59bo59bo59bo59bo59bo59bo59bo59bo59bo
59bo59bo118bobo6bo2bo14b2o16bo5bo1359bo59bo59bo59bo59bo59bo1019bo59bo
59bo59bo59bo59bo59bo59bo59bo59bo$3519b2o4bobo7bo3bo2b2o9b2o17bo3bo$
3519b2o3bo2bo7bo2b2o2b3o8b2o18b2o$2355b2obob2o1163bobo16b2obo7bobo627b
2obob2o1523b2obob2o$2355bo5bo1164bobo4b3o8bo2bo9bo627bo5bo1523bo5bo$
2337b2o17bo3bo1167bo15b2obo619b2o17bo3bo1506b2o17bo3bo$2338bo18b3o
1182b3o623bo18b3o1508bo18b3o$2338bobo4bo1196b2o624bobo4bo1522bobo4bo$
2339b2o3bobo1822b2o3bobo1522b2o3bobo$2342b2o3bo1824b2o3bo1524b2o3bo$
2342b2o3bo1824b2o3bo1524b2o3bo$2342b2o3bo1824b2o3bo1524b2o3bo$2344bobo
1827bobo1527bobo$2345bo23b2o400b2o118b2o58b2o118b2o178b2o58b2o58b2o58b
2o742bo23b2o880b2o58b2o58b2o58b2o442bo23b2o610b2o118b2o58b2o118b2o58b
2o118b2o$2370bo400b2o118b2o58b2o118b2o178b2o58b2o58b2o58b2o767bo880b2o
58b2o58b2o58b2o467bo610b2o118b2o58b2o118b2o58b2o118b2o$2359b2o9bobo7b
2o386b2o10bo4bo102b2o10bo4bo42b2o10bo4bo102b2o10bo4bo162b2o10bo4bo42b
2o10bo4bo42b2o10bo4bo42b2o10bo4bo743b2o9bobo7b2o866b2o10bo4bo42b2o10bo
4bo42b2o10bo4bo42b2o10bo4bo443b2o9bobo7b2o596b2o10bo4bo102b2o10bo4bo
42b2o10bo4bo102b2o10bo4bo42b2o10bo4bo102b2o10bo4bo$2358b3o10b2o6bobo
385b3o10bo4bobo99b3o10bo4bobo39b3o10bo4bobo99b3o10bo4bobo159b3o10bo4bo
bo39b3o10bo4bobo39b3o10bo4bobo39b3o10bo4bobo740b3o10b2o6bobo865b3o10bo
4bobo39b3o10bo4bobo39b3o10bo4bobo39b3o10bo4bobo440b3o10b2o6bobo595b3o
10bo4bobo99b3o10bo4bobo39b3o10bo4bobo99b3o10bo4bobo39b3o10bo4bobo99b3o
10bo4bobo$2358b2obo16b3o12bo374b2o10bo7b2o98b2o10bo7b2o38b2o10bo7b2o
98b2o10bo7b2o158b2o10bo7b2o38b2o10bo7b2o38b2o10bo7b2o38b2o10bo7b2o738b
2obo16b3o12bo854b2o10bo7b2o38b2o10bo7b2o38b2o10bo7b2o38b2o10bo7b2o438b
2obo16b3o12bo584b2o10bo7b2o98b2o10bo7b2o38b2o10bo7b2o98b2o10bo7b2o38b
2o10bo7b2o98b2o10bo7b2o$2359b3o15b3o8b2o3b4o365b2o7b2o2b2o11b2o92b2o7b
2o2b2o11b2o32b2o7b2o2b2o11b2o92b2o7b2o2b2o11b2o152b2o7b2o2b2o11b2o32b
2o7b2o2b2o11b2o32b2o7b2o2b2o11b2o32b2o7b2o2b2o11b2o739b3o15b3o8b2o3b4o
845b2o7b2o2b2o11b2o32b2o7b2o2b2o11b2o32b2o7b2o2b2o11b2o32b2o7b2o2b2o
11b2o439b3o15b3o8b2o3b4o575b2o7b2o2b2o11b2o92b2o7b2o2b2o11b2o32b2o7b2o
2b2o11b2o92b2o7b2o2b2o11b2o32b2o7b2o2b2o11b2o92b2o7b2o2b2o11b2o$2360bo
17b3o8b2o3b4o363bobo7b2o2bo2b2o8b2o91bobo7b2o2bo2b2o8b2o31bobo7b2o2bo
2b2o8b2o91bobo7b2o2bo2b2o8b2o151bobo7b2o2bo2b2o8b2o31bobo7b2o2bo2b2o8b
2o31bobo7b2o2bo2b2o8b2o31bobo7b2o2bo2b2o8b2o740bo17b3o8b2o3b4o843bobo
7b2o2bo2b2o8b2o31bobo7b2o2bo2b2o8b2o31bobo7b2o2bo2b2o8b2o31bobo7b2o2bo
2b2o8b2o440bo17b3o8b2o3b4o573bobo7b2o2bo2b2o8b2o91bobo7b2o2bo2b2o8b2o
31bobo7b2o2bo2b2o8b2o91bobo7b2o2bo2b2o8b2o31bobo7b2o2bo2b2o8b2o91bobo
7b2o2bo2b2o8b2o$2379bobo2b2obob2o3bo2bo363bo14b4o5bobo4b2o87bo14b4o5bo
bo4b2o27bo14b4o5bobo4b2o87bo14b4o5bobo4b2o147bo14b4o5bobo4b2o27bo14b4o
5bobo4b2o27bo14b4o5bobo4b2o27bo14b4o5bobo4b2o755bobo2b2obob2o3bo2bo
843bo14b4o5bobo4b2o27bo14b4o5bobo4b2o27bo14b4o5bobo4b2o27bo14b4o5bobo
4b2o455bobo2b2obob2o3bo2bo573bo14b4o5bobo4b2o87bo14b4o5bobo4b2o27bo14b
4o5bobo4b2o87bo14b4o5bobo4b2o27bo14b4o5bobo4b2o87bo14b4o5bobo4b2o$
2380b2o2b2obobo4b4o362b2o15bo7bo6bobo85b2o15bo7bo6bobo25b2o15bo7bo6bob
o85b2o15bo7bo6bobo145b2o15bo7bo6bobo25b2o15bo7bo6bobo25b2o15bo7bo6bobo
25b2o15bo7bo6bobo755b2o2b2obobo4b4o842b2o15bo7bo6bobo25b2o15bo7bo6bobo
25b2o15bo7bo6bobo25b2o15bo7bo6bobo455b2o2b2obobo4b4o572b2o15bo7bo6bobo
85b2o15bo7bo6bobo25b2o15bo7bo6bobo85b2o15bo7bo6bobo25b2o15bo7bo6bobo
85b2o15bo7bo6bobo$2386b2obo3b4o4b2o391bo119bo59bo119bo179bo59bo59bo59b
o761b2obo3b4o4b2o871bo59bo59bo59bo461b2obo3b4o4b2o601bo119bo59bo119bo
59bo119bo$2393bo7bobo366b2o22b2o94b2o22b2o34b2o22b2o94b2o22b2o154b2o
22b2o34b2o22b2o34b2o22b2o34b2o22b2o767bo7bobo846b2o22b2o34b2o22b2o34b
2o22b2o34b2o22b2o467bo7bobo576b2o22b2o94b2o22b2o34b2o22b2o94b2o22b2o
34b2o22b2o94b2o22b2o$2373b2o28bo366b2o118b2o58b2o118b2o178b2o58b2o58b
2o58b2o771b2o28bo846b2o58b2o58b2o58b2o471b2o28bo576b2o118b2o58b2o118b
2o58b2o118b2o$2372b2o29b2o369bo119bo59bo119bo179bo59bo59bo59bo767b2o
29b2o849bo59bo59bo59bo467b2o29b2o579bo119bo59bo119bo59bo119bo$2374bo4b
o366b2o25b2o31b2o58b2o25b2o31b2o25b2o31b2o58b2o25b2o31b2o58b2o58b2o25b
2o31b2o25b2o31b2o25b2o31b2o25b2o769bo4bo726b2o58b2o58b2o25b2o31b2o25b
2o31b2o25b2o31b2o25b2o469bo4bo516b2o58b2o25b2o31b2o58b2o25b2o31b2o25b
2o31b2o58b2o25b2o31b2o25b2o31b2o58b2o25b2o$2377b2o366b3o25bobo21b2o6b
3o57b3o25bobo21b2o6b3o25bobo21b2o6b3o57b3o25bobo21b2o6b3o57b3o57b3o25b
obo21b2o6b3o25bobo21b2o6b3o25bobo21b2o6b3o25bobo21b2o748b2o726b3o57b3o
57b3o25bobo21b2o6b3o25bobo21b2o6b3o25bobo21b2o6b3o25bobo21b2o448b2o
516b3o57b3o25bobo21b2o6b3o57b3o25bobo21b2o6b3o25bobo21b2o6b3o57b3o25bo
bo21b2o6b3o25bobo21b2o6b3o57b3o25bobo21b2o$2378b2o365b2obo48bo7b2obo
56b2obo48bo7b2obo48bo7b2obo56b2obo48bo7b2obo56b2obo56b2obo48bo7b2obo
48bo7b2obo48bo7b2obo48bo750b2o725b2obo56b2obo56b2obo48bo7b2obo48bo7b2o
bo48bo7b2obo48bo450b2o515b2obo56b2obo48bo7b2obo56b2obo48bo7b2obo48bo7b
2obo56b2obo48bo7b2obo48bo7b2obo56b2obo48bo$2400b2o344b3o37b2o7bobo8b3o
57b3o37b2o7bobo8b3o37b2o7bobo8b3o57b3o37b2o7bobo8b3o57b3o57b3o37b2o7bo
bo8b3o37b2o7bobo8b3o37b2o7bobo8b3o37b2o7bobo772b2o704b3o57b3o57b3o37b
2o7bobo8b3o37b2o7bobo8b3o37b2o7bobo8b3o37b2o7bobo472b2o494b3o57b3o37b
2o7bobo8b3o57b3o37b2o7bobo8b3o37b2o7bobo8b3o57b3o37b2o7bobo8b3o37b2o7b
obo8b3o57b3o37b2o7bobo$2400bo346bo38bobo6b2o10bo59bo38bobo6b2o10bo38bo
bo6b2o10bo59bo38bobo6b2o10bo59bo59bo38bobo6b2o10bo38bobo6b2o10bo38bobo
6b2o10bo38bobo6b2o773bo706bo59bo59bo38bobo6b2o10bo38bobo6b2o10bo38bobo
6b2o10bo38bobo6b2o473bo496bo59bo38bobo6b2o10bo59bo38bobo6b2o10bo38bobo
6b2o10bo59bo38bobo6b2o10bo38bobo6b2o10bo59bo38bobo6b2o$2366b2o13bo10bo
5bobo375bo4b2o6bo106bo4b2o6bo46bo4b2o6bo106bo4b2o6bo166bo4b2o6bo46bo4b
2o6bo46bo4b2o6bo46bo4b2o6bo152b2o2b2o2b2o584b2o13bo10bo5bobo855bo4b2o
6bo46bo4b2o6bo46bo4b2o6bo46bo4b2o6bo152b2o2b2o2b2o284b2o13bo10bo5bobo
585bo4b2o6bo106bo4b2o6bo46bo4b2o6bo106bo4b2o6bo46bo4b2o6bo106bo4b2o6bo
152b2o2b2o2b2o$2367bo12b2o9b2o5b2o362bo12bobo2bo2bo2bo2bo92bo12bobo2bo
2bo2bo2bo32bo12bobo2bo2bo2bo2bo92bo12bobo2bo2bo2bo2bo152bo12bobo2bo2bo
2bo2bo32bo12bobo2bo2bo2bo2bo32bo12bobo2bo2bo2bo2bo32bo12bobo2bo2bo2bo
2bo152b2o2b2o2b2o585bo12b2o9b2o5b2o842bo12bobo2bo2bo2bo2bo32bo12bobo2b
o2bo2bo2bo32bo12bobo2bo2bo2bo2bo32bo12bobo2bo2bo2bo2bo152b2o2b2o2b2o
285bo12b2o9b2o5b2o572bo12bobo2bo2bo2bo2bo92bo12bobo2bo2bo2bo2bo32bo12b
obo2bo2bo2bo2bo92bo12bobo2bo2bo2bo2bo32bo12bobo2bo2bo2bo2bo92bo12bobo
2bo2bo2bo2bo152b2o2b2o2b2o$2367bobo5bo4bobo7b2o368b2o13b2obob3o6bo90b
2o13b2obob3o6bo30b2o13b2obob3o6bo90b2o13b2obob3o6bo150b2o13b2obob3o6bo
30b2o13b2obob3o6bo30b2o13b2obob3o6bo30b2o13b2obob3o6bo164b2o581bobo5bo
4bobo7b2o848b2o13b2obob3o6bo30b2o13b2obob3o6bo30b2o13b2obob3o6bo30b2o
13b2obob3o6bo164b2o281bobo5bo4bobo7b2o578b2o13b2obob3o6bo90b2o13b2obob
3o6bo30b2o13b2obob3o6bo90b2o13b2obob3o6bo30b2o13b2obob3o6bo90b2o13b2ob
ob3o6bo164b2o$2368b2o3bobo13b3o369b2o12b2ob2o6bobo92b2o12b2ob2o6bobo
32b2o12b2ob2o6bobo92b2o12b2ob2o6bobo152b2o12b2ob2o6bobo32b2o12b2ob2o6b
obo32b2o12b2ob2o6bobo32b2o12b2ob2o6bobo165b2o582b2o3bobo13b3o849b2o12b
2ob2o6bobo32b2o12b2ob2o6bobo32b2o12b2ob2o6bobo32b2o12b2ob2o6bobo165b2o
282b2o3bobo13b3o579b2o12b2ob2o6bobo92b2o12b2ob2o6bobo32b2o12b2ob2o6bob
o92b2o12b2ob2o6bobo32b2o12b2ob2o6bobo92b2o12b2ob2o6bobo165b2o$2372bobo
15b2o3b2o378b2obo7b2o107b2obo7b2o47b2obo7b2o107b2obo7b2o167b2obo7b2o
47b2obo7b2o47b2obo7b2o47b2obo7b2o96bobo55b2o598bobo15b2o3b2o858b2obo7b
2o47b2obo7b2o47b2obo7b2o47b2obo7b2o96bobo55b2o298bobo15b2o3b2o588b2obo
7b2o107b2obo7b2o47b2obo7b2o107b2obo7b2o47b2obo7b2o107b2obo7b2o96bobo
55b2o$2371bo2bo16b2o372b2o8bobo107b2o8bobo47b2o8bobo107b2o8bobo167b2o
8bobo47b2o8bobo47b2o8bobo47b2o8bobo104bo3bo55b2o597bo2bo16b2o852b2o8bo
bo47b2o8bobo47b2o8bobo47b2o8bobo104bo3bo55b2o297bo2bo16b2o582b2o8bobo
107b2o8bobo47b2o8bobo107b2o8bobo47b2o8bobo107b2o8bobo104bo3bo55b2o$
2372bobo17bo371bobo9bo107bobo9bo47bobo9bo107bobo9bo167bobo9bo47bobo9bo
47bobo9bo47bobo9bo105bo19bo51b2o586bobo17bo851bobo9bo47bobo9bo47bobo9b
o47bobo9bo105bo19bo51b2o286bobo17bo581bobo9bo107bobo9bo47bobo9bo107bob
o9bo47bobo9bo107bobo9bo105bo19bo51b2o$2373bobo388bo119bo59bo119bo179bo
59bo59bo59bo110b2o4bo4bo14b4o49b2o587bobo868bo59bo59bo59bo110b2o4bo4bo
14b4o49b2o287bobo598bo119bo59bo119bo59bo119bo110b2o4bo4bo14b4o49b2o$
2375bo387b2o118b2o58b2o118b2o178b2o58b2o58b2o58b2o110b2o5bo12bo4b2obob
o36b2o601bo867b2o58b2o58b2o58b2o110b2o5bo12bo4b2obobo36b2o301bo597b2o
118b2o58b2o118b2o58b2o118b2o110b2o5bo12bo4b2obobo36b2o$3542bo3bo3bob2o
5b3obo2bo2b2o31b2o1768bo3bo3bob2o5b3obo2bo2b2o31b2o1498bo3bo3bob2o5b3o
bo2bo2b2o31b2o$3544bobo2bob4o5b2obobo3b2o43b2o1758bobo2bob4o5b2obobo3b
2o43b2o1488bobo2bob4o5b2obobo3b2o43b2o$3549b2o2b2o6b4o49b2o1763b2o2b2o
6b4o49b2o1493b2o2b2o6b4o49b2o$3562bo39b2o1788bo39b2o1518bo39b2o$2387b
2o28b2o28b2o28b2o28b2o28b2o28b2o28b2o28b2o28b2o28b2o28b2o28b2o28b2o28b
2o28b2o28b2o28b2o28b2o28b2o28b2o28b2o28b2o28b2o28b2o28b2o28b2o28b2o28b
2o28b2o28b2o28b2o28b2o28b2o28b2o28b2o28b2o28b2o28b2o73b2o613b2o28b2o
28b2o28b2o28b2o28b2o28b2o28b2o28b2o28b2o28b2o28b2o28b2o28b2o28b2o28b2o
28b2o28b2o28b2o28b2o28b2o28b2o28b2o28b2o28b2o28b2o28b2o28b2o28b2o28b2o
28b2o28b2o28b2o28b2o28b2o28b2o28b2o28b2o28b2o73b2o313b2o28b2o28b2o28b
2o28b2o28b2o28b2o28b2o28b2o28b2o28b2o28b2o28b2o28b2o28b2o28b2o28b2o28b
2o28b2o28b2o28b2o28b2o28b2o28b2o28b2o28b2o28b2o28b2o28b2o28b2o28b2o28b
2o28b2o28b2o28b2o28b2o28b2o28b2o28b2o28b2o73b2o$2386b4o26b4o26b4o26b4o
26b4o26b4o26b4o26b4o26b4o26b4o26b4o26b4o26b4o26b4o26b4o26b4o26b4o26b4o
26b4o26b4o26b4o26b4o26b4o26b4o26b4o26b4o26b4o26b4o26b4o26b4o26b4o26b4o
26b4o26b4o26b4o26b4o26b4o26b4o26b4o11b2o71b2o600b4o26b4o26b4o26b4o26b
4o26b4o26b4o26b4o26b4o26b4o26b4o26b4o26b4o26b4o26b4o26b4o26b4o26b4o26b
4o26b4o26b4o26b4o26b4o26b4o26b4o26b4o26b4o26b4o26b4o26b4o26b4o26b4o26b
4o26b4o26b4o26b4o26b4o26b4o26b4o11b2o71b2o300b4o26b4o26b4o26b4o26b4o
26b4o26b4o26b4o26b4o26b4o26b4o26b4o26b4o26b4o26b4o26b4o26b4o26b4o26b4o
26b4o26b4o26b4o26b4o26b4o26b4o26b4o26b4o26b4o26b4o26b4o26b4o26b4o26b4o
26b4o26b4o26b4o26b4o26b4o26b4o26b4o11b2o71b2o$2385b2ob2o25b2ob2o25b2ob
2o25b2ob2o25b2ob2o25b2ob2o25b2ob2o25b2ob2o25b2ob2o25b2ob2o25b2ob2o25b
2ob2o25b2ob2o25b2ob2o25b2ob2o25b2ob2o25b2ob2o25b2ob2o25b2ob2o25b2ob2o
25b2ob2o25b2ob2o25b2ob2o25b2ob2o25b2ob2o25b2ob2o25b2ob2o25b2ob2o25b2ob
2o25b2ob2o25b2ob2o25b2ob2o25b2ob2o25b2ob2o25b2ob2o25b2ob2o25b2ob2o25b
2ob2o25b2ob2o10b2ob2o69b2o599b2ob2o25b2ob2o25b2ob2o25b2ob2o25b2ob2o25b
2ob2o25b2ob2o25b2ob2o25b2ob2o25b2ob2o25b2ob2o25b2ob2o25b2ob2o25b2ob2o
25b2ob2o25b2ob2o25b2ob2o25b2ob2o25b2ob2o25b2ob2o25b2ob2o25b2ob2o25b2ob
2o25b2ob2o25b2ob2o25b2ob2o25b2ob2o25b2ob2o25b2ob2o25b2ob2o25b2ob2o25b
2ob2o25b2ob2o25b2ob2o25b2ob2o25b2ob2o25b2ob2o25b2ob2o25b2ob2o10b2ob2o
69b2o299b2ob2o25b2ob2o25b2ob2o25b2ob2o25b2ob2o25b2ob2o25b2ob2o25b2ob2o
25b2ob2o25b2ob2o25b2ob2o25b2ob2o25b2ob2o25b2ob2o25b2ob2o25b2ob2o25b2ob
2o25b2ob2o25b2ob2o25b2ob2o25b2ob2o25b2ob2o25b2ob2o25b2ob2o25b2ob2o25b
2ob2o25b2ob2o25b2ob2o25b2ob2o25b2ob2o25b2ob2o25b2ob2o25b2ob2o25b2ob2o
25b2ob2o25b2ob2o25b2ob2o25b2ob2o25b2ob2o25b2ob2o10b2ob2o69b2o$2386b2o
28b2o28b2o28b2o28b2o28b2o28b2o28b2o28b2o28b2o28b2o28b2o28b2o28b2o28b2o
28b2o28b2o28b2o28b2o28b2o28b2o28b2o28b2o28b2o28b2o28b2o28b2o28b2o28b2o
28b2o28b2o28b2o28b2o28b2o28b2o28b2o28b2o28b2o28b2o13b4o41b2o2b2o10b2o
2b2o2b2o604b2o28b2o28b2o28b2o28b2o28b2o28b2o28b2o28b2o28b2o28b2o28b2o
28b2o28b2o28b2o28b2o28b2o28b2o28b2o28b2o28b2o28b2o28b2o28b2o28b2o28b2o
28b2o28b2o28b2o28b2o28b2o28b2o28b2o28b2o28b2o28b2o28b2o28b2o28b2o13b4o
41b2o2b2o10b2o2b2o2b2o304b2o28b2o28b2o28b2o28b2o28b2o28b2o28b2o28b2o
28b2o28b2o28b2o28b2o28b2o28b2o28b2o28b2o28b2o28b2o28b2o28b2o28b2o28b2o
28b2o28b2o28b2o28b2o28b2o28b2o28b2o28b2o28b2o28b2o28b2o28b2o28b2o28b2o
28b2o28b2o28b2o13b4o41b2o2b2o10b2o2b2o2b2o$3542b2o42b2o2b2o10b2o2b2o2b
2o1760b2o42b2o2b2o10b2o2b2o2b2o1490b2o42b2o2b2o10b2o2b2o2b2o$3554b2o
1828b2o1558b2o$3529bo24bobo1802bo24bobo1532bo24bobo$3524b2obo3bob2o19b
o1799b2obo3bob2o19bo1529b2obo3bob2o19bo$3524bo9bo1819bo9bo1549bo9bo$
2741b2o58b2o58b2o58b2o58b2o58b2o58b2o58b2o58b2o58b2o58b2o58b2o122b2o5b
2o11b2o1384b2o58b2o58b2o58b2o58b2o58b2o122b2o5b2o11b2o874b2o58b2o58b2o
58b2o58b2o58b2o58b2o58b2o58b2o58b2o122b2o5b2o11b2o$2383bo358bo59bo59bo
59bo59bo59bo59bo59bo59bo59bo59bo59bo119b3o2b5o2b3o7bobo666bo718bo59bo
59bo59bo59bo59bo119b3o2b5o2b3o7bobo366bo508bo59bo59bo59bo59bo59bo59bo
59bo59bo59bo119b3o2b5o2b3o7bobo$2383b3o353b3o57b3o57b3o57b3o57b3o57b3o
57b3o57b3o57b3o57b3o57b3o57b3o120bo2bo7bo2bo9bo666b3o713b3o57b3o57b3o
57b3o57b3o57b3o120bo2bo7bo2bo9bo366b3o503b3o57b3o57b3o57b3o57b3o57b3o
57b3o57b3o57b3o57b3o120bo2bo7bo2bo9bo$2386bo352bo6b2o51bo6b2o51bo6b2o
51bo6b2o51bo6b2o51bo6b2o51bo6b2o51bo6b2o51bo6b2o51bo6b2o51bo6b2o51bo6b
2o115b2o9b2o37b2o641bo712bo6b2o51bo6b2o51bo6b2o51bo6b2o51bo6b2o51bo6b
2o115b2o9b2o37b2o341bo502bo6b2o51bo6b2o51bo6b2o51bo6b2o51bo6b2o51bo6b
2o51bo6b2o51bo6b2o51bo6b2o51bo6b2o115b2o9b2o37b2o$2385b2o358b3o57b3o
57b3o57b3o57b3o57b3o57b3o57b3o57b3o57b3o57b3o57b3o153b3o2bo5bo3bo638b
2o718b3o57b3o57b3o57b3o57b3o57b3o153b3o2bo5bo3bo338b2o508b3o57b3o57b3o
57b3o57b3o57b3o57b3o57b3o57b3o57b3o153b3o2bo5bo3bo$2745b2obo56b2obo56b
2obo56b2obo56b2obo56b2obo56b2obo56b2obo56b2obo56b2obo56b2obo56b2obo
148bo3bo9bo5bo3b2o1352b2obo56b2obo56b2obo56b2obo56b2obo56b2obo148bo3bo
9bo5bo3b2o842b2obo56b2obo56b2obo56b2obo56b2obo56b2obo56b2obo56b2obo56b
2obo56b2obo148bo3bo9bo5bo3b2o$2746b3o57b3o57b3o57b3o57b3o57b3o57b3o57b
3o57b3o57b3o57b3o57b3o119bo8b2o16bobo4bo8bo3bob2o2b2o1353b3o57b3o57b3o
57b3o57b3o57b3o119bo8b2o16bobo4bo8bo3bob2o2b2o843b3o57b3o57b3o57b3o57b
3o57b3o57b3o57b3o57b3o57b3o119bo8b2o16bobo4bo8bo3bob2o2b2o$2747bo59bo
59bo59bo59bo59bo59bo59bo59bo59bo59bo59bo118bobo6bo2bo14b2o16bo5bo1359b
o59bo59bo59bo59bo59bo118bobo6bo2bo14b2o16bo5bo849bo59bo59bo59bo59bo59b
o59bo59bo59bo59bo118bobo6bo2bo14b2o16bo5bo$3519b2o4bobo7bo3bo2b2o9b2o
17bo3bo1772b2o4bobo7bo3bo2b2o9b2o17bo3bo1502b2o4bobo7bo3bo2b2o9b2o17bo
3bo$3519b2o3bo2bo7bo2b2o2b3o8b2o18b2o1774b2o3bo2bo7bo2b2o2b3o8b2o18b2o
1504b2o3bo2bo7bo2b2o2b3o8b2o18b2o$2385b2obob2o1133bobo16b2obo7bobo657b
2obob2o1133bobo16b2obo7bobo357b2obob2o1163bobo16b2obo7bobo$2385bo5bo
1134bobo4b3o8bo2bo9bo657bo5bo1134bobo4b3o8bo2bo9bo357bo5bo1164bobo4b3o
8bo2bo9bo$2367b2o17bo3bo1137bo15b2obo649b2o17bo3bo1137bo15b2obo349b2o
17bo3bo1167bo15b2obo$2368bo18b3o1152b3o653bo18b3o1152b3o353bo18b3o
1182b3o$2368bobo4bo1166b2o654bobo4bo1166b2o354bobo4bo1196b2o$2369b2o3b
obo1822b2o3bobo1522b2o3bobo$2372b2o3bo1824b2o3bo1524b2o3bo$2372b2o3bo
1824b2o3bo1524b2o3bo$2372b2o3bo1824b2o3bo1524b2o3bo$2374bobo1827bobo
1527bobo$2375bo23b2o370b2o58b2o58b2o118b2o118b2o58b2o58b2o58b2o58b2o
58b2o772bo23b2o730b2o58b2o118b2o118b2o472bo23b2o520b2o118b2o118b2o58b
2o58b2o58b2o58b2o58b2o$2400bo370b2o58b2o58b2o118b2o118b2o58b2o58b2o58b
2o58b2o58b2o797bo730b2o58b2o118b2o118b2o497bo520b2o118b2o118b2o58b2o
58b2o58b2o58b2o58b2o$2389b2o9bobo7b2o356b2o10bo4bo42b2o10bo4bo42b2o10b
o4bo102b2o10bo4bo102b2o10bo4bo42b2o10bo4bo42b2o10bo4bo42b2o10bo4bo42b
2o10bo4bo42b2o10bo4bo773b2o9bobo7b2o716b2o10bo4bo42b2o10bo4bo102b2o10b
o4bo102b2o10bo4bo473b2o9bobo7b2o506b2o10bo4bo102b2o10bo4bo102b2o10bo4b
o42b2o10bo4bo42b2o10bo4bo42b2o10bo4bo42b2o10bo4bo42b2o10bo4bo$2388b3o
10b2o6bobo355b3o10bo4bobo39b3o10bo4bobo39b3o10bo4bobo99b3o10bo4bobo99b
3o10bo4bobo39b3o10bo4bobo39b3o10bo4bobo39b3o10bo4bobo39b3o10bo4bobo39b
3o10bo4bobo770b3o10b2o6bobo715b3o10bo4bobo39b3o10bo4bobo99b3o10bo4bobo
99b3o10bo4bobo470b3o10b2o6bobo505b3o10bo4bobo99b3o10bo4bobo99b3o10bo4b
obo39b3o10bo4bobo39b3o10bo4bobo39b3o10bo4bobo39b3o10bo4bobo39b3o10bo4b
obo$2388b2obo16b3o12bo344b2o10bo7b2o38b2o10bo7b2o38b2o10bo7b2o98b2o10b
o7b2o98b2o10bo7b2o38b2o10bo7b2o38b2o10bo7b2o38b2o10bo7b2o38b2o10bo7b2o
38b2o10bo7b2o768b2obo16b3o12bo704b2o10bo7b2o38b2o10bo7b2o98b2o10bo7b2o
98b2o10bo7b2o468b2obo16b3o12bo494b2o10bo7b2o98b2o10bo7b2o98b2o10bo7b2o
38b2o10bo7b2o38b2o10bo7b2o38b2o10bo7b2o38b2o10bo7b2o38b2o10bo7b2o$
2389b3o15b3o8b2o3b4o335b2o7b2o2b2o11b2o32b2o7b2o2b2o11b2o32b2o7b2o2b2o
11b2o92b2o7b2o2b2o11b2o92b2o7b2o2b2o11b2o32b2o7b2o2b2o11b2o32b2o7b2o2b
2o11b2o32b2o7b2o2b2o11b2o32b2o7b2o2b2o11b2o32b2o7b2o2b2o11b2o769b3o15b
3o8b2o3b4o695b2o7b2o2b2o11b2o32b2o7b2o2b2o11b2o92b2o7b2o2b2o11b2o92b2o
7b2o2b2o11b2o469b3o15b3o8b2o3b4o485b2o7b2o2b2o11b2o92b2o7b2o2b2o11b2o
92b2o7b2o2b2o11b2o32b2o7b2o2b2o11b2o32b2o7b2o2b2o11b2o32b2o7b2o2b2o11b
2o32b2o7b2o2b2o11b2o32b2o7b2o2b2o11b2o$2390bo17b3o8b2o3b4o333bobo7b2o
2bo2b2o8b2o31bobo7b2o2bo2b2o8b2o31bobo7b2o2bo2b2o8b2o91bobo7b2o2bo2b2o
8b2o91bobo7b2o2bo2b2o8b2o31bobo7b2o2bo2b2o8b2o31bobo7b2o2bo2b2o8b2o31b
obo7b2o2bo2b2o8b2o31bobo7b2o2bo2b2o8b2o31bobo7b2o2bo2b2o8b2o770bo17b3o
8b2o3b4o693bobo7b2o2bo2b2o8b2o31bobo7b2o2bo2b2o8b2o91bobo7b2o2bo2b2o8b
2o91bobo7b2o2bo2b2o8b2o470bo17b3o8b2o3b4o483bobo7b2o2bo2b2o8b2o91bobo
7b2o2bo2b2o8b2o91bobo7b2o2bo2b2o8b2o31bobo7b2o2bo2b2o8b2o31bobo7b2o2bo
2b2o8b2o31bobo7b2o2bo2b2o8b2o31bobo7b2o2bo2b2o8b2o31bobo7b2o2bo2b2o8b
2o$2409bobo2b2obob2o3bo2bo333bo14b4o5bobo4b2o27bo14b4o5bobo4b2o27bo14b
4o5bobo4b2o87bo14b4o5bobo4b2o87bo14b4o5bobo4b2o27bo14b4o5bobo4b2o27bo
14b4o5bobo4b2o27bo14b4o5bobo4b2o27bo14b4o5bobo4b2o27bo14b4o5bobo4b2o
785bobo2b2obob2o3bo2bo693bo14b4o5bobo4b2o27bo14b4o5bobo4b2o87bo14b4o5b
obo4b2o87bo14b4o5bobo4b2o485bobo2b2obob2o3bo2bo483bo14b4o5bobo4b2o87bo
14b4o5bobo4b2o87bo14b4o5bobo4b2o27bo14b4o5bobo4b2o27bo14b4o5bobo4b2o
27bo14b4o5bobo4b2o27bo14b4o5bobo4b2o27bo14b4o5bobo4b2o$2410b2o2b2obobo
4b4o332b2o15bo7bo6bobo25b2o15bo7bo6bobo25b2o15bo7bo6bobo85b2o15bo7bo6b
obo85b2o15bo7bo6bobo25b2o15bo7bo6bobo25b2o15bo7bo6bobo25b2o15bo7bo6bob
o25b2o15bo7bo6bobo25b2o15bo7bo6bobo785b2o2b2obobo4b4o692b2o15bo7bo6bob
o25b2o15bo7bo6bobo85b2o15bo7bo6bobo85b2o15bo7bo6bobo485b2o2b2obobo4b4o
482b2o15bo7bo6bobo85b2o15bo7bo6bobo85b2o15bo7bo6bobo25b2o15bo7bo6bobo
25b2o15bo7bo6bobo25b2o15bo7bo6bobo25b2o15bo7bo6bobo25b2o15bo7bo6bobo$
2416b2obo3b4o4b2o361bo59bo59bo119bo119bo59bo59bo59bo59bo59bo791b2obo3b
4o4b2o721bo59bo119bo119bo491b2obo3b4o4b2o511bo119bo119bo59bo59bo59bo
59bo59bo$2423bo7bobo336b2o22b2o34b2o22b2o34b2o22b2o94b2o22b2o94b2o22b
2o34b2o22b2o34b2o22b2o34b2o22b2o34b2o22b2o34b2o22b2o797bo7bobo696b2o
22b2o34b2o22b2o94b2o22b2o94b2o22b2o497bo7bobo486b2o22b2o94b2o22b2o94b
2o22b2o34b2o22b2o34b2o22b2o34b2o22b2o34b2o22b2o34b2o22b2o$2403b2o28bo
336b2o58b2o58b2o118b2o118b2o58b2o58b2o58b2o58b2o58b2o801b2o28bo696b2o
58b2o118b2o118b2o501b2o28bo486b2o118b2o118b2o58b2o58b2o58b2o58b2o58b2o
$2402b2o29b2o339bo59bo59bo119bo119bo59bo59bo59bo59bo59bo797b2o29b2o
699bo59bo119bo119bo497b2o29b2o489bo119bo119bo59bo59bo59bo59bo59bo$
2404bo4bo336b2o25b2o31b2o25b2o31b2o25b2o31b2o58b2o25b2o31b2o58b2o25b2o
31b2o25b2o31b2o25b2o31b2o25b2o31b2o25b2o31b2o25b2o799bo4bo696b2o25b2o
31b2o25b2o31b2o58b2o25b2o31b2o58b2o25b2o499bo4bo486b2o25b2o31b2o58b2o
25b2o31b2o58b2o25b2o31b2o25b2o31b2o25b2o31b2o25b2o31b2o25b2o31b2o25b2o
$2407b2o336b3o25bobo21b2o6b3o25bobo21b2o6b3o25bobo21b2o6b3o57b3o25bobo
21b2o6b3o57b3o25bobo21b2o6b3o25bobo21b2o6b3o25bobo21b2o6b3o25bobo21b2o
6b3o25bobo21b2o6b3o25bobo21b2o778b2o696b3o25bobo21b2o6b3o25bobo21b2o6b
3o57b3o25bobo21b2o6b3o57b3o25bobo21b2o478b2o486b3o25bobo21b2o6b3o57b3o
25bobo21b2o6b3o57b3o25bobo21b2o6b3o25bobo21b2o6b3o25bobo21b2o6b3o25bob
o21b2o6b3o25bobo21b2o6b3o25bobo21b2o$2408b2o335b2obo48bo7b2obo48bo7b2o
bo48bo7b2obo56b2obo48bo7b2obo56b2obo48bo7b2obo48bo7b2obo48bo7b2obo48bo
7b2obo48bo7b2obo48bo780b2o695b2obo48bo7b2obo48bo7b2obo56b2obo48bo7b2ob
o56b2obo48bo480b2o485b2obo48bo7b2obo56b2obo48bo7b2obo56b2obo48bo7b2obo
48bo7b2obo48bo7b2obo48bo7b2obo48bo7b2obo48bo$2430b2o314b3o37b2o7bobo8b
3o37b2o7bobo8b3o37b2o7bobo8b3o57b3o37b2o7bobo8b3o57b3o37b2o7bobo8b3o
37b2o7bobo8b3o37b2o7bobo8b3o37b2o7bobo8b3o37b2o7bobo8b3o37b2o7bobo802b
2o674b3o37b2o7bobo8b3o37b2o7bobo8b3o57b3o37b2o7bobo8b3o57b3o37b2o7bobo
502b2o464b3o37b2o7bobo8b3o57b3o37b2o7bobo8b3o57b3o37b2o7bobo8b3o37b2o
7bobo8b3o37b2o7bobo8b3o37b2o7bobo8b3o37b2o7bobo8b3o37b2o7bobo$2430bo
316bo38bobo6b2o10bo38bobo6b2o10bo38bobo6b2o10bo59bo38bobo6b2o10bo59bo
38bobo6b2o10bo38bobo6b2o10bo38bobo6b2o10bo38bobo6b2o10bo38bobo6b2o10bo
38bobo6b2o803bo676bo38bobo6b2o10bo38bobo6b2o10bo59bo38bobo6b2o10bo59bo
38bobo6b2o503bo466bo38bobo6b2o10bo59bo38bobo6b2o10bo59bo38bobo6b2o10bo
38bobo6b2o10bo38bobo6b2o10bo38bobo6b2o10bo38bobo6b2o10bo38bobo6b2o$
2396b2o13bo10bo5bobo345bo4b2o6bo46bo4b2o6bo46bo4b2o6bo106bo4b2o6bo106b
o4b2o6bo46bo4b2o6bo46bo4b2o6bo46bo4b2o6bo46bo4b2o6bo46bo4b2o6bo152b2o
2b2o2b2o2b2o610b2o13bo10bo5bobo705bo4b2o6bo46bo4b2o6bo106bo4b2o6bo106b
o4b2o6bo152b2o2b2o2b2o2b2o310b2o13bo10bo5bobo495bo4b2o6bo106bo4b2o6bo
106bo4b2o6bo46bo4b2o6bo46bo4b2o6bo46bo4b2o6bo46bo4b2o6bo46bo4b2o6bo
152b2o2b2o2b2o2b2o$2397bo12b2o9b2o5b2o332bo12bobo2bo2bo2bo2bo32bo12bob
o2bo2bo2bo2bo32bo12bobo2bo2bo2bo2bo92bo12bobo2bo2bo2bo2bo92bo12bobo2bo
2bo2bo2bo32bo12bobo2bo2bo2bo2bo32bo12bobo2bo2bo2bo2bo32bo12bobo2bo2bo
2bo2bo32bo12bobo2bo2bo2bo2bo32bo12bobo2bo2bo2bo2bo152b2o2b2o2b2o2b2o
611bo12b2o9b2o5b2o692bo12bobo2bo2bo2bo2bo32bo12bobo2bo2bo2bo2bo92bo12b
obo2bo2bo2bo2bo92bo12bobo2bo2bo2bo2bo152b2o2b2o2b2o2b2o311bo12b2o9b2o
5b2o482bo12bobo2bo2bo2bo2bo92bo12bobo2bo2bo2bo2bo92bo12bobo2bo2bo2bo2b
o32bo12bobo2bo2bo2bo2bo32bo12bobo2bo2bo2bo2bo32bo12bobo2bo2bo2bo2bo32b
o12bobo2bo2bo2bo2bo32bo12bobo2bo2bo2bo2bo152b2o2b2o2b2o2b2o$2397bobo5b
o4bobo7b2o338b2o13b2obob3o6bo30b2o13b2obob3o6bo30b2o13b2obob3o6bo90b2o
13b2obob3o6bo90b2o13b2obob3o6bo30b2o13b2obob3o6bo30b2o13b2obob3o6bo30b
2o13b2obob3o6bo30b2o13b2obob3o6bo30b2o13b2obob3o6bo777bobo5bo4bobo7b2o
698b2o13b2obob3o6bo30b2o13b2obob3o6bo90b2o13b2obob3o6bo90b2o13b2obob3o
6bo477bobo5bo4bobo7b2o488b2o13b2obob3o6bo90b2o13b2obob3o6bo90b2o13b2ob
ob3o6bo30b2o13b2obob3o6bo30b2o13b2obob3o6bo30b2o13b2obob3o6bo30b2o13b
2obob3o6bo30b2o13b2obob3o6bo$2398b2o3bobo13b3o339b2o12b2ob2o6bobo32b2o
12b2ob2o6bobo32b2o12b2ob2o6bobo92b2o12b2ob2o6bobo92b2o12b2ob2o6bobo32b
2o12b2ob2o6bobo32b2o12b2ob2o6bobo32b2o12b2ob2o6bobo32b2o12b2ob2o6bobo
32b2o12b2ob2o6bobo779b2o3bobo13b3o699b2o12b2ob2o6bobo32b2o12b2ob2o6bob
o92b2o12b2ob2o6bobo92b2o12b2ob2o6bobo479b2o3bobo13b3o489b2o12b2ob2o6bo
bo92b2o12b2ob2o6bobo92b2o12b2ob2o6bobo32b2o12b2ob2o6bobo32b2o12b2ob2o
6bobo32b2o12b2ob2o6bobo32b2o12b2ob2o6bobo32b2o12b2ob2o6bobo$2402bobo
15b2o3b2o348b2obo7b2o47b2obo7b2o47b2obo7b2o107b2obo7b2o107b2obo7b2o47b
2obo7b2o47b2obo7b2o47b2obo7b2o47b2obo7b2o47b2obo7b2o96bobo55b2o628bobo
15b2o3b2o708b2obo7b2o47b2obo7b2o107b2obo7b2o107b2obo7b2o96bobo55b2o
328bobo15b2o3b2o498b2obo7b2o107b2obo7b2o107b2obo7b2o47b2obo7b2o47b2obo
7b2o47b2obo7b2o47b2obo7b2o47b2obo7b2o96bobo55b2o$2401bo2bo16b2o342b2o
8bobo47b2o8bobo47b2o8bobo107b2o8bobo107b2o8bobo47b2o8bobo47b2o8bobo47b
2o8bobo47b2o8bobo47b2o8bobo104bo3bo55b2o627bo2bo16b2o702b2o8bobo47b2o
8bobo107b2o8bobo107b2o8bobo104bo3bo55b2o327bo2bo16b2o492b2o8bobo107b2o
8bobo107b2o8bobo47b2o8bobo47b2o8bobo47b2o8bobo47b2o8bobo47b2o8bobo104b
o3bo55b2o$2402bobo17bo341bobo9bo47bobo9bo47bobo9bo107bobo9bo107bobo9bo
47bobo9bo47bobo9bo47bobo9bo47bobo9bo47bobo9bo105bo19bo669bobo17bo701bo
bo9bo47bobo9bo107bobo9bo107bobo9bo105bo19bo369bobo17bo491bobo9bo107bob
o9bo107bobo9bo47bobo9bo47bobo9bo47bobo9bo47bobo9bo47bobo9bo105bo19bo$
2403bobo358bo59bo59bo119bo119bo59bo59bo59bo59bo59bo110b2o4bo4bo14b4o
668bobo718bo59bo119bo119bo110b2o4bo4bo14b4o368bobo508bo119bo119bo59bo
59bo59bo59bo59bo110b2o4bo4bo14b4o$2405bo357b2o58b2o58b2o118b2o118b2o
58b2o58b2o58b2o58b2o58b2o110b2o5bo12bo4b2obobo36b2o2b2o2b2o623bo717b2o
58b2o118b2o118b2o110b2o5bo12bo4b2obobo36b2o2b2o2b2o323bo507b2o118b2o
118b2o58b2o58b2o58b2o58b2o58b2o110b2o5bo12bo4b2obobo36b2o2b2o2b2o$
3542bo3bo3bob2o5b3obo2bo2b2o31b2o2b2o2b2o1760bo3bo3bob2o5b3obo2bo2b2o
31b2o2b2o2b2o1490bo3bo3bob2o5b3obo2bo2b2o31b2o2b2o2b2o$3544bobo2bob4o
5b2obobo3b2o12b2o1789bobo2bob4o5b2obobo3b2o12b2o1519bobo2bob4o5b2obobo
3b2o12b2o$3549b2o2b2o6b4o18b2o1794b2o2b2o6b4o18b2o1524b2o2b2o6b4o18b2o
$3562bo39b2o1788bo39b2o1518bo39b2o$2417b2o28b2o28b2o28b2o28b2o28b2o28b
2o28b2o28b2o28b2o28b2o28b2o28b2o28b2o28b2o28b2o28b2o28b2o28b2o28b2o28b
2o28b2o28b2o28b2o28b2o28b2o28b2o28b2o28b2o28b2o28b2o28b2o28b2o28b2o28b
2o28b2o28b2o28b2o73b2o643b2o28b2o28b2o28b2o28b2o28b2o28b2o28b2o28b2o
28b2o28b2o28b2o28b2o28b2o28b2o28b2o28b2o28b2o28b2o28b2o28b2o28b2o28b2o
28b2o28b2o28b2o28b2o28b2o28b2o28b2o28b2o28b2o28b2o28b2o28b2o28b2o28b2o
28b2o73b2o343b2o28b2o28b2o28b2o28b2o28b2o28b2o28b2o28b2o28b2o28b2o28b
2o28b2o28b2o28b2o28b2o28b2o28b2o28b2o28b2o28b2o28b2o28b2o28b2o28b2o28b
2o28b2o28b2o28b2o28b2o28b2o28b2o28b2o28b2o28b2o28b2o28b2o28b2o28b2o73b
2o$2416b4o26b4o26b4o26b4o26b4o26b4o26b4o26b4o26b4o26b4o26b4o26b4o26b4o
26b4o26b4o26b4o26b4o26b4o26b4o26b4o26b4o26b4o26b4o26b4o26b4o26b4o26b4o
26b4o26b4o26b4o26b4o26b4o26b4o26b4o26b4o26b4o26b4o26b4o11b2o40b2o661b
4o26b4o26b4o26b4o26b4o26b4o26b4o26b4o26b4o26b4o26b4o26b4o26b4o26b4o26b
4o26b4o26b4o26b4o26b4o26b4o26b4o26b4o26b4o26b4o26b4o26b4o26b4o26b4o26b
4o26b4o26b4o26b4o26b4o26b4o26b4o26b4o26b4o26b4o11b2o40b2o361b4o26b4o
26b4o26b4o26b4o26b4o26b4o26b4o26b4o26b4o26b4o26b4o26b4o26b4o26b4o26b4o
26b4o26b4o26b4o26b4o26b4o26b4o26b4o26b4o26b4o26b4o26b4o26b4o26b4o26b4o
26b4o26b4o26b4o26b4o26b4o26b4o26b4o26b4o26b4o11b2o40b2o$2415b2ob2o25b
2ob2o25b2ob2o25b2ob2o25b2ob2o25b2ob2o25b2ob2o25b2ob2o25b2ob2o25b2ob2o
25b2ob2o25b2ob2o25b2ob2o25b2ob2o25b2ob2o25b2ob2o25b2ob2o25b2ob2o25b2ob
2o25b2ob2o25b2ob2o25b2ob2o25b2ob2o25b2ob2o25b2ob2o25b2ob2o25b2ob2o25b
2ob2o25b2ob2o25b2ob2o25b2ob2o25b2ob2o25b2ob2o25b2ob2o25b2ob2o25b2ob2o
25b2ob2o25b2ob2o10b2ob2o38b2o660b2ob2o25b2ob2o25b2ob2o25b2ob2o25b2ob2o
25b2ob2o25b2ob2o25b2ob2o25b2ob2o25b2ob2o25b2ob2o25b2ob2o25b2ob2o25b2ob
2o25b2ob2o25b2ob2o25b2ob2o25b2ob2o25b2ob2o25b2ob2o25b2ob2o25b2ob2o25b
2ob2o25b2ob2o25b2ob2o25b2ob2o25b2ob2o25b2ob2o25b2ob2o25b2ob2o25b2ob2o
25b2ob2o25b2ob2o25b2ob2o25b2ob2o25b2ob2o25b2ob2o25b2ob2o10b2ob2o38b2o
360b2ob2o25b2ob2o25b2ob2o25b2ob2o25b2ob2o25b2ob2o25b2ob2o25b2ob2o25b2o
b2o25b2ob2o25b2ob2o25b2ob2o25b2ob2o25b2ob2o25b2ob2o25b2ob2o25b2ob2o25b
2ob2o25b2ob2o25b2ob2o25b2ob2o25b2ob2o25b2ob2o25b2ob2o25b2ob2o25b2ob2o
25b2ob2o25b2ob2o25b2ob2o25b2ob2o25b2ob2o25b2ob2o25b2ob2o25b2ob2o25b2ob
2o25b2ob2o25b2ob2o25b2ob2o25b2ob2o10b2ob2o38b2o$2416b2o28b2o28b2o28b2o
28b2o28b2o28b2o28b2o28b2o28b2o28b2o28b2o28b2o28b2o28b2o28b2o28b2o28b2o
28b2o28b2o28b2o28b2o28b2o28b2o28b2o28b2o28b2o28b2o28b2o28b2o28b2o28b2o
28b2o28b2o28b2o28b2o28b2o28b2o13b4o57b2o2b2o2b2o2b2o630b2o28b2o28b2o
28b2o28b2o28b2o28b2o28b2o28b2o28b2o28b2o28b2o28b2o28b2o28b2o28b2o28b2o
28b2o28b2o28b2o28b2o28b2o28b2o28b2o28b2o28b2o28b2o28b2o28b2o28b2o28b2o
28b2o28b2o28b2o28b2o28b2o28b2o28b2o13b4o57b2o2b2o2b2o2b2o330b2o28b2o
28b2o28b2o28b2o28b2o28b2o28b2o28b2o28b2o28b2o28b2o28b2o28b2o28b2o28b2o
28b2o28b2o28b2o28b2o28b2o28b2o28b2o28b2o28b2o28b2o28b2o28b2o28b2o28b2o
28b2o28b2o28b2o28b2o28b2o28b2o28b2o28b2o28b2o13b4o57b2o2b2o2b2o2b2o$
3542b2o58b2o2b2o2b2o2b2o1756b2o58b2o2b2o2b2o2b2o1486b2o58b2o2b2o2b2o2b
2o$3554b2o1828b2o1558b2o$3529bo24bobo1802bo24bobo1532bo24bobo$3524b2ob
o3bob2o19bo1799b2obo3bob2o19bo1529b2obo3bob2o19bo$3524bo9bo1819bo9bo
1549bo9bo$2741b2o58b2o58b2o58b2o58b2o58b2o58b2o58b2o58b2o58b2o58b2o58b
2o122b2o5b2o11b2o1384b2o58b2o58b2o58b2o58b2o58b2o122b2o5b2o11b2o874b2o
58b2o58b2o58b2o58b2o58b2o58b2o58b2o58b2o58b2o122b2o5b2o11b2o$2413bo
328bo59bo59bo59bo59bo59bo59bo59bo59bo59bo59bo59bo119b3o2b5o2b3o7bobo
696bo688bo59bo59bo59bo59bo59bo119b3o2b5o2b3o7bobo396bo478bo59bo59bo59b
o59bo59bo59bo59bo59bo59bo119b3o2b5o2b3o7bobo$2413b3o323b3o57b3o57b3o
57b3o57b3o57b3o57b3o57b3o57b3o57b3o57b3o57b3o120bo2bo7bo2bo9bo696b3o
683b3o57b3o57b3o57b3o57b3o57b3o120bo2bo7bo2bo9bo396b3o473b3o57b3o57b3o
57b3o57b3o57b3o57b3o57b3o57b3o57b3o120bo2bo7bo2bo9bo$2416bo322bo6b2o
51bo6b2o51bo6b2o51bo6b2o51bo6b2o51bo6b2o51bo6b2o51bo6b2o51bo6b2o51bo6b
2o51bo6b2o51bo6b2o115b2o9b2o37b2o671bo682bo6b2o51bo6b2o51bo6b2o51bo6b
2o51bo6b2o51bo6b2o115b2o9b2o37b2o371bo472bo6b2o51bo6b2o51bo6b2o51bo6b
2o51bo6b2o51bo6b2o51bo6b2o51bo6b2o51bo6b2o51bo6b2o115b2o9b2o37b2o$
2415b2o328b3o57b3o57b3o57b3o57b3o57b3o57b3o57b3o57b3o57b3o57b3o57b3o
153b3o2bo5bo3bo668b2o688b3o57b3o57b3o57b3o57b3o57b3o153b3o2bo5bo3bo
368b2o478b3o57b3o57b3o57b3o57b3o57b3o57b3o57b3o57b3o57b3o153b3o2bo5bo
3bo$2745b2obo56b2obo56b2obo56b2obo56b2obo56b2obo56b2obo56b2obo56b2obo
56b2obo56b2obo56b2obo148bo3bo9bo5bo3b2o1352b2obo56b2obo56b2obo56b2obo
56b2obo56b2obo148bo3bo9bo5bo3b2o842b2obo56b2obo56b2obo56b2obo56b2obo
56b2obo56b2obo56b2obo56b2obo56b2obo148bo3bo9bo5bo3b2o$2746b3o57b3o57b
3o57b3o57b3o57b3o57b3o57b3o57b3o57b3o57b3o57b3o119bo8b2o16bobo4bo8bo3b
ob2o2b2o1353b3o57b3o57b3o57b3o57b3o57b3o119bo8b2o16bobo4bo8bo3bob2o2b
2o843b3o57b3o57b3o57b3o57b3o57b3o57b3o57b3o57b3o57b3o119bo8b2o16bobo4b
o8bo3bob2o2b2o$2747bo59bo59bo59bo59bo59bo59bo59bo59bo59bo59bo59bo118bo
bo6bo2bo14b2o16bo5bo1359bo59bo59bo59bo59bo59bo118bobo6bo2bo14b2o16bo5b
o849bo59bo59bo59bo59bo59bo59bo59bo59bo59bo118bobo6bo2bo14b2o16bo5bo$
3519b2o4bobo7bo3bo2b2o9b2o17bo3bo1772b2o4bobo7bo3bo2b2o9b2o17bo3bo
1502b2o4bobo7bo3bo2b2o9b2o17bo3bo$3519b2o3bo2bo7bo2b2o2b3o8b2o18b2o
1774b2o3bo2bo7bo2b2o2b3o8b2o18b2o1504b2o3bo2bo7bo2b2o2b3o8b2o18b2o$
2415b2obob2o1103bobo16b2obo7bobo687b2obob2o1103bobo16b2obo7bobo387b2ob
ob2o1133bobo16b2obo7bobo$2415bo5bo1104bobo4b3o8bo2bo9bo687bo5bo1104bob
o4b3o8bo2bo9bo387bo5bo1134bobo4b3o8bo2bo9bo$2397b2o17bo3bo1107bo15b2ob
o679b2o17bo3bo1107bo15b2obo379b2o17bo3bo1137bo15b2obo$2398bo18b3o1122b
3o683bo18b3o1122b3o383bo18b3o1152b3o$2398bobo4bo1136b2o684bobo4bo1136b
2o384bobo4bo1166b2o$2399b2o3bobo1822b2o3bobo1522b2o3bobo$2402b2o3bo
1824b2o3bo1524b2o3bo$2402b2o3bo1824b2o3bo1524b2o3bo$2402b2o3bo1824b2o
3bo1524b2o3bo$2404bobo1827bobo1527bobo$2405bo23b2o460b2o178b2o178b2o
118b2o862bo23b2o940b2o58b2o502bo23b2o670b2o58b2o118b2o178b2o$2430bo
460b2o178b2o178b2o118b2o887bo940b2o58b2o527bo670b2o58b2o118b2o178b2o$
2419b2o9bobo7b2o446b2o10bo4bo162b2o10bo4bo162b2o10bo4bo102b2o10bo4bo
803b2o58b2o9bobo7b2o926b2o10bo4bo42b2o10bo4bo503b2o9bobo7b2o656b2o10bo
4bo42b2o10bo4bo102b2o10bo4bo162b2o10bo4bo$2418b3o10b2o6bobo445b3o10bo
4bobo159b3o10bo4bobo159b3o10bo4bobo99b3o10bo4bobo800b3o57b3o10b2o6bobo
925b3o10bo4bobo39b3o10bo4bobo500b3o10b2o6bobo655b3o10bo4bobo39b3o10bo
4bobo99b3o10bo4bobo159b3o10bo4bobo$2418b2obo16b3o12bo434b2o10bo7b2o
158b2o10bo7b2o158b2o10bo7b2o98b2o10bo7b2o798b2obo56b2obo16b3o12bo914b
2o10bo7b2o38b2o10bo7b2o498b2obo16b3o12bo644b2o10bo7b2o38b2o10bo7b2o98b
2o10bo7b2o158b2o10bo7b2o$2419b3o15b3o8b2o3b4o425b2o7b2o2b2o11b2o152b2o
7b2o2b2o11b2o152b2o7b2o2b2o11b2o92b2o7b2o2b2o11b2o799b3o57b3o15b3o8b2o
3b4o905b2o7b2o2b2o11b2o32b2o7b2o2b2o11b2o499b3o15b3o8b2o3b4o635b2o7b2o
2b2o11b2o32b2o7b2o2b2o11b2o92b2o7b2o2b2o11b2o152b2o7b2o2b2o11b2o$2420b
o17b3o8b2o3b4o423bobo7b2o2bo2b2o8b2o151bobo7b2o2bo2b2o8b2o151bobo7b2o
2bo2b2o8b2o91bobo7b2o2bo2b2o8b2o800bo59bo17b3o8b2o3b4o903bobo7b2o2bo2b
2o8b2o31bobo7b2o2bo2b2o8b2o500bo17b3o8b2o3b4o633bobo7b2o2bo2b2o8b2o31b
obo7b2o2bo2b2o8b2o91bobo7b2o2bo2b2o8b2o151bobo7b2o2bo2b2o8b2o$2439bobo
2b2obob2o3bo2bo423bo14b4o5bobo4b2o147bo14b4o5bobo4b2o147bo14b4o5bobo4b
2o87bo14b4o5bobo4b2o875bobo2b2obob2o3bo2bo903bo14b4o5bobo4b2o27bo14b4o
5bobo4b2o515bobo2b2obob2o3bo2bo633bo14b4o5bobo4b2o27bo14b4o5bobo4b2o
87bo14b4o5bobo4b2o147bo14b4o5bobo4b2o$2440b2o2b2obobo4b4o422b2o15bo7bo
6bobo145b2o15bo7bo6bobo145b2o15bo7bo6bobo85b2o15bo7bo6bobo875b2o2b2obo
bo4b4o902b2o15bo7bo6bobo25b2o15bo7bo6bobo515b2o2b2obobo4b4o632b2o15bo
7bo6bobo25b2o15bo7bo6bobo85b2o15bo7bo6bobo145b2o15bo7bo6bobo$2446b2obo
3b4o4b2o451bo179bo179bo119bo881b2obo3b4o4b2o931bo59bo521b2obo3b4o4b2o
661bo59bo119bo179bo$2453bo7bobo426b2o22b2o154b2o22b2o154b2o22b2o94b2o
22b2o887bo7bobo906b2o22b2o34b2o22b2o527bo7bobo636b2o22b2o34b2o22b2o94b
2o22b2o154b2o22b2o$2433b2o28bo426b2o178b2o178b2o118b2o891b2o28bo906b2o
58b2o531b2o28bo636b2o58b2o118b2o178b2o$2432b2o29b2o429bo179bo179bo119b
o887b2o29b2o909bo59bo527b2o29b2o639bo59bo119bo179bo$2434bo4bo306b2o58b
2o58b2o25b2o31b2o58b2o58b2o25b2o31b2o58b2o58b2o25b2o31b2o58b2o25b2o31b
2o856bo4bo666b2o58b2o58b2o58b2o58b2o25b2o31b2o25b2o529bo4bo456b2o58b2o
58b2o58b2o25b2o31b2o25b2o31b2o58b2o25b2o31b2o58b2o58b2o25b2o$2437b2o
306b3o57b3o57b3o25bobo21b2o6b3o57b3o57b3o25bobo21b2o6b3o57b3o57b3o25bo
bo21b2o6b3o57b3o25bobo21b2o6b3o859b2o666b3o57b3o57b3o57b3o57b3o25bobo
21b2o6b3o25bobo21b2o508b2o456b3o57b3o57b3o57b3o25bobo21b2o6b3o25bobo
21b2o6b3o57b3o25bobo21b2o6b3o57b3o57b3o25bobo21b2o$2438b2o305b2obo56b
2obo56b2obo48bo7b2obo56b2obo56b2obo48bo7b2obo56b2obo56b2obo48bo7b2obo
56b2obo48bo7b2obo859b2o665b2obo56b2obo56b2obo56b2obo56b2obo48bo7b2obo
48bo510b2o455b2obo56b2obo56b2obo56b2obo48bo7b2obo48bo7b2obo56b2obo48bo
7b2obo56b2obo56b2obo48bo$2460b2o284b3o57b3o57b3o37b2o7bobo8b3o57b3o57b
3o37b2o7bobo8b3o57b3o57b3o37b2o7bobo8b3o57b3o37b2o7bobo8b3o881b2o644b
3o57b3o57b3o57b3o57b3o37b2o7bobo8b3o37b2o7bobo532b2o434b3o57b3o57b3o
57b3o37b2o7bobo8b3o37b2o7bobo8b3o57b3o37b2o7bobo8b3o57b3o57b3o37b2o7bo
bo$2460bo286bo59bo59bo38bobo6b2o10bo59bo59bo38bobo6b2o10bo59bo59bo38bo
bo6b2o10bo59bo38bobo6b2o10bo882bo646bo59bo59bo59bo59bo38bobo6b2o10bo
38bobo6b2o533bo436bo59bo59bo59bo38bobo6b2o10bo38bobo6b2o10bo59bo38bobo
6b2o10bo59bo59bo38bobo6b2o$2426b2o13bo10bo5bobo435bo4b2o6bo166bo4b2o6b
o166bo4b2o6bo106bo4b2o6bo212b2o2b2o2b2o2b2o640b2o13bo10bo5bobo915bo4b
2o6bo46bo4b2o6bo152b2o2b2o2b2o2b2o340b2o13bo10bo5bobo645bo4b2o6bo46bo
4b2o6bo106bo4b2o6bo166bo4b2o6bo152b2o2b2o2b2o2b2o$2427bo12b2o9b2o5b2o
422bo12bobo2bo2bo2bo2bo152bo12bobo2bo2bo2bo2bo152bo12bobo2bo2bo2bo2bo
92bo12bobo2bo2bo2bo2bo212b2o2b2o2b2o2b2o641bo12b2o9b2o5b2o902bo12bobo
2bo2bo2bo2bo32bo12bobo2bo2bo2bo2bo152b2o2b2o2b2o2b2o341bo12b2o9b2o5b2o
632bo12bobo2bo2bo2bo2bo32bo12bobo2bo2bo2bo2bo92bo12bobo2bo2bo2bo2bo
152bo12bobo2bo2bo2bo2bo152b2o2b2o2b2o2b2o$2427bobo5bo4bobo7b2o428b2o
13b2obob3o6bo150b2o13b2obob3o6bo150b2o13b2obob3o6bo90b2o13b2obob3o6bo
193b2o672bobo5bo4bobo7b2o908b2o13b2obob3o6bo30b2o13b2obob3o6bo133b2o
372bobo5bo4bobo7b2o638b2o13b2obob3o6bo30b2o13b2obob3o6bo90b2o13b2obob
3o6bo150b2o13b2obob3o6bo133b2o$2428b2o3bobo13b3o429b2o12b2ob2o6bobo
152b2o12b2ob2o6bobo152b2o12b2ob2o6bobo92b2o12b2ob2o6bobo194b2o673b2o3b
obo13b3o909b2o12b2ob2o6bobo32b2o12b2ob2o6bobo134b2o373b2o3bobo13b3o
639b2o12b2ob2o6bobo32b2o12b2ob2o6bobo92b2o12b2ob2o6bobo152b2o12b2ob2o
6bobo134b2o$2432bobo15b2o3b2o438b2obo7b2o167b2obo7b2o167b2obo7b2o107b
2obo7b2o156bobo55b2o658bobo15b2o3b2o918b2obo7b2o47b2obo7b2o96bobo55b2o
358bobo15b2o3b2o648b2obo7b2o47b2obo7b2o107b2obo7b2o167b2obo7b2o96bobo
55b2o$2431bo2bo16b2o432b2o8bobo167b2o8bobo167b2o8bobo107b2o8bobo164bo
3bo55b2o657bo2bo16b2o912b2o8bobo47b2o8bobo104bo3bo55b2o357bo2bo16b2o
642b2o8bobo47b2o8bobo107b2o8bobo167b2o8bobo104bo3bo55b2o$2432bobo17bo
431bobo9bo167bobo9bo167bobo9bo107bobo9bo165bo19bo20b2o677bobo17bo911bo
bo9bo47bobo9bo105bo19bo20b2o377bobo17bo641bobo9bo47bobo9bo107bobo9bo
167bobo9bo105bo19bo20b2o$2433bobo448bo179bo179bo119bo170b2o4bo4bo14b4o
18b2o678bobo928bo59bo110b2o4bo4bo14b4o18b2o378bobo658bo59bo119bo179bo
110b2o4bo4bo14b4o18b2o$2435bo447b2o178b2o178b2o118b2o170b2o5bo12bo4b2o
bobo36b2o2b2o2b2o653bo927b2o58b2o110b2o5bo12bo4b2obobo36b2o2b2o2b2o
353bo657b2o58b2o118b2o178b2o110b2o5bo12bo4b2obobo36b2o2b2o2b2o$3542bo
3bo3bob2o5b3obo2bo2b2o31b2o2b2o2b2o1760bo3bo3bob2o5b3obo2bo2b2o31b2o2b
2o2b2o1490bo3bo3bob2o5b3obo2bo2b2o31b2o2b2o2b2o$3544bobo2bob4o5b2obobo
3b2o1803bobo2bob4o5b2obobo3b2o1533bobo2bob4o5b2obobo3b2o$3549b2o2b2o6b
4o1814b2o2b2o6b4o1544b2o2b2o6b4o$3562bo39b2o1788bo39b2o1518bo39b2o$
2447b2o28b2o28b2o28b2o28b2o28b2o28b2o28b2o28b2o28b2o28b2o28b2o28b2o28b
2o28b2o28b2o28b2o28b2o28b2o28b2o28b2o28b2o28b2o28b2o28b2o28b2o28b2o28b
2o28b2o28b2o28b2o28b2o28b2o28b2o28b2o28b2o28b2o73b2o673b2o28b2o28b2o
28b2o28b2o28b2o28b2o28b2o28b2o28b2o28b2o28b2o28b2o28b2o28b2o28b2o28b2o
28b2o28b2o28b2o28b2o28b2o28b2o28b2o28b2o28b2o28b2o28b2o28b2o28b2o28b2o
28b2o28b2o28b2o28b2o28b2o28b2o73b2o373b2o28b2o28b2o28b2o28b2o28b2o28b
2o28b2o28b2o28b2o28b2o28b2o28b2o28b2o28b2o28b2o28b2o28b2o28b2o28b2o28b
2o28b2o28b2o28b2o28b2o28b2o28b2o28b2o28b2o28b2o28b2o28b2o28b2o28b2o28b
2o28b2o28b2o28b2o73b2o$2446b4o26b4o26b4o26b4o26b4o26b4o26b4o26b4o26b4o
26b4o26b4o26b4o26b4o26b4o26b4o26b4o26b4o26b4o26b4o26b4o26b4o26b4o26b4o
26b4o26b4o26b4o26b4o26b4o26b4o26b4o26b4o26b4o26b4o26b4o26b4o26b4o26b4o
11b2o733b4o26b4o26b4o26b4o26b4o26b4o26b4o26b4o26b4o26b4o26b4o26b4o26b
4o26b4o26b4o26b4o26b4o26b4o26b4o26b4o26b4o26b4o26b4o26b4o26b4o26b4o26b
4o26b4o26b4o26b4o26b4o26b4o26b4o26b4o26b4o26b4o26b4o11b2o376b2o55b4o
26b4o26b4o26b4o26b4o26b4o26b4o26b4o26b4o26b4o26b4o26b4o26b4o26b4o26b4o
26b4o26b4o26b4o26b4o26b4o26b4o26b4o26b4o26b4o26b4o26b4o26b4o26b4o26b4o
26b4o26b4o26b4o26b4o26b4o26b4o26b4o26b4o26b4o11b2o$2445b2ob2o25b2ob2o
25b2ob2o25b2ob2o25b2ob2o25b2ob2o25b2ob2o25b2ob2o25b2ob2o25b2ob2o25b2ob
2o25b2ob2o25b2ob2o25b2ob2o25b2ob2o25b2ob2o25b2ob2o25b2ob2o25b2ob2o25b
2ob2o25b2ob2o25b2ob2o25b2ob2o25b2ob2o25b2ob2o25b2ob2o25b2ob2o25b2ob2o
25b2ob2o25b2ob2o25b2ob2o25b2ob2o25b2ob2o25b2ob2o25b2ob2o25b2ob2o25b2ob
2o10b2ob2o730b2ob2o25b2ob2o25b2ob2o25b2ob2o25b2ob2o25b2ob2o25b2ob2o25b
2ob2o25b2ob2o25b2ob2o25b2ob2o25b2ob2o25b2ob2o25b2ob2o25b2ob2o25b2ob2o
25b2ob2o25b2ob2o25b2ob2o25b2ob2o25b2ob2o25b2ob2o25b2ob2o25b2ob2o25b2ob
2o25b2ob2o25b2ob2o25b2ob2o25b2ob2o25b2ob2o25b2ob2o25b2ob2o25b2ob2o25b
2ob2o25b2ob2o25b2ob2o25b2ob2o10b2ob2o373b3o54b2ob2o25b2ob2o25b2ob2o25b
2ob2o25b2ob2o25b2ob2o25b2ob2o25b2ob2o25b2ob2o25b2ob2o25b2ob2o25b2ob2o
25b2ob2o25b2ob2o25b2ob2o25b2ob2o25b2ob2o25b2ob2o25b2ob2o25b2ob2o25b2ob
2o25b2ob2o25b2ob2o25b2ob2o25b2ob2o25b2ob2o25b2ob2o25b2ob2o25b2ob2o25b
2ob2o25b2ob2o25b2ob2o25b2ob2o25b2ob2o25b2ob2o25b2ob2o25b2ob2o25b2ob2o
10b2ob2o$2446b2o28b2o28b2o28b2o28b2o28b2o28b2o28b2o28b2o28b2o28b2o28b
2o28b2o28b2o28b2o28b2o28b2o28b2o28b2o28b2o28b2o28b2o28b2o28b2o28b2o28b
2o28b2o28b2o28b2o28b2o28b2o28b2o28b2o28b2o28b2o28b2o28b2o13b4o57b2o
672b2o28b2o28b2o28b2o28b2o28b2o28b2o28b2o28b2o28b2o28b2o28b2o28b2o28b
2o28b2o28b2o28b2o28b2o28b2o28b2o28b2o28b2o28b2o28b2o28b2o28b2o28b2o28b
2o28b2o28b2o28b2o28b2o28b2o28b2o28b2o28b2o28b2o13b4o57b2o314b2obo54b2o
28b2o28b2o28b2o28b2o28b2o28b2o28b2o28b2o28b2o28b2o28b2o28b2o28b2o28b2o
28b2o28b2o28b2o28b2o28b2o28b2o28b2o28b2o28b2o28b2o28b2o28b2o28b2o28b2o
28b2o28b2o28b2o28b2o28b2o28b2o28b2o28b2o28b2o13b4o57b2o$3542b2o58b2o
1768b2o58b2o315b3o1180b2o58b2o$3554b2o1828b2o364bo1193b2o$3529bo24bobo
1802bo24bobo1532bo24bobo$3524b2obo3bob2o19bo1799b2obo3bob2o19bo1529b2o
bo3bob2o19bo$3524bo9bo1819bo9bo1549bo9bo$2741b2o58b2o58b2o58b2o58b2o
58b2o58b2o58b2o58b2o58b2o58b2o58b2o122b2o5b2o11b2o1384b2o58b2o58b2o58b
2o58b2o58b2o122b2o5b2o11b2o874b2o58b2o58b2o58b2o58b2o58b2o58b2o58b2o
58b2o58b2o122b2o5b2o11b2o$2473bo268bo59bo59bo59bo59bo59bo59bo59bo59bo
59bo59bo59bo119b3o2b5o2b3o7bobo756bo628bo59bo59bo59bo59bo59bo119b3o2b
5o2b3o7bobo456bo418bo59bo59bo59bo59bo59bo59bo59bo59bo59bo119b3o2b5o2b
3o7bobo$2473b3o263b3o57b3o57b3o57b3o57b3o57b3o57b3o57b3o57b3o57b3o57b
3o57b3o120bo2bo7bo2bo9bo756b3o623b3o57b3o57b3o57b3o57b3o57b3o120bo2bo
7bo2bo9bo456b3o413b3o57b3o57b3o57b3o57b3o57b3o57b3o57b3o57b3o57b3o120b
o2bo7bo2bo9bo$2476bo262bo6b2o51bo6b2o51bo6b2o51bo6b2o51bo6b2o51bo6b2o
51bo6b2o51bo6b2o51bo6b2o51bo6b2o51bo6b2o51bo6b2o115b2o9b2o37b2o731bo
622bo6b2o51bo6b2o51bo6b2o51bo6b2o51bo6b2o51bo6b2o115b2o9b2o37b2o431bo
412bo6b2o51bo6b2o51bo6b2o51bo6b2o51bo6b2o51bo6b2o51bo6b2o51bo6b2o51bo
6b2o51bo6b2o115b2o9b2o37b2o$2475b2o268b3o57b3o57b3o57b3o57b3o57b3o57b
3o57b3o57b3o57b3o57b3o57b3o153b3o2bo5bo3bo728b2o628b3o57b3o57b3o57b3o
57b3o57b3o153b3o2bo5bo3bo428b2o418b3o57b3o57b3o57b3o57b3o57b3o57b3o57b
3o57b3o57b3o153b3o2bo5bo3bo$2745b2obo56b2obo56b2obo56b2obo56b2obo56b2o
bo56b2obo56b2obo56b2obo56b2obo56b2obo56b2obo148bo3bo9bo5bo3b2o1352b2ob
o56b2obo56b2obo56b2obo56b2obo56b2obo148bo3bo9bo5bo3b2o842b2obo56b2obo
56b2obo56b2obo56b2obo56b2obo56b2obo56b2obo56b2obo56b2obo148bo3bo9bo5bo
3b2o$2746b3o57b3o57b3o57b3o57b3o57b3o57b3o57b3o57b3o57b3o57b3o57b3o
119bo8b2o16bobo4bo8bo3bob2o2b2o1353b3o57b3o57b3o57b3o57b3o57b3o119bo8b
2o16bobo4bo8bo3bob2o2b2o843b3o57b3o57b3o57b3o57b3o57b3o57b3o57b3o57b3o
57b3o119bo8b2o16bobo4bo8bo3bob2o2b2o$2747bo59bo59bo59bo59bo59bo59bo59b
o59bo59bo59bo59bo118bobo6bo2bo14b2o16bo5bo1359bo59bo59bo59bo59bo59bo
118bobo6bo2bo14b2o16bo5bo849bo59bo59bo59bo59bo59bo59bo59bo59bo59bo118b
obo6bo2bo14b2o16bo5bo$3519b2o4bobo7bo3bo2b2o9b2o17bo3bo1772b2o4bobo7bo
3bo2b2o9b2o17bo3bo1502b2o4bobo7bo3bo2b2o9b2o17bo3bo$3519b2o3bo2bo7bo2b
2o2b3o8b2o18b2o1774b2o3bo2bo7bo2b2o2b3o8b2o18b2o1504b2o3bo2bo7bo2b2o2b
3o8b2o18b2o$2475b2obob2o1043bobo16b2obo7bobo747b2obob2o1043bobo16b2obo
7bobo447b2obob2o1073bobo16b2obo7bobo$2475bo5bo1044bobo4b3o8bo2bo9bo
747bo5bo1044bobo4b3o8bo2bo9bo447bo5bo1074bobo4b3o8bo2bo9bo$2457b2o17bo
3bo1047bo15b2obo739b2o17bo3bo1047bo15b2obo439b2o17bo3bo1077bo15b2obo$
2458bo18b3o1062b3o743bo18b3o1062b3o443bo18b3o1092b3o$2458bobo4bo1076b
2o744bobo4bo1076b2o444bobo4bo1106b2o$2459b2o3bobo1822b2o3bobo1522b2o3b
obo$2462b2o3bo1824b2o3bo1524b2o3bo$2462b2o3bo1824b2o3bo1524b2o3bo$
2462b2o3bo1824b2o3bo1524b2o3bo$2464bobo1827bobo1527bobo$2465bo23b2o
280b2o118b2o58b2o118b2o238b2o118b2o862bo23b2o760b2o58b2o58b2o58b2o562b
o23b2o490b2o118b2o238b2o118b2o$2490bo280b2o118b2o58b2o118b2o238b2o118b
2o887bo760b2o58b2o58b2o58b2o587bo490b2o118b2o238b2o118b2o$2479b2o9bobo
7b2o266b2o10bo4bo102b2o10bo4bo42b2o10bo4bo102b2o10bo4bo222b2o10bo4bo
102b2o10bo4bo863b2o9bobo7b2o746b2o10bo4bo42b2o10bo4bo42b2o10bo4bo42b2o
10bo4bo563b2o9bobo7b2o476b2o10bo4bo102b2o10bo4bo222b2o10bo4bo102b2o10b
o4bo$2478b3o10b2o6bobo265b3o10bo4bobo99b3o10bo4bobo39b3o10bo4bobo99b3o
10bo4bobo219b3o10bo4bobo99b3o10bo4bobo860b3o10b2o6bobo745b3o10bo4bobo
39b3o10bo4bobo39b3o10bo4bobo39b3o10bo4bobo560b3o10b2o6bobo475b3o10bo4b
obo99b3o10bo4bobo219b3o10bo4bobo99b3o10bo4bobo$2478b2obo16b3o12bo254b
2o10bo7b2o98b2o10bo7b2o38b2o10bo7b2o98b2o10bo7b2o218b2o10bo7b2o98b2o
10bo7b2o858b2obo16b3o12bo734b2o10bo7b2o38b2o10bo7b2o38b2o10bo7b2o38b2o
10bo7b2o558b2obo16b3o12bo464b2o10bo7b2o98b2o10bo7b2o218b2o10bo7b2o98b
2o10bo7b2o$2479b3o15b3o8b2o3b4o245b2o7b2o2b2o11b2o92b2o7b2o2b2o11b2o
32b2o7b2o2b2o11b2o92b2o7b2o2b2o11b2o212b2o7b2o2b2o11b2o92b2o7b2o2b2o
11b2o859b3o15b3o8b2o3b4o725b2o7b2o2b2o11b2o32b2o7b2o2b2o11b2o32b2o7b2o
2b2o11b2o32b2o7b2o2b2o11b2o559b3o15b3o8b2o3b4o455b2o7b2o2b2o11b2o92b2o
7b2o2b2o11b2o212b2o7b2o2b2o11b2o92b2o7b2o2b2o11b2o$2480bo17b3o8b2o3b4o
243bobo7b2o2bo2b2o8b2o91bobo7b2o2bo2b2o8b2o31bobo7b2o2bo2b2o8b2o91bobo
7b2o2bo2b2o8b2o211bobo7b2o2bo2b2o8b2o91bobo7b2o2bo2b2o8b2o860bo17b3o8b
2o3b4o723bobo7b2o2bo2b2o8b2o31bobo7b2o2bo2b2o8b2o31bobo7b2o2bo2b2o8b2o
31bobo7b2o2bo2b2o8b2o560bo17b3o8b2o3b4o453bobo7b2o2bo2b2o8b2o91bobo7b
2o2bo2b2o8b2o211bobo7b2o2bo2b2o8b2o91bobo7b2o2bo2b2o8b2o$2499bobo2b2ob
ob2o3bo2bo243bo14b4o5bobo4b2o87bo14b4o5bobo4b2o27bo14b4o5bobo4b2o87bo
14b4o5bobo4b2o207bo14b4o5bobo4b2o87bo14b4o5bobo4b2o875bobo2b2obob2o3bo
2bo723bo14b4o5bobo4b2o27bo14b4o5bobo4b2o27bo14b4o5bobo4b2o27bo14b4o5bo
bo4b2o575bobo2b2obob2o3bo2bo453bo14b4o5bobo4b2o87bo14b4o5bobo4b2o207bo
14b4o5bobo4b2o87bo14b4o5bobo4b2o$2500b2o2b2obobo4b4o242b2o15bo7bo6bobo
85b2o15bo7bo6bobo25b2o15bo7bo6bobo85b2o15bo7bo6bobo205b2o15bo7bo6bobo
85b2o15bo7bo6bobo875b2o2b2obobo4b4o722b2o15bo7bo6bobo25b2o15bo7bo6bobo
25b2o15bo7bo6bobo25b2o15bo7bo6bobo575b2o2b2obobo4b4o452b2o15bo7bo6bobo
85b2o15bo7bo6bobo205b2o15bo7bo6bobo85b2o15bo7bo6bobo$2506b2obo3b4o4b2o
271bo119bo59bo119bo239bo119bo881b2obo3b4o4b2o751bo59bo59bo59bo581b2obo
3b4o4b2o481bo119bo239bo119bo$2513bo7bobo246b2o22b2o94b2o22b2o34b2o22b
2o94b2o22b2o214b2o22b2o94b2o22b2o887bo7bobo726b2o22b2o34b2o22b2o34b2o
22b2o34b2o22b2o587bo7bobo456b2o22b2o94b2o22b2o214b2o22b2o94b2o22b2o$
2493b2o28bo246b2o118b2o58b2o118b2o238b2o118b2o891b2o28bo726b2o58b2o58b
2o58b2o591b2o28bo456b2o118b2o238b2o118b2o$2492b2o29b2o249bo119bo59bo
119bo239bo119bo887b2o29b2o729bo59bo59bo59bo587b2o29b2o459bo119bo239bo
119bo$2494bo4bo246b2o25b2o31b2o58b2o25b2o31b2o25b2o31b2o58b2o25b2o31b
2o58b2o58b2o58b2o25b2o31b2o58b2o25b2o889bo4bo606b2o58b2o58b2o25b2o31b
2o25b2o31b2o25b2o31b2o25b2o589bo4bo396b2o58b2o25b2o31b2o58b2o25b2o31b
2o58b2o58b2o58b2o25b2o31b2o58b2o25b2o$2497b2o246b3o25bobo21b2o6b3o57b
3o25bobo21b2o6b3o25bobo21b2o6b3o57b3o25bobo21b2o6b3o57b3o57b3o57b3o25b
obo21b2o6b3o57b3o25bobo21b2o868b2o606b3o57b3o57b3o25bobo21b2o6b3o25bob
o21b2o6b3o25bobo21b2o6b3o25bobo21b2o568b2o396b3o57b3o25bobo21b2o6b3o
57b3o25bobo21b2o6b3o57b3o57b3o57b3o25bobo21b2o6b3o57b3o25bobo21b2o$
2498b2o245b2obo48bo7b2obo56b2obo48bo7b2obo48bo7b2obo56b2obo48bo7b2obo
56b2obo56b2obo56b2obo48bo7b2obo56b2obo48bo870b2o605b2obo56b2obo56b2obo
48bo7b2obo48bo7b2obo48bo7b2obo48bo570b2o395b2obo56b2obo48bo7b2obo56b2o
bo48bo7b2obo56b2obo56b2obo56b2obo48bo7b2obo56b2obo48bo$2520b2o224b3o
37b2o7bobo8b3o57b3o37b2o7bobo8b3o37b2o7bobo8b3o57b3o37b2o7bobo8b3o57b
3o57b3o57b3o37b2o7bobo8b3o57b3o37b2o7bobo892b2o584b3o57b3o57b3o37b2o7b
obo8b3o37b2o7bobo8b3o37b2o7bobo8b3o37b2o7bobo592b2o374b3o57b3o37b2o7bo
bo8b3o57b3o37b2o7bobo8b3o57b3o57b3o57b3o37b2o7bobo8b3o57b3o37b2o7bobo$
2520bo226bo38bobo6b2o10bo59bo38bobo6b2o10bo38bobo6b2o10bo59bo38bobo6b
2o10bo59bo59bo59bo38bobo6b2o10bo59bo38bobo6b2o893bo586bo59bo59bo38bobo
6b2o10bo38bobo6b2o10bo38bobo6b2o10bo38bobo6b2o593bo376bo59bo38bobo6b2o
10bo59bo38bobo6b2o10bo59bo59bo59bo38bobo6b2o10bo59bo38bobo6b2o$2486b2o
13bo10bo5bobo255bo4b2o6bo106bo4b2o6bo46bo4b2o6bo106bo4b2o6bo226bo4b2o
6bo106bo4b2o6bo136b2o2b2o14b2o2b2o704b2o13bo10bo5bobo735bo4b2o6bo46bo
4b2o6bo46bo4b2o6bo46bo4b2o6bo136b2o2b2o14b2o2b2o404b2o13bo10bo5bobo
465bo4b2o6bo106bo4b2o6bo226bo4b2o6bo106bo4b2o6bo136b2o2b2o14b2o2b2o$
2487bo12b2o9b2o5b2o242bo12bobo2bo2bo2bo2bo92bo12bobo2bo2bo2bo2bo32bo
12bobo2bo2bo2bo2bo92bo12bobo2bo2bo2bo2bo212bo12bobo2bo2bo2bo2bo92bo12b
obo2bo2bo2bo2bo136b2o2b2o14b2o2b2o705bo12b2o9b2o5b2o722bo12bobo2bo2bo
2bo2bo32bo12bobo2bo2bo2bo2bo32bo12bobo2bo2bo2bo2bo32bo12bobo2bo2bo2bo
2bo136b2o2b2o14b2o2b2o405bo12b2o9b2o5b2o452bo12bobo2bo2bo2bo2bo92bo12b
obo2bo2bo2bo2bo212bo12bobo2bo2bo2bo2bo92bo12bobo2bo2bo2bo2bo136b2o2b2o
14b2o2b2o$2487bobo5bo4bobo7b2o248b2o13b2obob3o6bo90b2o13b2obob3o6bo30b
2o13b2obob3o6bo90b2o13b2obob3o6bo210b2o13b2obob3o6bo90b2o13b2obob3o6bo
867bobo5bo4bobo7b2o728b2o13b2obob3o6bo30b2o13b2obob3o6bo30b2o13b2obob
3o6bo30b2o13b2obob3o6bo567bobo5bo4bobo7b2o458b2o13b2obob3o6bo90b2o13b
2obob3o6bo210b2o13b2obob3o6bo90b2o13b2obob3o6bo$2488b2o3bobo13b3o249b
2o12b2ob2o6bobo92b2o12b2ob2o6bobo32b2o12b2ob2o6bobo92b2o12b2ob2o6bobo
212b2o12b2ob2o6bobo92b2o12b2ob2o6bobo869b2o3bobo13b3o729b2o12b2ob2o6bo
bo32b2o12b2ob2o6bobo32b2o12b2ob2o6bobo32b2o12b2ob2o6bobo569b2o3bobo13b
3o459b2o12b2ob2o6bobo92b2o12b2ob2o6bobo212b2o12b2ob2o6bobo92b2o12b2ob
2o6bobo$2492bobo15b2o3b2o258b2obo7b2o107b2obo7b2o47b2obo7b2o107b2obo7b
2o227b2obo7b2o107b2obo7b2o96bobo57b2o6b2o708bobo15b2o3b2o738b2obo7b2o
47b2obo7b2o47b2obo7b2o47b2obo7b2o96bobo57b2o6b2o408bobo15b2o3b2o468b2o
bo7b2o107b2obo7b2o227b2obo7b2o107b2obo7b2o96bobo57b2o6b2o$2491bo2bo16b
2o252b2o8bobo107b2o8bobo47b2o8bobo107b2o8bobo227b2o8bobo107b2o8bobo
104bo3bo57b2o6b2o707bo2bo16b2o732b2o8bobo47b2o8bobo47b2o8bobo47b2o8bob
o104bo3bo57b2o6b2o407bo2bo16b2o462b2o8bobo107b2o8bobo227b2o8bobo107b2o
8bobo104bo3bo57b2o6b2o$2492bobo17bo251bobo9bo107bobo9bo47bobo9bo107bob
o9bo227bobo9bo107bobo9bo105bo19bo759bobo17bo731bobo9bo47bobo9bo47bobo
9bo47bobo9bo105bo19bo459bobo17bo461bobo9bo107bobo9bo227bobo9bo107bobo
9bo105bo19bo$2493bobo268bo119bo59bo119bo239bo119bo110b2o4bo4bo14b4o
758bobo748bo59bo59bo59bo110b2o4bo4bo14b4o458bobo478bo119bo239bo119bo
110b2o4bo4bo14b4o$2495bo267b2o118b2o58b2o118b2o238b2o118b2o110b2o5bo
12bo4b2obobo36b2o2b2o2b2o2b2o709bo747b2o58b2o58b2o58b2o110b2o5bo12bo4b
2obobo36b2o2b2o2b2o2b2o409bo477b2o118b2o238b2o118b2o110b2o5bo12bo4b2ob
obo36b2o2b2o2b2o2b2o$3542bo3bo3bob2o5b3obo2bo2b2o31b2o2b2o2b2o2b2o
1756bo3bo3bob2o5b3obo2bo2b2o31b2o2b2o2b2o2b2o1486bo3bo3bob2o5b3obo2bo
2b2o31b2o2b2o2b2o2b2o$3544bobo2bob4o5b2obobo3b2o1803bobo2bob4o5b2obobo
3b2o1533bobo2bob4o5b2obobo3b2o$3549b2o2b2o6b4o1814b2o2b2o6b4o1544b2o2b
2o6b4o$3562bo39b2o10b2o1776bo39b2o10b2o1506bo39b2o10b2o$2507b2o28b2o
28b2o28b2o28b2o28b2o28b2o28b2o28b2o28b2o28b2o28b2o28b2o28b2o28b2o28b2o
28b2o28b2o28b2o28b2o28b2o28b2o28b2o28b2o28b2o28b2o28b2o28b2o28b2o28b2o
28b2o28b2o28b2o28b2o28b2o73b2o10b2o721b2o28b2o28b2o28b2o28b2o28b2o28b
2o28b2o28b2o28b2o28b2o28b2o28b2o28b2o28b2o28b2o28b2o28b2o28b2o28b2o28b
2o28b2o28b2o28b2o28b2o28b2o28b2o28b2o28b2o28b2o28b2o28b2o28b2o28b2o28b
2o73b2o10b2o421b2o28b2o28b2o28b2o28b2o28b2o28b2o28b2o28b2o28b2o28b2o
28b2o28b2o28b2o28b2o28b2o28b2o28b2o28b2o28b2o28b2o28b2o28b2o28b2o28b2o
28b2o28b2o28b2o28b2o28b2o28b2o28b2o28b2o28b2o28b2o28b2o73b2o10b2o$
2506b4o26b4o26b4o26b4o26b4o26b4o26b4o26b4o26b4o26b4o26b4o26b4o26b4o26b
4o26b4o26b4o26b4o26b4o26b4o26b4o26b4o26b4o26b4o26b4o26b4o26b4o26b4o26b
4o26b4o26b4o26b4o26b4o26b4o26b4o26b4o11b2o793b4o26b4o26b4o26b4o26b4o
26b4o26b4o26b4o26b4o26b4o26b4o26b4o26b4o26b4o26b4o26b4o26b4o26b4o26b4o
26b4o26b4o26b4o26b4o26b4o26b4o26b4o26b4o26b4o26b4o26b4o26b4o26b4o26b4o
26b4o26b4o11b2o493b4o26b4o26b4o26b4o26b4o26b4o26b4o26b4o26b4o26b4o26b
4o26b4o26b4o26b4o26b4o26b4o26b4o26b4o26b4o26b4o26b4o26b4o26b4o26b4o26b
4o26b4o26b4o26b4o26b4o26b4o26b4o26b4o26b4o26b4o26b4o26b4o11b2o$2505b2o
b2o25b2ob2o25b2ob2o25b2ob2o25b2ob2o25b2ob2o25b2ob2o25b2ob2o25b2ob2o25b
2ob2o25b2ob2o25b2ob2o25b2ob2o25b2ob2o25b2ob2o25b2ob2o25b2ob2o25b2ob2o
25b2ob2o25b2ob2o25b2ob2o25b2ob2o25b2ob2o25b2ob2o25b2ob2o25b2ob2o25b2ob
2o25b2ob2o25b2ob2o25b2ob2o25b2ob2o25b2ob2o25b2ob2o25b2ob2o25b2ob2o10b
2ob2o790b2ob2o25b2ob2o25b2ob2o25b2ob2o25b2ob2o25b2ob2o25b2ob2o25b2ob2o
25b2ob2o25b2ob2o25b2ob2o25b2ob2o25b2ob2o25b2ob2o25b2ob2o25b2ob2o25b2ob
2o25b2ob2o25b2ob2o25b2ob2o25b2ob2o25b2ob2o25b2ob2o25b2ob2o25b2ob2o25b
2ob2o25b2ob2o25b2ob2o25b2ob2o25b2ob2o25b2ob2o25b2ob2o25b2ob2o25b2ob2o
25b2ob2o10b2ob2o490b2ob2o25b2ob2o25b2ob2o25b2ob2o25b2ob2o25b2ob2o25b2o
b2o25b2ob2o25b2ob2o25b2ob2o25b2ob2o25b2ob2o25b2ob2o25b2ob2o25b2ob2o25b
2ob2o25b2ob2o25b2ob2o25b2ob2o25b2ob2o25b2ob2o25b2ob2o25b2ob2o25b2ob2o
25b2ob2o25b2ob2o25b2ob2o25b2ob2o25b2ob2o25b2ob2o25b2ob2o25b2ob2o25b2ob
2o25b2ob2o25b2ob2o25b2ob2o10b2ob2o$2506b2o28b2o28b2o28b2o28b2o28b2o28b
2o28b2o28b2o28b2o28b2o28b2o28b2o28b2o28b2o28b2o28b2o28b2o28b2o28b2o28b
2o28b2o28b2o28b2o28b2o28b2o28b2o28b2o28b2o28b2o28b2o28b2o28b2o28b2o28b
2o13b4o57b2o10b2o720b2o28b2o28b2o28b2o28b2o28b2o28b2o28b2o28b2o28b2o
28b2o28b2o28b2o28b2o28b2o28b2o28b2o28b2o28b2o28b2o28b2o28b2o28b2o28b2o
28b2o28b2o28b2o28b2o28b2o28b2o28b2o28b2o28b2o28b2o28b2o13b4o57b2o10b2o
420b2o28b2o28b2o28b2o28b2o28b2o28b2o28b2o28b2o28b2o28b2o28b2o28b2o28b
2o28b2o28b2o28b2o28b2o28b2o28b2o28b2o28b2o28b2o28b2o28b2o28b2o28b2o28b
2o28b2o28b2o28b2o28b2o28b2o28b2o28b2o28b2o13b4o57b2o10b2o$3542b2o58b2o
10b2o1756b2o58b2o10b2o1486b2o58b2o10b2o$3554b2o1828b2o1558b2o$3529bo
24bobo1802bo24bobo1532bo24bobo$3524b2obo3bob2o19bo1799b2obo3bob2o19bo
1529b2obo3bob2o19bo$3524bo9bo1819bo9bo1549bo9bo$2741b2o58b2o58b2o58b2o
58b2o58b2o58b2o58b2o58b2o58b2o58b2o58b2o122b2o5b2o11b2o1384b2o58b2o58b
2o58b2o58b2o58b2o122b2o5b2o11b2o874b2o58b2o58b2o58b2o58b2o58b2o58b2o
58b2o58b2o58b2o122b2o5b2o11b2o$2533bo208bo59bo59bo59bo59bo59bo59bo59bo
59bo59bo59bo59bo119b3o2b5o2b3o7bobo816bo568bo59bo59bo59bo59bo59bo119b
3o2b5o2b3o7bobo516bo358bo59bo59bo59bo59bo59bo59bo59bo59bo59bo119b3o2b
5o2b3o7bobo$2533b3o203b3o57b3o57b3o57b3o57b3o57b3o57b3o57b3o57b3o57b3o
57b3o57b3o120bo2bo7bo2bo9bo816b3o563b3o57b3o57b3o57b3o57b3o57b3o120bo
2bo7bo2bo9bo516b3o353b3o57b3o57b3o57b3o57b3o57b3o57b3o57b3o57b3o57b3o
120bo2bo7bo2bo9bo$2536bo202bo6b2o51bo6b2o51bo6b2o51bo6b2o51bo6b2o51bo
6b2o51bo6b2o51bo6b2o51bo6b2o51bo6b2o51bo6b2o51bo6b2o115b2o9b2o37b2o
791bo562bo6b2o51bo6b2o51bo6b2o51bo6b2o51bo6b2o51bo6b2o115b2o9b2o37b2o
491bo352bo6b2o51bo6b2o51bo6b2o51bo6b2o51bo6b2o51bo6b2o51bo6b2o51bo6b2o
51bo6b2o51bo6b2o115b2o9b2o37b2o$2535b2o208b3o57b3o57b3o57b3o57b3o57b3o
57b3o57b3o57b3o57b3o57b3o57b3o153b3o2bo5bo3bo788b2o568b3o57b3o57b3o57b
3o57b3o57b3o153b3o2bo5bo3bo488b2o358b3o57b3o57b3o57b3o57b3o57b3o57b3o
57b3o57b3o57b3o153b3o2bo5bo3bo$2745b2obo56b2obo56b2obo56b2obo56b2obo
56b2obo56b2obo56b2obo56b2obo56b2obo56b2obo56b2obo148bo3bo9bo5bo3b2o
1352b2obo56b2obo56b2obo56b2obo56b2obo56b2obo148bo3bo9bo5bo3b2o842b2obo
56b2obo56b2obo56b2obo56b2obo56b2obo56b2obo56b2obo56b2obo56b2obo148bo3b
o9bo5bo3b2o$2746b3o57b3o57b3o57b3o57b3o57b3o57b3o57b3o57b3o57b3o57b3o
57b3o119bo8b2o16bobo4bo8bo3bob2o2b2o1353b3o57b3o57b3o57b3o57b3o57b3o
119bo8b2o16bobo4bo8bo3bob2o2b2o843b3o57b3o57b3o57b3o57b3o57b3o57b3o57b
3o57b3o57b3o119bo8b2o16bobo4bo8bo3bob2o2b2o$2747bo59bo59bo59bo59bo59bo
59bo59bo59bo59bo59bo59bo118bobo6bo2bo14b2o16bo5bo1359bo59bo59bo59bo59b
o59bo118bobo6bo2bo14b2o16bo5bo849bo59bo59bo59bo59bo59bo59bo59bo59bo59b
o118bobo6bo2bo14b2o16bo5bo$3519b2o4bobo7bo3bo2b2o9b2o17bo3bo1772b2o4bo
bo7bo3bo2b2o9b2o17bo3bo1502b2o4bobo7bo3bo2b2o9b2o17bo3bo$3519b2o3bo2bo
7bo2b2o2b3o8b2o18b2o1774b2o3bo2bo7bo2b2o2b3o8b2o18b2o1504b2o3bo2bo7bo
2b2o2b3o8b2o18b2o$2535b2obob2o983bobo16b2obo7bobo807b2obob2o983bobo16b
2obo7bobo507b2obob2o1013bobo16b2obo7bobo$2535bo5bo984bobo4b3o8bo2bo9bo
807bo5bo984bobo4b3o8bo2bo9bo507bo5bo1014bobo4b3o8bo2bo9bo$2517b2o17bo
3bo987bo15b2obo799b2o17bo3bo987bo15b2obo499b2o17bo3bo1017bo15b2obo$
2518bo18b3o1002b3o803bo18b3o1002b3o503bo18b3o1032b3o$2518bobo4bo1016b
2o804bobo4bo1016b2o504bobo4bo1046b2o$2519b2o3bobo1822b2o3bobo1522b2o3b
obo$2522b2o3bo1824b2o3bo1524b2o3bo$2522b2o3bo1824b2o3bo1524b2o3bo$
2522b2o3bo1824b2o3bo1524b2o3bo$2524bobo1827bobo1527bobo$2525bo23b2o
400b2o418b2o982bo23b2o580b2o118b2o802bo23b2o430b2o298b2o$2550bo400b2o
418b2o1007bo580b2o118b2o827bo430b2o298b2o$2539b2o9bobo7b2o386b2o10bo4b
o402b2o10bo4bo923b2o58b2o9bobo7b2o566b2o10bo4bo102b2o10bo4bo803b2o9bob
o7b2o416b2o10bo4bo282b2o10bo4bo$2538b3o10b2o6bobo385b3o10bo4bobo399b3o
10bo4bobo920b3o57b3o10b2o6bobo565b3o10bo4bobo99b3o10bo4bobo800b3o10b2o
6bobo415b3o10bo4bobo279b3o10bo4bobo$2538b2obo16b3o12bo374b2o10bo7b2o
398b2o10bo7b2o918b2obo56b2obo16b3o12bo554b2o10bo7b2o98b2o10bo7b2o798b
2obo16b3o12bo404b2o10bo7b2o278b2o10bo7b2o$2539b3o15b3o8b2o3b4o365b2o7b
2o2b2o11b2o392b2o7b2o2b2o11b2o919b3o57b3o15b3o8b2o3b4o545b2o7b2o2b2o
11b2o92b2o7b2o2b2o11b2o799b3o15b3o8b2o3b4o395b2o7b2o2b2o11b2o272b2o7b
2o2b2o11b2o$2540bo17b3o8b2o3b4o363bobo7b2o2bo2b2o8b2o391bobo7b2o2bo2b
2o8b2o920bo59bo17b3o8b2o3b4o543bobo7b2o2bo2b2o8b2o91bobo7b2o2bo2b2o8b
2o800bo17b3o8b2o3b4o393bobo7b2o2bo2b2o8b2o271bobo7b2o2bo2b2o8b2o$2559b
obo2b2obob2o3bo2bo363bo14b4o5bobo4b2o387bo14b4o5bobo4b2o995bobo2b2obob
2o3bo2bo543bo14b4o5bobo4b2o87bo14b4o5bobo4b2o815bobo2b2obob2o3bo2bo
393bo14b4o5bobo4b2o267bo14b4o5bobo4b2o$2560b2o2b2obobo4b4o362b2o15bo7b
o6bobo385b2o15bo7bo6bobo995b2o2b2obobo4b4o542b2o15bo7bo6bobo85b2o15bo
7bo6bobo815b2o2b2obobo4b4o392b2o15bo7bo6bobo265b2o15bo7bo6bobo$2566b2o
bo3b4o4b2o391bo419bo1001b2obo3b4o4b2o571bo119bo821b2obo3b4o4b2o421bo
299bo$2573bo7bobo366b2o22b2o394b2o22b2o1007bo7bobo546b2o22b2o94b2o22b
2o827bo7bobo396b2o22b2o274b2o22b2o$2553b2o28bo366b2o418b2o1011b2o28bo
546b2o118b2o831b2o28bo396b2o298b2o$2552b2o29b2o369bo419bo1007b2o29b2o
549bo119bo827b2o29b2o399bo299bo$2554bo4bo186b2o58b2o58b2o58b2o25b2o31b
2o58b2o58b2o58b2o58b2o58b2o58b2o25b2o31b2o976bo4bo546b2o25b2o31b2o58b
2o25b2o31b2o58b2o58b2o676bo4bo336b2o58b2o25b2o31b2o58b2o58b2o58b2o58b
2o25b2o31b2o58b2o58b2o$2557b2o186b3o57b3o57b3o57b3o25bobo21b2o6b3o57b
3o57b3o57b3o57b3o57b3o57b3o25bobo21b2o6b3o979b2o546b3o25bobo21b2o6b3o
57b3o25bobo21b2o6b3o57b3o57b3o679b2o336b3o57b3o25bobo21b2o6b3o57b3o57b
3o57b3o57b3o25bobo21b2o6b3o57b3o57b3o$2558b2o185b2obo56b2obo56b2obo56b
2obo48bo7b2obo56b2obo56b2obo56b2obo56b2obo56b2obo56b2obo48bo7b2obo979b
2o545b2obo48bo7b2obo56b2obo48bo7b2obo56b2obo56b2obo679b2o335b2obo56b2o
bo48bo7b2obo56b2obo56b2obo56b2obo56b2obo48bo7b2obo56b2obo56b2obo$2580b
2o164b3o57b3o57b3o57b3o37b2o7bobo8b3o57b3o57b3o57b3o57b3o57b3o57b3o37b
2o7bobo8b3o1001b2o524b3o37b2o7bobo8b3o57b3o37b2o7bobo8b3o57b3o57b3o
701b2o314b3o57b3o37b2o7bobo8b3o57b3o57b3o57b3o57b3o37b2o7bobo8b3o57b3o
57b3o$2580bo166bo59bo59bo59bo38bobo6b2o10bo59bo59bo59bo59bo59bo59bo38b
obo6b2o10bo1002bo526bo38bobo6b2o10bo59bo38bobo6b2o10bo59bo59bo702bo
316bo59bo38bobo6b2o10bo59bo59bo59bo59bo38bobo6b2o10bo59bo59bo$2546b2o
13bo10bo5bobo375bo4b2o6bo406bo4b2o6bo212b2o2b2o2b2o764b2o13bo10bo5bobo
555bo4b2o6bo106bo4b2o6bo332b2o2b2o2b2o464b2o13bo10bo5bobo405bo4b2o6bo
286bo4b2o6bo332b2o2b2o2b2o$2547bo12b2o9b2o5b2o362bo12bobo2bo2bo2bo2bo
392bo12bobo2bo2bo2bo2bo212b2o2b2o2b2o765bo12b2o9b2o5b2o542bo12bobo2bo
2bo2bo2bo92bo12bobo2bo2bo2bo2bo332b2o2b2o2b2o465bo12b2o9b2o5b2o392bo
12bobo2bo2bo2bo2bo272bo12bobo2bo2bo2bo2bo332b2o2b2o2b2o$2547bobo5bo4bo
bo7b2o368b2o13b2obob3o6bo390b2o13b2obob3o6bo204b2o18b2o761bobo5bo4bobo
7b2o548b2o13b2obob3o6bo90b2o13b2obob3o6bo324b2o18b2o461bobo5bo4bobo7b
2o398b2o13b2obob3o6bo270b2o13b2obob3o6bo324b2o18b2o$2548b2o3bobo13b3o
369b2o12b2ob2o6bobo392b2o12b2ob2o6bobo205b2o18b2o762b2o3bobo13b3o549b
2o12b2ob2o6bobo92b2o12b2ob2o6bobo325b2o18b2o462b2o3bobo13b3o399b2o12b
2ob2o6bobo272b2o12b2ob2o6bobo325b2o18b2o$2552bobo15b2o3b2o378b2obo7b2o
407b2obo7b2o156bobo55b2o778bobo15b2o3b2o558b2obo7b2o107b2obo7b2o276bob
o55b2o478bobo15b2o3b2o408b2obo7b2o287b2obo7b2o276bobo55b2o$2551bo2bo
16b2o372b2o8bobo407b2o8bobo164bo3bo55b2o777bo2bo16b2o552b2o8bobo107b2o
8bobo284bo3bo55b2o477bo2bo16b2o402b2o8bobo287b2o8bobo284bo3bo55b2o$
2552bobo17bo371bobo9bo407bobo9bo165bo19bo31b2o18b2o766bobo17bo551bobo
9bo107bobo9bo285bo19bo31b2o18b2o466bobo17bo401bobo9bo287bobo9bo285bo
19bo31b2o18b2o$2553bobo388bo419bo170b2o4bo4bo14b4o29b2o18b2o767bobo
568bo119bo290b2o4bo4bo14b4o29b2o18b2o467bobo418bo299bo290b2o4bo4bo14b
4o29b2o18b2o$2555bo387b2o418b2o170b2o5bo12bo4b2obobo36b2o2b2o2b2o773bo
567b2o118b2o290b2o5bo12bo4b2obobo36b2o2b2o2b2o473bo417b2o298b2o290b2o
5bo12bo4b2obobo36b2o2b2o2b2o$3542bo3bo3bob2o5b3obo2bo2b2o31b2o2b2o2b2o
1760bo3bo3bob2o5b3obo2bo2b2o31b2o2b2o2b2o1490bo3bo3bob2o5b3obo2bo2b2o
31b2o2b2o2b2o$3544bobo2bob4o5b2obobo3b2o43b2o1758bobo2bob4o5b2obobo3b
2o43b2o1488bobo2bob4o5b2obobo3b2o43b2o$3549b2o2b2o6b4o49b2o1763b2o2b2o
6b4o49b2o1493b2o2b2o6b4o49b2o$3562bo39b2o1788bo39b2o1518bo39b2o$2567b
2o28b2o28b2o28b2o28b2o28b2o28b2o28b2o28b2o28b2o28b2o28b2o28b2o28b2o28b
2o28b2o28b2o28b2o28b2o28b2o28b2o28b2o28b2o28b2o28b2o28b2o28b2o28b2o28b
2o28b2o28b2o28b2o28b2o73b2o793b2o28b2o28b2o28b2o28b2o28b2o28b2o28b2o
28b2o28b2o28b2o28b2o28b2o28b2o28b2o28b2o28b2o28b2o28b2o28b2o28b2o28b2o
28b2o28b2o28b2o28b2o28b2o28b2o28b2o28b2o28b2o28b2o28b2o73b2o493b2o28b
2o28b2o28b2o28b2o28b2o28b2o28b2o28b2o28b2o28b2o28b2o28b2o28b2o28b2o28b
2o28b2o28b2o28b2o28b2o28b2o28b2o28b2o28b2o28b2o28b2o28b2o28b2o28b2o28b
2o28b2o28b2o28b2o28b2o73b2o$2566b4o26b4o26b4o26b4o26b4o26b4o26b4o26b4o
26b4o26b4o26b4o26b4o26b4o26b4o26b4o26b4o26b4o26b4o26b4o26b4o26b4o26b4o
26b4o26b4o26b4o26b4o26b4o26b4o26b4o26b4o26b4o26b4o26b4o11b2o71b2o780b
4o26b4o26b4o26b4o26b4o26b4o26b4o26b4o26b4o26b4o26b4o26b4o26b4o26b4o26b
4o26b4o26b4o26b4o26b4o26b4o26b4o26b4o26b4o26b4o26b4o26b4o26b4o26b4o26b
4o26b4o26b4o26b4o26b4o11b2o71b2o480b4o26b4o26b4o26b4o26b4o26b4o26b4o
26b4o26b4o26b4o26b4o26b4o26b4o26b4o26b4o26b4o26b4o26b4o26b4o26b4o26b4o
26b4o26b4o26b4o26b4o26b4o26b4o26b4o26b4o26b4o26b4o26b4o26b4o26b4o11b2o
71b2o$2565b2ob2o25b2ob2o25b2ob2o25b2ob2o25b2ob2o25b2ob2o25b2ob2o25b2ob
2o25b2ob2o25b2ob2o25b2ob2o25b2ob2o25b2ob2o25b2ob2o25b2ob2o25b2ob2o25b
2ob2o25b2ob2o25b2ob2o25b2ob2o25b2ob2o25b2ob2o25b2ob2o25b2ob2o25b2ob2o
25b2ob2o25b2ob2o25b2ob2o25b2ob2o25b2ob2o25b2ob2o25b2ob2o25b2ob2o10b2ob
2o69b2o779b2ob2o25b2ob2o25b2ob2o25b2ob2o25b2ob2o25b2ob2o25b2ob2o25b2ob
2o25b2ob2o25b2ob2o25b2ob2o25b2ob2o25b2ob2o25b2ob2o25b2ob2o25b2ob2o25b
2ob2o25b2ob2o25b2ob2o25b2ob2o25b2ob2o25b2ob2o25b2ob2o25b2ob2o25b2ob2o
25b2ob2o25b2ob2o25b2ob2o25b2ob2o25b2ob2o25b2ob2o25b2ob2o25b2ob2o10b2ob
2o69b2o479b2ob2o25b2ob2o25b2ob2o25b2ob2o25b2ob2o25b2ob2o25b2ob2o25b2ob
2o25b2ob2o25b2ob2o25b2ob2o25b2ob2o25b2ob2o25b2ob2o25b2ob2o25b2ob2o25b
2ob2o25b2ob2o25b2ob2o25b2ob2o25b2ob2o25b2ob2o25b2ob2o25b2ob2o25b2ob2o
25b2ob2o25b2ob2o25b2ob2o25b2ob2o25b2ob2o25b2ob2o25b2ob2o25b2ob2o25b2ob
2o10b2ob2o69b2o$2566b2o28b2o28b2o28b2o28b2o28b2o28b2o28b2o28b2o28b2o
28b2o28b2o28b2o28b2o28b2o28b2o28b2o28b2o28b2o28b2o28b2o28b2o28b2o28b2o
28b2o28b2o28b2o28b2o28b2o28b2o28b2o28b2o28b2o13b4o57b2o2b2o2b2o784b2o
28b2o28b2o28b2o28b2o28b2o28b2o28b2o28b2o28b2o28b2o28b2o28b2o28b2o28b2o
28b2o28b2o28b2o28b2o28b2o28b2o28b2o28b2o28b2o28b2o28b2o28b2o28b2o28b2o
28b2o28b2o28b2o28b2o13b4o57b2o2b2o2b2o484b2o28b2o28b2o28b2o28b2o28b2o
28b2o28b2o28b2o28b2o28b2o28b2o28b2o28b2o28b2o28b2o28b2o28b2o28b2o28b2o
28b2o28b2o28b2o28b2o28b2o28b2o28b2o28b2o28b2o28b2o28b2o28b2o28b2o28b2o
13b4o57b2o2b2o2b2o$3542b2o58b2o2b2o2b2o1760b2o58b2o2b2o2b2o1490b2o58b
2o2b2o2b2o$3554b2o1828b2o1558b2o$3529bo24bobo1802bo24bobo1532bo24bobo$
3524b2obo3bob2o19bo1799b2obo3bob2o19bo1529b2obo3bob2o19bo$3524bo9bo
1819bo9bo1549bo9bo$2741b2o58b2o58b2o58b2o58b2o58b2o58b2o58b2o58b2o58b
2o58b2o58b2o122b2o5b2o11b2o1384b2o58b2o58b2o58b2o58b2o58b2o122b2o5b2o
11b2o874b2o58b2o58b2o58b2o58b2o58b2o58b2o58b2o58b2o58b2o122b2o5b2o11b
2o$2593bo148bo59bo59bo59bo59bo59bo59bo59bo59bo59bo59bo59bo119b3o2b5o2b
3o7bobo876bo508bo59bo59bo59bo59bo59bo119b3o2b5o2b3o7bobo576bo298bo59bo
59bo59bo59bo59bo59bo59bo59bo59bo119b3o2b5o2b3o7bobo$2593b3o143b3o57b3o
57b3o57b3o57b3o57b3o57b3o57b3o57b3o57b3o57b3o57b3o120bo2bo7bo2bo9bo
876b3o503b3o57b3o57b3o57b3o57b3o57b3o120bo2bo7bo2bo9bo576b3o293b3o57b
3o57b3o57b3o57b3o57b3o57b3o57b3o57b3o57b3o120bo2bo7bo2bo9bo$2596bo142b
o6b2o51bo6b2o51bo6b2o51bo6b2o51bo6b2o51bo6b2o51bo6b2o51bo6b2o51bo6b2o
51bo6b2o51bo6b2o51bo6b2o115b2o9b2o37b2o851bo502bo6b2o51bo6b2o51bo6b2o
51bo6b2o51bo6b2o51bo6b2o115b2o9b2o37b2o551bo292bo6b2o51bo6b2o51bo6b2o
51bo6b2o51bo6b2o51bo6b2o51bo6b2o51bo6b2o51bo6b2o51bo6b2o115b2o9b2o37b
2o$2595b2o148b3o57b3o57b3o57b3o57b3o57b3o57b3o57b3o57b3o57b3o57b3o57b
3o153b3o2bo5bo3bo848b2o508b3o57b3o57b3o57b3o57b3o57b3o153b3o2bo5bo3bo
548b2o298b3o57b3o57b3o57b3o57b3o57b3o57b3o57b3o57b3o57b3o153b3o2bo5bo
3bo$2745b2obo56b2obo56b2obo56b2obo56b2obo56b2obo56b2obo56b2obo56b2obo
56b2obo56b2obo56b2obo148bo3bo9bo5bo3b2o1352b2obo56b2obo56b2obo56b2obo
56b2obo56b2obo148bo3bo9bo5bo3b2o842b2obo56b2obo56b2obo56b2obo56b2obo
56b2obo56b2obo56b2obo56b2obo56b2obo148bo3bo9bo5bo3b2o$2746b3o57b3o57b
3o57b3o57b3o57b3o57b3o57b3o57b3o57b3o57b3o57b3o119bo8b2o16bobo4bo8bo3b
ob2o2b2o1353b3o57b3o57b3o57b3o57b3o57b3o119bo8b2o16bobo4bo8bo3bob2o2b
2o843b3o57b3o57b3o57b3o57b3o57b3o57b3o57b3o57b3o57b3o119bo8b2o16bobo4b
o8bo3bob2o2b2o$2747bo59bo59bo59bo59bo59bo59bo59bo59bo59bo59bo59bo118bo
bo6bo2bo14b2o16bo5bo1359bo59bo59bo59bo59bo59bo118bobo6bo2bo14b2o16bo5b
o849bo59bo59bo59bo59bo59bo59bo59bo59bo59bo118bobo6bo2bo14b2o16bo5bo$
3519b2o4bobo7bo3bo2b2o9b2o17bo3bo1772b2o4bobo7bo3bo2b2o9b2o17bo3bo
1502b2o4bobo7bo3bo2b2o9b2o17bo3bo$3519b2o3bo2bo7bo2b2o2b3o8b2o18b2o
1774b2o3bo2bo7bo2b2o2b3o8b2o18b2o1504b2o3bo2bo7bo2b2o2b3o8b2o18b2o$
2595b2obob2o923bobo16b2obo7bobo867b2obob2o923bobo16b2obo7bobo567b2obob
2o953bobo16b2obo7bobo$2595bo5bo924bobo4b3o8bo2bo9bo867bo5bo924bobo4b3o
8bo2bo9bo567bo5bo954bobo4b3o8bo2bo9bo$2577b2o17bo3bo927bo15b2obo859b2o
17bo3bo927bo15b2obo559b2o17bo3bo957bo15b2obo$2578bo18b3o942b3o863bo18b
3o942b3o563bo18b3o972b3o$2578bobo4bo956b2o864bobo4bo956b2o564bobo4bo
986b2o$2579b2o3bobo1822b2o3bobo1522b2o3bobo$2582b2o3bo1824b2o3bo1524b
2o3bo$2582b2o3bo1824b2o3bo1524b2o3bo$2582b2o3bo1824b2o3bo1524b2o3bo$
2584bobo1827bobo1527bobo$2585bo23b2o160b2o238b2o238b2o58b2o58b2o58b2o
982bo23b2o520b2o178b2o802bo23b2o310b2o238b2o118b2o58b2o$2610bo160b2o
238b2o238b2o58b2o58b2o58b2o1007bo520b2o178b2o827bo310b2o238b2o118b2o
58b2o$2599b2o9bobo7b2o146b2o10bo4bo222b2o10bo4bo222b2o10bo4bo42b2o10bo
4bo42b2o10bo4bo42b2o10bo4bo923b2o58b2o9bobo7b2o506b2o10bo4bo162b2o10bo
4bo803b2o9bobo7b2o296b2o10bo4bo222b2o10bo4bo102b2o10bo4bo42b2o10bo4bo$
2598b3o10b2o6bobo145b3o10bo4bobo219b3o10bo4bobo219b3o10bo4bobo39b3o10b
o4bobo39b3o10bo4bobo39b3o10bo4bobo920b3o57b3o10b2o6bobo505b3o10bo4bobo
159b3o10bo4bobo800b3o10b2o6bobo295b3o10bo4bobo219b3o10bo4bobo99b3o10bo
4bobo39b3o10bo4bobo$2598b2obo16b3o12bo134b2o10bo7b2o218b2o10bo7b2o218b
2o10bo7b2o38b2o10bo7b2o38b2o10bo7b2o38b2o10bo7b2o918b2obo56b2obo16b3o
12bo494b2o10bo7b2o158b2o10bo7b2o798b2obo16b3o12bo284b2o10bo7b2o218b2o
10bo7b2o98b2o10bo7b2o38b2o10bo7b2o$2599b3o15b3o8b2o3b4o125b2o7b2o2b2o
11b2o212b2o7b2o2b2o11b2o212b2o7b2o2b2o11b2o32b2o7b2o2b2o11b2o32b2o7b2o
2b2o11b2o32b2o7b2o2b2o11b2o919b3o57b3o15b3o8b2o3b4o485b2o7b2o2b2o11b2o
152b2o7b2o2b2o11b2o799b3o15b3o8b2o3b4o275b2o7b2o2b2o11b2o212b2o7b2o2b
2o11b2o92b2o7b2o2b2o11b2o32b2o7b2o2b2o11b2o$2600bo17b3o8b2o3b4o123bobo
7b2o2bo2b2o8b2o211bobo7b2o2bo2b2o8b2o211bobo7b2o2bo2b2o8b2o31bobo7b2o
2bo2b2o8b2o31bobo7b2o2bo2b2o8b2o31bobo7b2o2bo2b2o8b2o920bo59bo17b3o8b
2o3b4o483bobo7b2o2bo2b2o8b2o151bobo7b2o2bo2b2o8b2o800bo17b3o8b2o3b4o
273bobo7b2o2bo2b2o8b2o211bobo7b2o2bo2b2o8b2o91bobo7b2o2bo2b2o8b2o31bob
o7b2o2bo2b2o8b2o$2619bobo2b2obob2o3bo2bo123bo14b4o5bobo4b2o207bo14b4o
5bobo4b2o207bo14b4o5bobo4b2o27bo14b4o5bobo4b2o27bo14b4o5bobo4b2o27bo
14b4o5bobo4b2o995bobo2b2obob2o3bo2bo483bo14b4o5bobo4b2o147bo14b4o5bobo
4b2o815bobo2b2obob2o3bo2bo273bo14b4o5bobo4b2o207bo14b4o5bobo4b2o87bo
14b4o5bobo4b2o27bo14b4o5bobo4b2o$2620b2o2b2obobo4b4o122b2o15bo7bo6bobo
205b2o15bo7bo6bobo205b2o15bo7bo6bobo25b2o15bo7bo6bobo25b2o15bo7bo6bobo
25b2o15bo7bo6bobo995b2o2b2obobo4b4o482b2o15bo7bo6bobo145b2o15bo7bo6bob
o815b2o2b2obobo4b4o272b2o15bo7bo6bobo205b2o15bo7bo6bobo85b2o15bo7bo6bo
bo25b2o15bo7bo6bobo$2626b2obo3b4o4b2o151bo239bo239bo59bo59bo59bo1001b
2obo3b4o4b2o511bo179bo821b2obo3b4o4b2o301bo239bo119bo59bo$2633bo7bobo
126b2o22b2o214b2o22b2o214b2o22b2o34b2o22b2o34b2o22b2o34b2o22b2o1007bo
7bobo486b2o22b2o154b2o22b2o827bo7bobo276b2o22b2o214b2o22b2o94b2o22b2o
34b2o22b2o$2613b2o28bo126b2o238b2o238b2o58b2o58b2o58b2o1011b2o28bo486b
2o178b2o831b2o28bo276b2o238b2o118b2o58b2o$2612b2o29b2o129bo239bo239bo
59bo59bo59bo1007b2o29b2o489bo179bo827b2o29b2o279bo239bo119bo59bo$2614b
o4bo126b2o25b2o31b2o58b2o58b2o58b2o25b2o31b2o58b2o58b2o58b2o25b2o31b2o
25b2o31b2o25b2o31b2o25b2o1009bo4bo486b2o25b2o31b2o58b2o58b2o25b2o31b2o
58b2o736bo4bo276b2o25b2o31b2o58b2o58b2o58b2o25b2o31b2o58b2o25b2o31b2o
25b2o31b2o58b2o$2617b2o126b3o25bobo21b2o6b3o57b3o57b3o57b3o25bobo21b2o
6b3o57b3o57b3o57b3o25bobo21b2o6b3o25bobo21b2o6b3o25bobo21b2o6b3o25bobo
21b2o988b2o486b3o25bobo21b2o6b3o57b3o57b3o25bobo21b2o6b3o57b3o739b2o
276b3o25bobo21b2o6b3o57b3o57b3o57b3o25bobo21b2o6b3o57b3o25bobo21b2o6b
3o25bobo21b2o6b3o57b3o$2618b2o125b2obo48bo7b2obo56b2obo56b2obo56b2obo
48bo7b2obo56b2obo56b2obo56b2obo48bo7b2obo48bo7b2obo48bo7b2obo48bo990b
2o485b2obo48bo7b2obo56b2obo56b2obo48bo7b2obo56b2obo739b2o275b2obo48bo
7b2obo56b2obo56b2obo56b2obo48bo7b2obo56b2obo48bo7b2obo48bo7b2obo56b2ob
o$2640b2o104b3o37b2o7bobo8b3o57b3o57b3o57b3o37b2o7bobo8b3o57b3o57b3o
57b3o37b2o7bobo8b3o37b2o7bobo8b3o37b2o7bobo8b3o37b2o7bobo1012b2o464b3o
37b2o7bobo8b3o57b3o57b3o37b2o7bobo8b3o57b3o761b2o254b3o37b2o7bobo8b3o
57b3o57b3o57b3o37b2o7bobo8b3o57b3o37b2o7bobo8b3o37b2o7bobo8b3o57b3o$
2640bo106bo38bobo6b2o10bo59bo59bo59bo38bobo6b2o10bo59bo59bo59bo38bobo
6b2o10bo38bobo6b2o10bo38bobo6b2o10bo38bobo6b2o1013bo466bo38bobo6b2o10b
o59bo59bo38bobo6b2o10bo59bo762bo256bo38bobo6b2o10bo59bo59bo59bo38bobo
6b2o10bo59bo38bobo6b2o10bo38bobo6b2o10bo59bo$2606b2o13bo10bo5bobo135bo
4b2o6bo226bo4b2o6bo226bo4b2o6bo46bo4b2o6bo46bo4b2o6bo46bo4b2o6bo156b2o
2b2o824b2o13bo10bo5bobo495bo4b2o6bo166bo4b2o6bo276b2o2b2o524b2o13bo10b
o5bobo285bo4b2o6bo226bo4b2o6bo106bo4b2o6bo46bo4b2o6bo276b2o2b2o$2607bo
12b2o9b2o5b2o122bo12bobo2bo2bo2bo2bo212bo12bobo2bo2bo2bo2bo212bo12bobo
2bo2bo2bo2bo32bo12bobo2bo2bo2bo2bo32bo12bobo2bo2bo2bo2bo32bo12bobo2bo
2bo2bo2bo156b2o2b2o825bo12b2o9b2o5b2o482bo12bobo2bo2bo2bo2bo152bo12bob
o2bo2bo2bo2bo276b2o2b2o525bo12b2o9b2o5b2o272bo12bobo2bo2bo2bo2bo212bo
12bobo2bo2bo2bo2bo92bo12bobo2bo2bo2bo2bo32bo12bobo2bo2bo2bo2bo276b2o2b
2o$2607bobo5bo4bobo7b2o128b2o13b2obob3o6bo210b2o13b2obob3o6bo210b2o13b
2obob3o6bo30b2o13b2obob3o6bo30b2o13b2obob3o6bo30b2o13b2obob3o6bo152b2o
10b2o821bobo5bo4bobo7b2o488b2o13b2obob3o6bo150b2o13b2obob3o6bo272b2o
10b2o521bobo5bo4bobo7b2o278b2o13b2obob3o6bo210b2o13b2obob3o6bo90b2o13b
2obob3o6bo30b2o13b2obob3o6bo272b2o10b2o$2608b2o3bobo13b3o129b2o12b2ob
2o6bobo212b2o12b2ob2o6bobo212b2o12b2ob2o6bobo32b2o12b2ob2o6bobo32b2o
12b2ob2o6bobo32b2o12b2ob2o6bobo153b2o10b2o822b2o3bobo13b3o489b2o12b2ob
2o6bobo152b2o12b2ob2o6bobo273b2o10b2o522b2o3bobo13b3o279b2o12b2ob2o6bo
bo212b2o12b2ob2o6bobo92b2o12b2ob2o6bobo32b2o12b2ob2o6bobo273b2o10b2o$
2612bobo15b2o3b2o138b2obo7b2o227b2obo7b2o227b2obo7b2o47b2obo7b2o47b2ob
o7b2o47b2obo7b2o96bobo895bobo15b2o3b2o498b2obo7b2o167b2obo7b2o216bobo
595bobo15b2o3b2o288b2obo7b2o227b2obo7b2o107b2obo7b2o47b2obo7b2o216bobo
$2611bo2bo16b2o132b2o8bobo227b2o8bobo227b2o8bobo47b2o8bobo47b2o8bobo
47b2o8bobo104bo3bo894bo2bo16b2o492b2o8bobo167b2o8bobo224bo3bo594bo2bo
16b2o282b2o8bobo227b2o8bobo107b2o8bobo47b2o8bobo224bo3bo$2612bobo17bo
131bobo9bo227bobo9bo227bobo9bo47bobo9bo47bobo9bo47bobo9bo105bo19bo39b
2o838bobo17bo491bobo9bo167bobo9bo225bo19bo39b2o538bobo17bo281bobo9bo
227bobo9bo107bobo9bo47bobo9bo225bo19bo39b2o$2613bobo148bo239bo239bo59b
o59bo59bo110b2o4bo4bo14b4o37b2o839bobo508bo179bo230b2o4bo4bo14b4o37b2o
539bobo298bo239bo119bo59bo230b2o4bo4bo14b4o37b2o$2615bo147b2o238b2o
238b2o58b2o58b2o58b2o110b2o5bo12bo4b2obobo21b2o2b2o852bo507b2o178b2o
230b2o5bo12bo4b2obobo21b2o2b2o552bo297b2o238b2o118b2o58b2o230b2o5bo12b
o4b2obobo21b2o2b2o$3542bo3bo3bob2o5b3obo2bo2b2o16b2o2b2o1779bo3bo3bob
2o5b3obo2bo2b2o16b2o2b2o1509bo3bo3bob2o5b3obo2bo2b2o16b2o2b2o$3544bobo
2bob4o5b2obobo3b2o31b2o6b2o2b2o1758bobo2bob4o5b2obobo3b2o31b2o6b2o2b2o
1488bobo2bob4o5b2obobo3b2o31b2o6b2o2b2o$3549b2o2b2o6b4o37b2o6b2o2b2o
1763b2o2b2o6b4o37b2o6b2o2b2o1493b2o2b2o6b4o37b2o6b2o2b2o$3562bo1829bo
1559bo$2627b2o28b2o28b2o28b2o28b2o28b2o28b2o28b2o28b2o28b2o28b2o28b2o
28b2o28b2o28b2o28b2o28b2o28b2o28b2o28b2o28b2o28b2o28b2o28b2o28b2o28b2o
28b2o28b2o28b2o28b2o28b2o928b2o28b2o28b2o28b2o28b2o28b2o28b2o28b2o28b
2o28b2o28b2o28b2o28b2o28b2o28b2o28b2o28b2o28b2o28b2o28b2o28b2o28b2o28b
2o28b2o28b2o28b2o28b2o28b2o28b2o28b2o28b2o628b2o28b2o28b2o28b2o28b2o
28b2o28b2o28b2o28b2o28b2o28b2o28b2o28b2o28b2o28b2o28b2o28b2o28b2o28b2o
28b2o28b2o28b2o28b2o28b2o28b2o28b2o28b2o28b2o28b2o28b2o28b2o28b2o$
2626b4o26b4o26b4o26b4o26b4o26b4o26b4o26b4o26b4o26b4o26b4o26b4o26b4o26b
4o26b4o26b4o26b4o26b4o26b4o26b4o26b4o26b4o26b4o26b4o26b4o26b4o26b4o26b
4o26b4o26b4o26b4o11b2o59b2o10b2o840b4o26b4o26b4o26b4o26b4o26b4o26b4o
26b4o26b4o26b4o26b4o26b4o26b4o26b4o26b4o26b4o26b4o26b4o26b4o26b4o26b4o
26b4o26b4o26b4o26b4o26b4o26b4o26b4o26b4o26b4o26b4o11b2o59b2o10b2o540b
4o26b4o26b4o26b4o26b4o26b4o26b4o26b4o26b4o26b4o26b4o26b4o26b4o26b4o26b
4o26b4o26b4o26b4o26b4o26b4o26b4o26b4o26b4o26b4o26b4o26b4o26b4o26b4o26b
4o26b4o26b4o26b4o11b2o59b2o10b2o$2625b2ob2o25b2ob2o25b2ob2o25b2ob2o25b
2ob2o25b2ob2o25b2ob2o25b2ob2o25b2ob2o25b2ob2o25b2ob2o25b2ob2o25b2ob2o
25b2ob2o25b2ob2o25b2ob2o25b2ob2o25b2ob2o25b2ob2o25b2ob2o25b2ob2o25b2ob
2o25b2ob2o25b2ob2o25b2ob2o25b2ob2o25b2ob2o25b2ob2o25b2ob2o25b2ob2o25b
2ob2o10b2ob2o57b2o10b2o839b2ob2o25b2ob2o25b2ob2o25b2ob2o25b2ob2o25b2ob
2o25b2ob2o25b2ob2o25b2ob2o25b2ob2o25b2ob2o25b2ob2o25b2ob2o25b2ob2o25b
2ob2o25b2ob2o25b2ob2o25b2ob2o25b2ob2o25b2ob2o25b2ob2o25b2ob2o25b2ob2o
25b2ob2o25b2ob2o25b2ob2o25b2ob2o25b2ob2o25b2ob2o25b2ob2o25b2ob2o10b2ob
2o57b2o10b2o539b2ob2o25b2ob2o25b2ob2o25b2ob2o25b2ob2o25b2ob2o25b2ob2o
25b2ob2o25b2ob2o25b2ob2o25b2ob2o25b2ob2o25b2ob2o25b2ob2o25b2ob2o25b2ob
2o25b2ob2o25b2ob2o25b2ob2o25b2ob2o25b2ob2o25b2ob2o25b2ob2o25b2ob2o25b
2ob2o25b2ob2o25b2ob2o25b2ob2o25b2ob2o25b2ob2o25b2ob2o25b2ob2o10b2ob2o
57b2o10b2o$2626b2o28b2o28b2o28b2o28b2o28b2o28b2o28b2o28b2o28b2o28b2o
28b2o28b2o28b2o28b2o28b2o28b2o28b2o28b2o28b2o28b2o28b2o28b2o28b2o28b2o
28b2o28b2o28b2o28b2o28b2o28b2o13b4o61b2o2b2o844b2o28b2o28b2o28b2o28b2o
28b2o28b2o28b2o28b2o28b2o28b2o28b2o28b2o28b2o28b2o28b2o28b2o28b2o28b2o
28b2o28b2o28b2o28b2o28b2o28b2o28b2o28b2o28b2o28b2o28b2o28b2o13b4o61b2o
2b2o544b2o28b2o28b2o28b2o28b2o28b2o28b2o28b2o28b2o28b2o28b2o28b2o28b2o
28b2o28b2o28b2o28b2o28b2o28b2o28b2o28b2o28b2o28b2o28b2o28b2o28b2o28b2o
28b2o28b2o28b2o28b2o28b2o13b4o61b2o2b2o$3542b2o62b2o2b2o1760b2o62b2o2b
2o1490b2o62b2o2b2o$3554b2o1828b2o1558b2o$3529bo24bobo1802bo24bobo1532b
o24bobo$3524b2obo3bob2o19bo1799b2obo3bob2o19bo1529b2obo3bob2o19bo$
3524bo9bo1819bo9bo1549bo9bo$2741b2o58b2o58b2o58b2o58b2o58b2o58b2o58b2o
58b2o58b2o58b2o58b2o122b2o5b2o11b2o1384b2o58b2o58b2o58b2o58b2o58b2o
122b2o5b2o11b2o874b2o58b2o58b2o58b2o58b2o58b2o58b2o58b2o58b2o58b2o122b
2o5b2o11b2o$2653bo88bo59bo59bo59bo59bo59bo59bo59bo59bo59bo59bo59bo119b
3o2b5o2b3o7bobo936bo448bo59bo59bo59bo59bo59bo119b3o2b5o2b3o7bobo636bo
238bo59bo59bo59bo59bo59bo59bo59bo59bo59bo119b3o2b5o2b3o7bobo$2653b3o
83b3o57b3o57b3o57b3o57b3o57b3o57b3o57b3o57b3o57b3o57b3o57b3o120bo2bo7b
o2bo9bo936b3o443b3o57b3o57b3o57b3o57b3o57b3o120bo2bo7bo2bo9bo636b3o
233b3o57b3o57b3o57b3o57b3o57b3o57b3o57b3o57b3o57b3o120bo2bo7bo2bo9bo$
2656bo82bo6b2o51bo6b2o51bo6b2o51bo6b2o51bo6b2o51bo6b2o51bo6b2o51bo6b2o
51bo6b2o51bo6b2o51bo6b2o51bo6b2o115b2o9b2o37b2o911bo442bo6b2o51bo6b2o
51bo6b2o51bo6b2o51bo6b2o51bo6b2o115b2o9b2o37b2o611bo232bo6b2o51bo6b2o
51bo6b2o51bo6b2o51bo6b2o51bo6b2o51bo6b2o51bo6b2o51bo6b2o51bo6b2o115b2o
9b2o37b2o$2655b2o88b3o57b3o57b3o57b3o57b3o57b3o57b3o57b3o57b3o57b3o57b
3o57b3o153b3o2bo5bo3bo908b2o448b3o57b3o57b3o57b3o57b3o57b3o153b3o2bo5b
o3bo608b2o238b3o57b3o57b3o57b3o57b3o57b3o57b3o57b3o57b3o57b3o153b3o2bo
5bo3bo$2745b2obo56b2obo56b2obo56b2obo56b2obo56b2obo56b2obo56b2obo56b2o
bo56b2obo56b2obo56b2obo148bo3bo9bo5bo3b2o1352b2obo56b2obo56b2obo56b2ob
o56b2obo56b2obo148bo3bo9bo5bo3b2o842b2obo56b2obo56b2obo56b2obo56b2obo
56b2obo56b2obo56b2obo56b2obo56b2obo148bo3bo9bo5bo3b2o$2746b3o57b3o57b
3o57b3o57b3o57b3o57b3o57b3o57b3o57b3o57b3o57b3o119bo8b2o16bobo4bo8bo3b
ob2o2b2o1353b3o57b3o57b3o57b3o57b3o57b3o119bo8b2o16bobo4bo8bo3bob2o2b
2o843b3o57b3o57b3o57b3o57b3o57b3o57b3o57b3o57b3o57b3o119bo8b2o16bobo4b
o8bo3bob2o2b2o$2747bo59bo59bo59bo59bo59bo59bo59bo59bo59bo59bo59bo118bo
bo6bo2bo14b2o16bo5bo1359bo59bo59bo59bo59bo59bo118bobo6bo2bo14b2o16bo5b
o849bo59bo59bo59bo59bo59bo59bo59bo59bo59bo118bobo6bo2bo14b2o16bo5bo$
3519b2o4bobo7bo3bo2b2o9b2o17bo3bo1772b2o4bobo7bo3bo2b2o9b2o17bo3bo
1502b2o4bobo7bo3bo2b2o9b2o17bo3bo$3519b2o3bo2bo7bo2b2o2b3o8b2o18b2o
1774b2o3bo2bo7bo2b2o2b3o8b2o18b2o1504b2o3bo2bo7bo2b2o2b3o8b2o18b2o$
2655b2obob2o863bobo16b2obo7bobo927b2obob2o863bobo16b2obo7bobo627b2obob
2o893bobo16b2obo7bobo$2655bo5bo864bobo4b3o8bo2bo9bo927bo5bo864bobo4b3o
8bo2bo9bo627bo5bo894bobo4b3o8bo2bo9bo$2637b2o17bo3bo867bo15b2obo919b2o
17bo3bo867bo15b2obo619b2o17bo3bo897bo15b2obo$2638bo18b3o882b3o923bo18b
3o882b3o623bo18b3o912b3o$2638bobo4bo896b2o924bobo4bo896b2o624bobo4bo
926b2o$2639b2o3bobo1822b2o3bobo1522b2o3bobo$2642b2o3bo1824b2o3bo1524b
2o3bo$2642b2o3bo1824b2o3bo1524b2o3bo$2642b2o3bo1824b2o3bo1524b2o3bo$
2644bobo1827bobo1527bobo$2645bo23b2o100b2o418b2o118b2o118b2o1042bo23b
2o520b2o118b2o862bo23b2o550b2o118b2o$2670bo100b2o418b2o118b2o118b2o
1067bo520b2o118b2o887bo550b2o118b2o$2659b2o9bobo7b2o86b2o10bo4bo402b2o
10bo4bo102b2o10bo4bo102b2o10bo4bo1043b2o9bobo7b2o506b2o10bo4bo102b2o
10bo4bo803b2o58b2o9bobo7b2o536b2o10bo4bo102b2o10bo4bo$2658b3o10b2o6bob
o85b3o10bo4bobo399b3o10bo4bobo99b3o10bo4bobo99b3o10bo4bobo1040b3o10b2o
6bobo505b3o10bo4bobo99b3o10bo4bobo800b3o57b3o10b2o6bobo535b3o10bo4bobo
99b3o10bo4bobo$2658b2obo16b3o12bo74b2o10bo7b2o398b2o10bo7b2o98b2o10bo
7b2o98b2o10bo7b2o1038b2obo16b3o12bo494b2o10bo7b2o98b2o10bo7b2o798b2obo
56b2obo16b3o12bo524b2o10bo7b2o98b2o10bo7b2o$2659b3o15b3o8b2o3b4o65b2o
7b2o2b2o11b2o392b2o7b2o2b2o11b2o92b2o7b2o2b2o11b2o92b2o7b2o2b2o11b2o
1039b3o15b3o8b2o3b4o485b2o7b2o2b2o11b2o92b2o7b2o2b2o11b2o799b3o57b3o
15b3o8b2o3b4o515b2o7b2o2b2o11b2o92b2o7b2o2b2o11b2o$2660bo17b3o8b2o3b4o
63bobo7b2o2bo2b2o8b2o391bobo7b2o2bo2b2o8b2o91bobo7b2o2bo2b2o8b2o91bobo
7b2o2bo2b2o8b2o1040bo17b3o8b2o3b4o483bobo7b2o2bo2b2o8b2o91bobo7b2o2bo
2b2o8b2o800bo59bo17b3o8b2o3b4o513bobo7b2o2bo2b2o8b2o91bobo7b2o2bo2b2o
8b2o$2679bobo2b2obob2o3bo2bo63bo14b4o5bobo4b2o387bo14b4o5bobo4b2o87bo
14b4o5bobo4b2o87bo14b4o5bobo4b2o1055bobo2b2obob2o3bo2bo483bo14b4o5bobo
4b2o87bo14b4o5bobo4b2o875bobo2b2obob2o3bo2bo513bo14b4o5bobo4b2o87bo14b
4o5bobo4b2o$2680b2o2b2obobo4b4o62b2o15bo7bo6bobo385b2o15bo7bo6bobo85b
2o15bo7bo6bobo85b2o15bo7bo6bobo1055b2o2b2obobo4b4o482b2o15bo7bo6bobo
85b2o15bo7bo6bobo875b2o2b2obobo4b4o512b2o15bo7bo6bobo85b2o15bo7bo6bobo
$2686b2obo3b4o4b2o91bo419bo119bo119bo1061b2obo3b4o4b2o511bo119bo881b2o
bo3b4o4b2o541bo119bo$2693bo7bobo66b2o22b2o394b2o22b2o94b2o22b2o94b2o
22b2o1067bo7bobo486b2o22b2o94b2o22b2o887bo7bobo516b2o22b2o94b2o22b2o$
2673b2o28bo66b2o418b2o118b2o118b2o1071b2o28bo486b2o118b2o891b2o28bo
516b2o118b2o$2672b2o29b2o69bo419bo119bo119bo1067b2o29b2o489bo119bo887b
2o29b2o519bo119bo$2674bo4bo66b2o25b2o31b2o58b2o58b2o58b2o58b2o58b2o58b
2o25b2o31b2o58b2o25b2o31b2o58b2o25b2o1069bo4bo426b2o58b2o25b2o31b2o58b
2o25b2o31b2o58b2o796bo4bo216b2o58b2o58b2o58b2o58b2o58b2o25b2o31b2o58b
2o25b2o31b2o58b2o$2677b2o66b3o25bobo21b2o6b3o57b3o57b3o57b3o57b3o57b3o
57b3o25bobo21b2o6b3o57b3o25bobo21b2o6b3o57b3o25bobo21b2o1048b2o426b3o
57b3o25bobo21b2o6b3o57b3o25bobo21b2o6b3o57b3o799b2o216b3o57b3o57b3o57b
3o57b3o57b3o25bobo21b2o6b3o57b3o25bobo21b2o6b3o57b3o$2678b2o65b2obo48b
o7b2obo56b2obo56b2obo56b2obo56b2obo56b2obo56b2obo48bo7b2obo56b2obo48bo
7b2obo56b2obo48bo1050b2o425b2obo56b2obo48bo7b2obo56b2obo48bo7b2obo56b
2obo799b2o215b2obo56b2obo56b2obo56b2obo56b2obo56b2obo48bo7b2obo56b2obo
48bo7b2obo56b2obo$2700b2o44b3o37b2o7bobo8b3o57b3o57b3o57b3o57b3o57b3o
57b3o37b2o7bobo8b3o57b3o37b2o7bobo8b3o57b3o37b2o7bobo1072b2o404b3o57b
3o37b2o7bobo8b3o57b3o37b2o7bobo8b3o57b3o821b2o194b3o57b3o57b3o57b3o57b
3o57b3o37b2o7bobo8b3o57b3o37b2o7bobo8b3o57b3o$2700bo46bo38bobo6b2o10bo
59bo59bo59bo59bo59bo59bo38bobo6b2o10bo59bo38bobo6b2o10bo59bo38bobo6b2o
1073bo406bo59bo38bobo6b2o10bo59bo38bobo6b2o10bo59bo822bo196bo59bo59bo
59bo59bo59bo38bobo6b2o10bo59bo38bobo6b2o10bo59bo$2666b2o13bo10bo5bobo
75bo4b2o6bo406bo4b2o6bo106bo4b2o6bo106bo4b2o6bo156b2o2b2o884b2o13bo10b
o5bobo495bo4b2o6bo106bo4b2o6bo276b2o2b2o584b2o13bo10bo5bobo525bo4b2o6b
o106bo4b2o6bo276b2o2b2o$2667bo12b2o9b2o5b2o62bo12bobo2bo2bo2bo2bo392bo
12bobo2bo2bo2bo2bo92bo12bobo2bo2bo2bo2bo92bo12bobo2bo2bo2bo2bo156b2o2b
2o885bo12b2o9b2o5b2o482bo12bobo2bo2bo2bo2bo92bo12bobo2bo2bo2bo2bo276b
2o2b2o585bo12b2o9b2o5b2o512bo12bobo2bo2bo2bo2bo92bo12bobo2bo2bo2bo2bo
276b2o2b2o$2667bobo5bo4bobo7b2o68b2o13b2obob3o6bo390b2o13b2obob3o6bo
90b2o13b2obob3o6bo90b2o13b2obob3o6bo152b2o10b2o881bobo5bo4bobo7b2o488b
2o13b2obob3o6bo90b2o13b2obob3o6bo272b2o10b2o581bobo5bo4bobo7b2o518b2o
13b2obob3o6bo90b2o13b2obob3o6bo272b2o10b2o$2668b2o3bobo13b3o69b2o12b2o
b2o6bobo392b2o12b2ob2o6bobo92b2o12b2ob2o6bobo92b2o12b2ob2o6bobo153b2o
10b2o882b2o3bobo13b3o489b2o12b2ob2o6bobo92b2o12b2ob2o6bobo273b2o10b2o
582b2o3bobo13b3o519b2o12b2ob2o6bobo92b2o12b2ob2o6bobo273b2o10b2o$2672b
obo15b2o3b2o78b2obo7b2o407b2obo7b2o107b2obo7b2o107b2obo7b2o96bobo955bo
bo15b2o3b2o498b2obo7b2o107b2obo7b2o216bobo655bobo15b2o3b2o528b2obo7b2o
107b2obo7b2o216bobo$2671bo2bo16b2o72b2o8bobo407b2o8bobo107b2o8bobo107b
2o8bobo104bo3bo954bo2bo16b2o492b2o8bobo107b2o8bobo224bo3bo654bo2bo16b
2o522b2o8bobo107b2o8bobo224bo3bo$2672bobo17bo71bobo9bo407bobo9bo107bob
o9bo107bobo9bo105bo19bo39b2o898bobo17bo491bobo9bo107bobo9bo225bo19bo
39b2o598bobo17bo521bobo9bo107bobo9bo225bo19bo39b2o$2673bobo88bo419bo
119bo119bo110b2o4bo4bo14b4o37b2o899bobo508bo119bo230b2o4bo4bo14b4o37b
2o599bobo538bo119bo230b2o4bo4bo14b4o37b2o$2675bo87b2o418b2o118b2o118b
2o110b2o5bo12bo4b2obobo939bo507b2o118b2o230b2o5bo12bo4b2obobo639bo537b
2o118b2o230b2o5bo12bo4b2obobo$3542bo3bo3bob2o5b3obo2bo2b2o1801bo3bo3bo
b2o5b3obo2bo2b2o1531bo3bo3bob2o5b3obo2bo2b2o$3544bobo2bob4o5b2obobo3b
2o23b2o6b2o1770bobo2bob4o5b2obobo3b2o23b2o6b2o1500bobo2bob4o5b2obobo3b
2o23b2o6b2o$3549b2o2b2o6b4o29b2o6b2o1775b2o2b2o6b4o29b2o6b2o1505b2o2b
2o6b4o29b2o6b2o$3562bo1829bo1559bo$2687b2o28b2o28b2o28b2o28b2o28b2o28b
2o28b2o28b2o28b2o28b2o28b2o28b2o28b2o28b2o28b2o28b2o28b2o28b2o28b2o28b
2o28b2o28b2o28b2o28b2o28b2o28b2o28b2o28b2o988b2o28b2o28b2o28b2o28b2o
28b2o28b2o28b2o28b2o28b2o28b2o28b2o28b2o28b2o28b2o28b2o28b2o28b2o28b2o
28b2o28b2o28b2o28b2o28b2o28b2o28b2o28b2o28b2o28b2o688b2o28b2o28b2o28b
2o28b2o28b2o28b2o28b2o28b2o28b2o28b2o28b2o28b2o28b2o28b2o28b2o28b2o28b
2o28b2o28b2o28b2o28b2o28b2o28b2o28b2o28b2o28b2o28b2o28b2o28b2o$2686b4o
26b4o26b4o26b4o26b4o26b4o26b4o26b4o26b4o26b4o26b4o26b4o26b4o26b4o26b4o
26b4o26b4o26b4o26b4o26b4o26b4o26b4o26b4o26b4o26b4o26b4o26b4o26b4o26b4o
11b2o51b2o6b2o10b2o900b4o26b4o26b4o26b4o26b4o26b4o26b4o26b4o26b4o26b4o
26b4o26b4o26b4o26b4o26b4o26b4o26b4o26b4o26b4o26b4o26b4o26b4o26b4o26b4o
26b4o26b4o26b4o26b4o26b4o11b2o51b2o6b2o10b2o600b4o26b4o26b4o26b4o26b4o
26b4o26b4o26b4o26b4o26b4o26b4o26b4o26b4o26b4o26b4o26b4o26b4o26b4o26b4o
26b4o26b4o26b4o26b4o26b4o26b4o26b4o26b4o26b4o26b4o26b4o11b2o51b2o6b2o
10b2o$2685b2ob2o25b2ob2o25b2ob2o25b2ob2o25b2ob2o25b2ob2o25b2ob2o25b2ob
2o25b2ob2o25b2ob2o25b2ob2o25b2ob2o25b2ob2o25b2ob2o25b2ob2o25b2ob2o25b
2ob2o25b2ob2o25b2ob2o25b2ob2o25b2ob2o25b2ob2o25b2ob2o25b2ob2o25b2ob2o
25b2ob2o25b2ob2o25b2ob2o25b2ob2o10b2ob2o49b2o6b2o10b2o899b2ob2o25b2ob
2o25b2ob2o25b2ob2o25b2ob2o25b2ob2o25b2ob2o25b2ob2o25b2ob2o25b2ob2o25b
2ob2o25b2ob2o25b2ob2o25b2ob2o25b2ob2o25b2ob2o25b2ob2o25b2ob2o25b2ob2o
25b2ob2o25b2ob2o25b2ob2o25b2ob2o25b2ob2o25b2ob2o25b2ob2o25b2ob2o25b2ob
2o25b2ob2o10b2ob2o49b2o6b2o10b2o599b2ob2o25b2ob2o25b2ob2o25b2ob2o25b2o
b2o25b2ob2o25b2ob2o25b2ob2o25b2ob2o25b2ob2o25b2ob2o25b2ob2o25b2ob2o25b
2ob2o25b2ob2o25b2ob2o25b2ob2o25b2ob2o25b2ob2o25b2ob2o25b2ob2o25b2ob2o
25b2ob2o25b2ob2o25b2ob2o25b2ob2o25b2ob2o25b2ob2o25b2ob2o25b2ob2o10b2ob
2o49b2o6b2o10b2o$2686b2o28b2o28b2o28b2o28b2o28b2o28b2o28b2o28b2o28b2o
28b2o28b2o28b2o28b2o28b2o28b2o28b2o28b2o28b2o28b2o28b2o28b2o28b2o28b2o
28b2o28b2o28b2o28b2o28b2o13b4o61b2o2b2o904b2o28b2o28b2o28b2o28b2o28b2o
28b2o28b2o28b2o28b2o28b2o28b2o28b2o28b2o28b2o28b2o28b2o28b2o28b2o28b2o
28b2o28b2o28b2o28b2o28b2o28b2o28b2o28b2o28b2o13b4o61b2o2b2o604b2o28b2o
28b2o28b2o28b2o28b2o28b2o28b2o28b2o28b2o28b2o28b2o28b2o28b2o28b2o28b2o
28b2o28b2o28b2o28b2o28b2o28b2o28b2o28b2o28b2o28b2o28b2o28b2o28b2o28b2o
13b4o61b2o2b2o$3542b2o62b2o2b2o1760b2o62b2o2b2o1490b2o62b2o2b2o$3554b
2o1828b2o1558b2o$3529bo24bobo1802bo24bobo1532bo24bobo$3524b2obo3bob2o
19bo1799b2obo3bob2o19bo1529b2obo3bob2o19bo$3524bo9bo1819bo9bo1549bo9bo
$2741b2o58b2o58b2o58b2o58b2o58b2o58b2o58b2o58b2o58b2o58b2o58b2o122b2o
5b2o11b2o1384b2o58b2o58b2o58b2o58b2o58b2o122b2o5b2o11b2o874b2o58b2o58b
2o58b2o58b2o58b2o58b2o58b2o58b2o58b2o122b2o5b2o11b2o$2742bo59bo59bo59b
o59bo59bo59bo59bo59bo59bo59bo59bo119b3o2b5o2b3o7bobo1385bo59bo59bo59bo
59bo59bo119b3o2b5o2b3o7bobo875bo59bo59bo59bo59bo59bo59bo59bo59bo59bo
119b3o2b5o2b3o7bobo$2739b3o57b3o57b3o57b3o57b3o57b3o57b3o57b3o57b3o57b
3o57b3o57b3o120bo2bo7bo2bo9bo1382b3o57b3o57b3o57b3o57b3o57b3o120bo2bo
7bo2bo9bo872b3o57b3o57b3o57b3o57b3o57b3o57b3o57b3o57b3o57b3o120bo2bo7b
o2bo9bo$2739bo6b2o51bo6b2o51bo6b2o51bo6b2o51bo6b2o51bo6b2o51bo6b2o51bo
6b2o51bo6b2o51bo6b2o51bo6b2o51bo6b2o115b2o9b2o37b2o194b2o1158bo6b2o51b
o6b2o51bo6b2o51bo6b2o51bo6b2o51bo6b2o115b2o9b2o37b2o194b2o648bo6b2o51b
o6b2o51bo6b2o51bo6b2o51bo6b2o51bo6b2o51bo6b2o51bo6b2o51bo6b2o51bo6b2o
115b2o9b2o37b2o164b2o$26b2o2717b3o57b3o57b3o57b3o57b3o57b3o57b3o57b3o
57b3o57b3o57b3o57b3o153b3o2bo5bo3bo192b2o1164b3o57b3o57b3o57b3o57b3o
57b3o153b3o2bo5bo3bo192b2o654b3o57b3o57b3o57b3o57b3o57b3o57b3o57b3o57b
3o57b3o153b3o2bo5bo3bo162b2o$26b2o2717b2obo56b2obo56b2obo56b2obo56b2ob
o56b2obo56b2obo56b2obo56b2obo56b2obo56b2obo56b2obo148bo3bo9bo5bo3b2o
1352b2obo56b2obo56b2obo56b2obo56b2obo56b2obo148bo3bo9bo5bo3b2o842b2obo
56b2obo56b2obo56b2obo56b2obo56b2obo56b2obo56b2obo56b2obo56b2obo148bo3b
o9bo5bo3b2o$2746b3o57b3o57b3o57b3o57b3o57b3o57b3o57b3o57b3o57b3o57b3o
57b3o119bo8b2o16bobo4bo8bo3bob2o2b2o1353b3o57b3o57b3o57b3o57b3o57b3o
119bo8b2o16bobo4bo8bo3bob2o2b2o843b3o57b3o57b3o57b3o57b3o57b3o57b3o57b
3o57b3o57b3o119bo8b2o16bobo4bo8bo3bob2o2b2o$2747bo59bo59bo59bo59bo59bo
59bo59bo59bo59bo59bo59bo118bobo6bo2bo14b2o16bo5bo1359bo59bo59bo59bo59b
o59bo118bobo6bo2bo14b2o16bo5bo849bo59bo59bo59bo59bo59bo59bo59bo59bo59b
o118bobo6bo2bo14b2o16bo5bo$17b2o3500b2o4bobo7bo3bo2b2o9b2o17bo3bo1772b
2o4bobo7bo3bo2b2o9b2o17bo3bo1502b2o4bobo7bo3bo2b2o9b2o17bo3bo$17bobo
3499b2o3bo2bo7bo2b2o2b3o8b2o18b2o1774b2o3bo2bo7bo2b2o2b3o8b2o18b2o
1504b2o3bo2bo7bo2b2o2b3o8b2o18b2o$18bo3506bobo16b2obo7bobo211b3o1583bo
bo16b2obo7bobo211b3o1313bobo16b2obo7bobo181b3o$3526bobo4b3o8bo2bo9bo
210b2ob2o1583bobo4b3o8bo2bo9bo210b2ob2o1313bobo4b3o8bo2bo9bo180b2ob2o$
3528bo15b2obo220b2ob2o1585bo15b2obo220b2ob2o1315bo15b2obo190b2ob2o$23b
2o2618bo898b3o223b5o700bo898b3o223b5o400bo928b3o193b5o$23b2o2618bobo
896b2o175b2o46b2o3b2o699bobo896b2o175b2o46b2o3b2o399bobo926b2o145b2o
46b2o3b2o$2626bo17bobo1071bobo30b2o703bo17bobo1071bobo30b2o403bo17bobo
1071bobo30b2o$16b2o2608b2o16bo2bo3b2o1064b3o31b2o703b2o16bo2bo3b2o
1064b3o31b2o403b2o16bo2bo3b2o1064b3o31b2o$15bobo2603b2o4b2o15bobo4b2o
1064b2o51b2o679b2o4b2o15bobo4b2o1064b2o51b2o379b2o4b2o15bobo4b2o1064b
2o51b2o$15bo2601b2o2b2o4b3o13bobo1071b2o49b5o674b2o2b2o4b3o13bobo1071b
2o49b5o374b2o2b2o4b3o13bobo1071b2o49b5o$14b2o13b2o2586b2o2b2o4b2o7bobo
4bo1074bobo51bo674b2o2b2o4b2o7bobo4bo1074bobo51bo374b2o2b2o4b2o7bobo4b
o1074bobo51bo$29bo2596b2o9b2o1080bo48b3o685b2o9b2o1080bo48b3o385b2o9b
2o1080bo48b3o$22b2o6b3o2593bo10bo1113bo16bo687bo10bo1113bo16bo387bo10b
o1113bo16bo$22b2o8bo2716b2o58b2o58b2o58b2o58b2o58b2o58b2o58b2o58b2o58b
2o58b2o58b2o340bo17b2o1168b2o58b2o58b2o58b2o58b2o58b2o340bo17b2o658b2o
58b2o58b2o58b2o58b2o58b2o58b2o58b2o58b2o58b2o310bo17b2o$2749bo59bo59bo
59bo59bo59bo59bo59bo59bo59bo59bo59bo306b2o3b2o27bobo16b2o1168bo59bo59b
o59bo59bo59bo306b2o3b2o27bobo16b2o658bo59bo59bo59bo59bo59bo59bo59bo59b
o59bo276b2o3b2o27bobo16b2o$2750b3o57b3o57b3o57b3o57b3o57b3o57b3o57b3o
57b3o57b3o57b3o57b3o303b2o3b2o26b2ob2o1186b3o57b3o57b3o57b3o57b3o57b3o
303b2o3b2o26b2ob2o676b3o57b3o57b3o57b3o57b3o57b3o57b3o57b3o57b3o57b3o
273b2o3b2o26b2ob2o$2752bo59bo59bo59bo59bo59bo59bo59bo59bo59bo59bo59bo
335bo5bo1187bo59bo59bo59bo59bo59bo335bo5bo677bo59bo59bo59bo59bo59bo59b
o59bo59bo59bo305bo5bo$2644bo1073b3o30bo17b2o3b2o698bo1073b3o30bo17b2o
3b2o398bo1073b3o30bo17b2o3b2o$2645b2o1071b3o27b2o3b2o14bobobobo699b2o
1071b3o27b2o3b2o14bobobobo399b2o1071b3o27b2o3b2o14bobobobo$2644b2o
1073bo42bobo5b5o699b2o1073bo42bobo5b5o399b2o1073bo42bobo5b5o$3762b2o7b
3o1818b2o7b3o1518b2o7b3o$3749b4o10bo8bo1806b4o10bo8bo1506b4o10bo8bo$
3749bo2b2o1825bo2b2o1525bo2b2o$3750bob2o1826bob2o1526bob2o2$2651bobo
1067bo29b2o728bobo1067bo29b2o428bobo1067bo29b2o$2652b2o1068b2o28bo729b
2o1068b2o28bo429b2o1068b2o28bo$2652bo1068b2o759bo1068b2o459bo1068b2o$
3757bobo1827bobo1527bobo$3716b3o27b2obob2o3bo1789b3o27b2obob2o3bo1489b
3o27b2obob2o3bo$3715bo3bo26bo5bo3bo1788bo3bo26bo5bo3bo1488bo3bo26bo5bo
3bo$3714bo5bo26bo3bo4bo2bo7bo1776bo5bo26bo3bo4bo2bo7bo1476bo5bo26bo3bo
4bo2bo7bo$2659bo1054bo5bo27b3o5b3o7b2o7bo713bo1054bo5bo27b3o5b3o7b2o7b
o413bo1054bo5bo27b3o5b3o7b2o7bo$2660b2o1055bo10bobo35bobo5b3o713b2o
1055bo10bobo35bobo5b3o413b2o1055bo10bobo35bobo5b3o$2659b2o1054bo3bo9b
2o42b5o711b2o1054bo3bo9b2o42b5o411b2o1054bo3bo9b2o42b5o$3716b3o10bo42b
2o3b2o1767b3o10bo42b2o3b2o1467b3o10bo42b2o3b2o$2640bo1076bo55b5o692bo
1076bo55b5o392bo1076bo55b5o$2639bobo1131b5o691bobo1131b5o391bobo1131b
5o$2629b2o6b2o3bo1130bo2bo682b2o6b2o3bo1130bo2bo382b2o6b2o3bo1130bo2bo
$2628bobo4b2obo3bo9b2o1063b2o53bo3bo681bobo4b2obo3bo9b2o1063b2o53bo3bo
381bobo4b2obo3bo9b2o1063b2o53bo3bo$2627b3o4b3obo3bo9b2o12bobo1048b2o
17bo12b2o21bo684b3o4b3obo3bo9b2o12bobo1048b2o17bo12b2o21bo384b3o4b3obo
3bo9b2o12bobo1048b2o17bo12b2o21bo$2618b2o6b3o4bo2b2obobo25b2o1068b2o
10b2o21bob2o672b2o6b3o4bo2b2obobo25b2o1068b2o10b2o21bob2o372b2o6b3o4bo
2b2obobo25b2o1068b2o10b2o21bob2o$2618b2o7b3o4b2o4bo26bo1068b2o35bo674b
2o7b3o4b2o4bo26bo1068b2o35bo374b2o7b3o4b2o4bo26bo1068b2o35bo$2628bobo
1124bobo700bobo1124bobo400bobo1124bobo$2629b2o1127bo700b2o1127bo400b2o
1127bo$2638bobo12bo2bo14bo1086bo11b2o3b2o691bobo12bo2bo14bo1086bo11b2o
3b2o391bobo12bo2bo14bo1086bo11b2o3b2o$2638bob2obo13bo11b4o1082bo2bo11b
o5bo691bob2obo13bo11b4o1082bo2bo11bo5bo391bob2obo13bo11b4o1082bo2bo11b
o5bo$2643bo9bo3bo10bo4b2o1081b3o714bo9bo3bo10bo4b2o1081b3o414bo9bo3bo
10bo4b2o1081b3o$2640bo2bo10b4o14b2ob2o1066bobo25bo3bo694bo2bo10b4o14b
2ob2o1066bobo25bo3bo394bo2bo10b4o14b2ob2o1066bobo25bo3bo$2641bo26bo3b
4o1068b2o26b3o696bo26bo3b4o1068b2o26b3o396bo26bo3b4o1068b2o26b3o$3744b
o1829bo1529bo3$2630b2o1828b2o1528b2o$2631b2o1106b2o720b2o1106b2o420b2o
1106b2o$2630bo1108b2o10bo708bo1108b2o10bo408bo1108b2o10bo$3752b2o18b2o
1808b2o18b2o1508b2o18b2o$2617b2o26b2o1104b2o19b2o673b2o26b2o1104b2o19b
2o373b2o26b2o1104b2o19b2o$2615bo2bo25b2o1799bo2bo25b2o1499bo2bo25b2o$
2606b2o6bo7b3o3bo17bo1789b2o6bo7b3o3bo17bo1489b2o6bo7b3o3bo17bo$2606b
2o6bo6bo3b5o26b2o1778b2o6bo6bo3b5o26b2o1478b2o6bo6bo3b5o26b2o$2614bo7b
o3b2ob2o23bo3bo1080b3o14bo687bo7bo3b2ob2o23bo3bo1080b3o14bo387bo7bo3b
2ob2o23bo3bo1080b3o14bo$2615bo2bo3bo3b2ob3o13bo7bo5bo8b2o1068b2ob2o12b
2o688bo2bo3bo3b2ob3o13bo7bo5bo8b2o1068b2ob2o12b2o388bo2bo3bo3b2ob3o13b
o7bo5bo8b2o1068b2ob2o12b2o$2617b2o5b4ob2o14bobo4b2obo3bo8b2o1068b2ob2o
16b2o686b2o5b4ob2o14bobo4b2obo3bo8b2o1068b2ob2o16b2o386b2o5b4ob2o14bob
o4b2obo3bo8b2o1068b2ob2o16b2o$2583bo42b4o18b2o3bo5bo1078b5o16bo653bo
42b4o18b2o3bo5bo1078b5o16bo353bo42b4o18b2o3bo5bo1078b5o16bo$2583bobo
42bo19b2o4bo3bo1030b2o46b2o3b2o15bo653bobo42bo19b2o4bo3bo1030b2o46b2o
3b2o15bo353bobo42bo19b2o4bo3bo1030b2o46b2o3b2o15bo$2566bo17bobo61b2o6b
2o1030bobo30b2o673bo17bobo61b2o6b2o1030bobo30b2o373bo17bobo61b2o6b2o
1030bobo30b2o$2566b2o16bo2bo3b2o52bobo1039b3o31b2o673b2o16bo2bo3b2o52b
obo1039b3o31b2o373b2o16bo2bo3b2o52bobo1039b3o31b2o$2561b2o4b2o15bobo4b
2o52bo1041b2o51b2o649b2o4b2o15bobo4b2o52bo1041b2o51b2o349b2o4b2o15bobo
4b2o52bo1041b2o51b2o$2557b2o2b2o4b3o13bobo1101b2o49b5o644b2o2b2o4b3o
13bobo1101b2o49b5o344b2o2b2o4b3o13bobo1101b2o49b5o$2557b2o2b2o4b2o7bob
o4bo1104bobo51bo644b2o2b2o4b2o7bobo4bo1104bobo51bo344b2o2b2o4b2o7bobo
4bo1104bobo51bo$2566b2o9b2o1110bo48b3o655b2o9b2o1110bo48b3o355b2o9b2o
1110bo48b3o$2566bo10bo1143bo16bo657bo10bo1143bo16bo357bo10bo1143bo16bo
$3721bo17b2o1810bo17b2o1510bo17b2o$3686b2o3b2o27bobo16b2o1775b2o3b2o
27bobo16b2o1475b2o3b2o27bobo16b2o$3686b2o3b2o26b2ob2o1792b2o3b2o26b2ob
2o1492b2o3b2o26b2ob2o$3718bo5bo1823bo5bo1523bo5bo$2584bo1103b3o30bo17b
2o3b2o668bo1103b3o30bo17b2o3b2o368bo1103b3o30bo17b2o3b2o$2585b2o1101b
3o27b2o3b2o14bobobobo669b2o1101b3o27b2o3b2o14bobobobo369b2o1101b3o27b
2o3b2o14bobobobo$2584b2o1103bo42bobo5b5o669b2o1103bo42bobo5b5o369b2o
1103bo42bobo5b5o$3732b2o7b3o1818b2o7b3o1518b2o7b3o$3719b4o10bo8bo1806b
4o10bo8bo1506b4o10bo8bo$3719bo2b2o1825bo2b2o1525bo2b2o$3720bob2o1826bo
b2o1526bob2o2$2591bobo1097bo29b2o698bobo1097bo29b2o398bobo1097bo29b2o$
2592b2o1098b2o28bo699b2o1098b2o28bo399b2o1098b2o28bo$2592bo1098b2o729b
o1098b2o429bo1098b2o$3727bobo1827bobo1527bobo$3686b3o27b2obob2o3bo
1789b3o27b2obob2o3bo1489b3o27b2obob2o3bo$3685bo3bo26bo5bo3bo1788bo3bo
26bo5bo3bo1488bo3bo26bo5bo3bo$3684bo5bo26bo3bo4bo2bo7bo1776bo5bo26bo3b
o4bo2bo7bo1476bo5bo26bo3bo4bo2bo7bo$2599bo1084bo5bo27b3o5b3o7b2o7bo
683bo1084bo5bo27b3o5b3o7b2o7bo383bo1084bo5bo27b3o5b3o7b2o7bo$2600b2o
1085bo10bobo35bobo5b3o683b2o1085bo10bobo35bobo5b3o383b2o1085bo10bobo
35bobo5b3o$2599b2o1084bo3bo9b2o42b5o681b2o1084bo3bo9b2o42b5o381b2o
1084bo3bo9b2o42b5o$3686b3o10bo42b2o3b2o1767b3o10bo42b2o3b2o1467b3o10bo
42b2o3b2o$2580bo1106bo55b5o662bo1106bo55b5o362bo1106bo55b5o$2579bobo
1161b5o661bobo1161b5o361bobo1161b5o$2569b2o6b2o3bo1160bo2bo652b2o6b2o
3bo1160bo2bo352b2o6b2o3bo1160bo2bo$2568bobo4b2obo3bo9b2o1093b2o53bo3bo
651bobo4b2obo3bo9b2o1093b2o53bo3bo351bobo4b2obo3bo9b2o1093b2o53bo3bo$
2567b3o4b3obo3bo9b2o12bobo1078b2o17bo12b2o21bo654b3o4b3obo3bo9b2o12bob
o1078b2o17bo12b2o21bo354b3o4b3obo3bo9b2o12bobo1078b2o17bo12b2o21bo$
2558b2o6b3o4bo2b2obobo25b2o1098b2o10b2o21bob2o642b2o6b3o4bo2b2obobo25b
2o1098b2o10b2o21bob2o342b2o6b3o4bo2b2obobo25b2o1098b2o10b2o21bob2o$
2558b2o7b3o4b2o4bo26bo1098b2o35bo644b2o7b3o4b2o4bo26bo1098b2o35bo344b
2o7b3o4b2o4bo26bo1098b2o35bo$2568bobo1154bobo670bobo1154bobo370bobo
1154bobo$2569b2o1157bo670b2o1157bo370b2o1157bo$2578bobo12bo2bo14bo
1116bo11b2o3b2o661bobo12bo2bo14bo1116bo11b2o3b2o361bobo12bo2bo14bo
1116bo11b2o3b2o$2578bob2obo13bo11b4o1112bo2bo11bo5bo661bob2obo13bo11b
4o1112bo2bo11bo5bo361bob2obo13bo11b4o1112bo2bo11bo5bo$2583bo9bo3bo10bo
4b2o1111b3o684bo9bo3bo10bo4b2o1111b3o384bo9bo3bo10bo4b2o1111b3o$2580bo
2bo10b4o14b2ob2o1096bobo25bo3bo664bo2bo10b4o14b2ob2o1096bobo25bo3bo
364bo2bo10b4o14b2ob2o1096bobo25bo3bo$2581bo26bo3b4o1098b2o26b3o666bo
26bo3b4o1098b2o26b3o366bo26bo3b4o1098b2o26b3o$3714bo1829bo1529bo3$
2570b2o1828b2o1528b2o$2571b2o1136b2o690b2o1136b2o390b2o1136b2o$2570bo
1138b2o10bo678bo1138b2o10bo378bo1138b2o10bo$3722b2o18b2o1808b2o18b2o
1508b2o18b2o$2557b2o26b2o1134b2o19b2o643b2o26b2o1134b2o19b2o343b2o26b
2o1134b2o19b2o$2555bo2bo25b2o1799bo2bo25b2o1499bo2bo25b2o$2546b2o6bo7b
3o3bo17bo1789b2o6bo7b3o3bo17bo1489b2o6bo7b3o3bo17bo$2546b2o6bo6bo3b5o
26b2o1778b2o6bo6bo3b5o26b2o1478b2o6bo6bo3b5o26b2o$2554bo7bo3b2ob2o23bo
3bo1110b3o14bo657bo7bo3b2ob2o23bo3bo1110b3o14bo357bo7bo3b2ob2o23bo3bo
1110b3o14bo$2555bo2bo3bo3b2ob3o13bo7bo5bo8b2o1098b2ob2o12b2o658bo2bo3b
o3b2ob3o13bo7bo5bo8b2o1098b2ob2o12b2o358bo2bo3bo3b2ob3o13bo7bo5bo8b2o
1098b2ob2o12b2o$2557b2o5b4ob2o14bobo4b2obo3bo8b2o1098b2ob2o16b2o656b2o
5b4ob2o14bobo4b2obo3bo8b2o1098b2ob2o16b2o356b2o5b4ob2o14bobo4b2obo3bo
8b2o1098b2ob2o16b2o$2523bo42b4o18b2o3bo5bo1108b5o16bo623bo42b4o18b2o3b
o5bo1108b5o16bo323bo42b4o18b2o3bo5bo1108b5o16bo$2523bobo42bo19b2o4bo3b
o1060b2o46b2o3b2o15bo623bobo42bo19b2o4bo3bo1060b2o46b2o3b2o15bo323bobo
42bo19b2o4bo3bo1060b2o46b2o3b2o15bo$2506bo17bobo61b2o6b2o1060bobo30b2o
643bo17bobo61b2o6b2o1060bobo30b2o343bo17bobo61b2o6b2o1060bobo30b2o$
2506b2o16bo2bo3b2o52bobo1069b3o31b2o643b2o16bo2bo3b2o52bobo1069b3o31b
2o343b2o16bo2bo3b2o52bobo1069b3o31b2o$2501b2o4b2o15bobo4b2o52bo1071b2o
51b2o619b2o4b2o15bobo4b2o52bo1071b2o51b2o319b2o4b2o15bobo4b2o52bo1071b
2o51b2o$2497b2o2b2o4b3o13bobo1131b2o49b5o614b2o2b2o4b3o13bobo1131b2o
49b5o314b2o2b2o4b3o13bobo1131b2o49b5o$2497b2o2b2o4b2o7bobo4bo1134bobo
51bo614b2o2b2o4b2o7bobo4bo1134bobo51bo314b2o2b2o4b2o7bobo4bo1134bobo
51bo$2506b2o9b2o1140bo48b3o625b2o9b2o1140bo48b3o325b2o9b2o1140bo48b3o$
2506bo10bo1173bo16bo627bo10bo1173bo16bo327bo10bo1173bo16bo$3691bo17b2o
1810bo17b2o1510bo17b2o$3656b2o3b2o27bobo16b2o1775b2o3b2o27bobo16b2o
1475b2o3b2o27bobo16b2o$3656b2o3b2o26b2ob2o1792b2o3b2o26b2ob2o1492b2o3b
2o26b2ob2o$3688bo5bo1823bo5bo1523bo5bo$2524bo1133b3o30bo17b2o3b2o638bo
1133b3o30bo17b2o3b2o338bo1133b3o30bo17b2o3b2o$2525b2o1131b3o27b2o3b2o
14bobobobo639b2o1131b3o27b2o3b2o14bobobobo339b2o1131b3o27b2o3b2o14bobo
bobo$2524b2o1133bo42bobo5b5o639b2o1133bo42bobo5b5o339b2o1133bo42bobo5b
5o$3702b2o7b3o1818b2o7b3o1518b2o7b3o$3689b4o10bo8bo1806b4o10bo8bo1506b
4o10bo8bo$3689bo2b2o1825bo2b2o1525bo2b2o$3690bob2o1826bob2o1526bob2o2$
2531bobo1127bo29b2o668bobo1127bo29b2o368bobo1127bo29b2o$2532b2o1128b2o
28bo669b2o1128b2o28bo369b2o1128b2o28bo$2532bo1128b2o699bo1128b2o399bo
1128b2o$3697bobo1827bobo1527bobo$3656b3o27b2obob2o3bo1789b3o27b2obob2o
3bo1489b3o27b2obob2o3bo$3655bo3bo26bo5bo3bo1788bo3bo26bo5bo3bo1488bo3b
o26bo5bo3bo$3654bo5bo26bo3bo4bo2bo7bo1776bo5bo26bo3bo4bo2bo7bo1476bo5b
o26bo3bo4bo2bo7bo$2539bo1114bo5bo27b3o5b3o7b2o7bo653bo1114bo5bo27b3o5b
3o7b2o7bo353bo1114bo5bo27b3o5b3o7b2o7bo$2540b2o1115bo10bobo35bobo5b3o
653b2o1115bo10bobo35bobo5b3o353b2o1115bo10bobo35bobo5b3o$2539b2o1114bo
3bo9b2o42b5o651b2o1114bo3bo9b2o42b5o351b2o1114bo3bo9b2o42b5o$3656b3o
10bo42b2o3b2o1767b3o10bo42b2o3b2o1467b3o10bo42b2o3b2o$2520bo1136bo55b
5o632bo1136bo55b5o332bo1136bo55b5o$2519bobo1191b5o631bobo1191b5o331bob
o1191b5o$2509b2o6b2o3bo1190bo2bo622b2o6b2o3bo1190bo2bo322b2o6b2o3bo
1190bo2bo$2508bobo4b2obo3bo9b2o1123b2o53bo3bo621bobo4b2obo3bo9b2o1123b
2o53bo3bo321bobo4b2obo3bo9b2o1123b2o53bo3bo$2507b3o4b3obo3bo9b2o12bobo
1108b2o17bo12b2o21bo624b3o4b3obo3bo9b2o12bobo1108b2o17bo12b2o21bo324b
3o4b3obo3bo9b2o12bobo1108b2o17bo12b2o21bo$2498b2o6b3o4bo2b2obobo25b2o
1128b2o10b2o21bob2o612b2o6b3o4bo2b2obobo25b2o1128b2o10b2o21bob2o312b2o
6b3o4bo2b2obobo25b2o1128b2o10b2o21bob2o$2498b2o7b3o4b2o4bo26bo1128b2o
35bo614b2o7b3o4b2o4bo26bo1128b2o35bo314b2o7b3o4b2o4bo26bo1128b2o35bo$
2508bobo1184bobo640bobo1184bobo340bobo1184bobo$2509b2o1187bo640b2o
1187bo340b2o1187bo$2518bobo12bo2bo14bo1146bo11b2o3b2o631bobo12bo2bo14b
o1146bo11b2o3b2o331bobo12bo2bo14bo1146bo11b2o3b2o$2518bob2obo13bo11b4o
1142bo2bo11bo5bo631bob2obo13bo11b4o1142bo2bo11bo5bo331bob2obo13bo11b4o
1142bo2bo11bo5bo$2523bo9bo3bo10bo4b2o1141b3o654bo9bo3bo10bo4b2o1141b3o
354bo9bo3bo10bo4b2o1141b3o$2520bo2bo10b4o14b2ob2o1126bobo25bo3bo634bo
2bo10b4o14b2ob2o1126bobo25bo3bo334bo2bo10b4o14b2ob2o1126bobo25bo3bo$
2521bo26bo3b4o1128b2o26b3o636bo26bo3b4o1128b2o26b3o336bo26bo3b4o1128b
2o26b3o$3684bo1829bo1529bo3$2510b2o1828b2o1528b2o$2511b2o1166b2o660b2o
1166b2o360b2o1166b2o$2510bo1168b2o10bo648bo1168b2o10bo348bo1168b2o10bo
$3692b2o18b2o1808b2o18b2o1508b2o18b2o$2497b2o26b2o1164b2o19b2o613b2o
26b2o1164b2o19b2o313b2o26b2o1164b2o19b2o$2495bo2bo25b2o1799bo2bo25b2o
1499bo2bo25b2o$2486b2o6bo7b3o3bo17bo1789b2o6bo7b3o3bo17bo1489b2o6bo7b
3o3bo17bo$2486b2o6bo6bo3b5o26b2o1778b2o6bo6bo3b5o26b2o1478b2o6bo6bo3b
5o26b2o$2494bo7bo3b2ob2o23bo3bo1140b3o14bo627bo7bo3b2ob2o23bo3bo1140b
3o14bo327bo7bo3b2ob2o23bo3bo1140b3o14bo$2495bo2bo3bo3b2ob3o13bo7bo5bo
8b2o1128b2ob2o12b2o628bo2bo3bo3b2ob3o13bo7bo5bo8b2o1128b2ob2o12b2o328b
o2bo3bo3b2ob3o13bo7bo5bo8b2o1128b2ob2o12b2o$2497b2o5b4ob2o14bobo4b2obo
3bo8b2o1128b2ob2o16b2o626b2o5b4ob2o14bobo4b2obo3bo8b2o1128b2ob2o16b2o
326b2o5b4ob2o14bobo4b2obo3bo8b2o1128b2ob2o16b2o$2463bo42b4o18b2o3bo5bo
1138b5o16bo593bo42b4o18b2o3bo5bo1138b5o16bo293bo42b4o18b2o3bo5bo1138b
5o16bo$2463bobo42bo19b2o4bo3bo1090b2o46b2o3b2o15bo593bobo42bo19b2o4bo
3bo1090b2o46b2o3b2o15bo293bobo42bo19b2o4bo3bo1090b2o46b2o3b2o15bo$
2446bo17bobo61b2o6b2o1090bobo30b2o613bo17bobo61b2o6b2o1090bobo30b2o
313bo17bobo61b2o6b2o1090bobo30b2o$2446b2o16bo2bo3b2o52bobo1099b3o31b2o
613b2o16bo2bo3b2o52bobo1099b3o31b2o313b2o16bo2bo3b2o52bobo1099b3o31b2o
$2441b2o4b2o15bobo4b2o52bo1101b2o51b2o589b2o4b2o15bobo4b2o52bo1101b2o
51b2o289b2o4b2o15bobo4b2o52bo1101b2o51b2o$2437b2o2b2o4b3o13bobo1161b2o
49b5o584b2o2b2o4b3o13bobo1161b2o49b5o284b2o2b2o4b3o13bobo1161b2o49b5o$
2437b2o2b2o4b2o7bobo4bo1164bobo51bo584b2o2b2o4b2o7bobo4bo1164bobo51bo
284b2o2b2o4b2o7bobo4bo1164bobo51bo$2446b2o9b2o1170bo48b3o595b2o9b2o
1170bo48b3o295b2o9b2o1170bo48b3o$2446bo10bo1203bo16bo597bo10bo1203bo
16bo297bo10bo1203bo16bo$3661bo17b2o1810bo17b2o1510bo17b2o$3626b2o3b2o
27bobo16b2o1775b2o3b2o27bobo16b2o1475b2o3b2o27bobo16b2o$3626b2o3b2o26b
2ob2o1792b2o3b2o26b2ob2o1492b2o3b2o26b2ob2o$3658bo5bo1823bo5bo1523bo5b
o$2464bo1163b3o30bo17b2o3b2o608bo1163b3o30bo17b2o3b2o308bo1163b3o30bo
17b2o3b2o$2465b2o1161b3o27b2o3b2o14bobobobo609b2o1161b3o27b2o3b2o14bob
obobo309b2o1161b3o27b2o3b2o14bobobobo$2464b2o1163bo42bobo5b5o609b2o
1163bo42bobo5b5o309b2o1163bo42bobo5b5o$3672b2o7b3o1818b2o7b3o1518b2o7b
3o$3659b4o10bo8bo1806b4o10bo8bo1506b4o10bo8bo$3659bo2b2o1825bo2b2o
1525bo2b2o$3660bob2o1826bob2o1526bob2o2$2471bobo1157bo29b2o638bobo
1157bo29b2o338bobo1157bo29b2o$2472b2o1158b2o28bo639b2o1158b2o28bo339b
2o1158b2o28bo$2472bo1158b2o669bo1158b2o369bo1158b2o$3667bobo1827bobo
1527bobo$3626b3o27b2obob2o3bo1789b3o27b2obob2o3bo1489b3o27b2obob2o3bo$
3625bo3bo26bo5bo3bo1788bo3bo26bo5bo3bo1488bo3bo26bo5bo3bo$3624bo5bo26b
o3bo4bo2bo7bo1776bo5bo26bo3bo4bo2bo7bo1476bo5bo26bo3bo4bo2bo7bo$2479bo
1144bo5bo27b3o5b3o7b2o7bo623bo1144bo5bo27b3o5b3o7b2o7bo323bo1144bo5bo
27b3o5b3o7b2o7bo$2480b2o1145bo10bobo35bobo5b3o623b2o1145bo10bobo35bobo
5b3o323b2o1145bo10bobo35bobo5b3o$2479b2o1144bo3bo9b2o42b5o621b2o1144bo
3bo9b2o42b5o321b2o1144bo3bo9b2o42b5o$3626b3o10bo42b2o3b2o1767b3o10bo
42b2o3b2o1467b3o10bo42b2o3b2o$2460bo1166bo55b5o602bo1166bo55b5o302bo
1166bo55b5o$2459bobo1221b5o601bobo1221b5o301bobo1221b5o$2449b2o6b2o3bo
1220bo2bo592b2o6b2o3bo1220bo2bo292b2o6b2o3bo1220bo2bo$2448bobo4b2obo3b
o9b2o1153b2o53bo3bo591bobo4b2obo3bo9b2o1153b2o53bo3bo291bobo4b2obo3bo
9b2o1153b2o53bo3bo$2447b3o4b3obo3bo9b2o12bobo1138b2o17bo12b2o21bo594b
3o4b3obo3bo9b2o12bobo1138b2o17bo12b2o21bo294b3o4b3obo3bo9b2o12bobo
1138b2o17bo12b2o21bo$2438b2o6b3o4bo2b2obobo25b2o1158b2o10b2o21bob2o
582b2o6b3o4bo2b2obobo25b2o1158b2o10b2o21bob2o282b2o6b3o4bo2b2obobo25b
2o1158b2o10b2o21bob2o$2438b2o7b3o4b2o4bo26bo1158b2o35bo584b2o7b3o4b2o
4bo26bo1158b2o35bo284b2o7b3o4b2o4bo26bo1158b2o35bo$2448bobo1214bobo
610bobo1214bobo310bobo1214bobo$2449b2o1217bo610b2o1217bo310b2o1217bo$
2458bobo12bo2bo14bo1176bo11b2o3b2o601bobo12bo2bo14bo1176bo11b2o3b2o
301bobo12bo2bo14bo1176bo11b2o3b2o$2458bob2obo13bo11b4o1172bo2bo11bo5bo
601bob2obo13bo11b4o1172bo2bo11bo5bo301bob2obo13bo11b4o1172bo2bo11bo5bo
$2463bo9bo3bo10bo4b2o1171b3o624bo9bo3bo10bo4b2o1171b3o324bo9bo3bo10bo
4b2o1171b3o$2460bo2bo10b4o14b2ob2o1156bobo25bo3bo604bo2bo10b4o14b2ob2o
1156bobo25bo3bo304bo2bo10b4o14b2ob2o1156bobo25bo3bo$2461bo26bo3b4o
1158b2o26b3o606bo26bo3b4o1158b2o26b3o306bo26bo3b4o1158b2o26b3o$3654bo
1829bo1529bo3$2450b2o1828b2o1528b2o$2451b2o1828b2o1528b2o$2450bo1210bo
618bo1210bo318bo1210bo$3662b2o18b2o1808b2o18b2o1508b2o18b2o$2437b2o26b
2o1194b2o19b2o583b2o26b2o1194b2o19b2o283b2o26b2o1194b2o19b2o$2435bo2bo
25b2o1799bo2bo25b2o1499bo2bo25b2o$2426b2o6bo7b3o3bo17bo1789b2o6bo7b3o
3bo17bo1489b2o6bo7b3o3bo17bo$2426b2o6bo6bo3b5o26b2o1778b2o6bo6bo3b5o
26b2o1478b2o6bo6bo3b5o26b2o$2434bo7bo3b2ob2o23bo3bo1187bo597bo7bo3b2ob
2o23bo3bo1187bo297bo7bo3b2ob2o23bo3bo1187bo$2435bo2bo3bo3b2ob3o13bo7bo
5bo8b2o1175b2o598bo2bo3bo3b2ob3o13bo7bo5bo8b2o1175b2o298bo2bo3bo3b2ob
3o13bo7bo5bo8b2o1175b2o$2437b2o5b4ob2o14bobo4b2obo3bo8b2o1179b2o596b2o
5b4ob2o14bobo4b2obo3bo8b2o1179b2o296b2o5b4ob2o14bobo4b2obo3bo8b2o1179b
2o$2446b4o18b2o3bo5bo1189bo606b4o18b2o3bo5bo1189bo306b4o18b2o3bo5bo
1189bo$2448bo19b2o4bo3bo1190bo608bo19b2o4bo3bo1190bo308bo19b2o4bo3bo
1190bo$2468b2o6b2o1820b2o6b2o1520b2o6b2o$2465bobo1827bobo1527bobo$
2465bo1829bo1529bo34$2892b2o1828b2o1528b2o$2893bo1829bo1529bo$2893bobo
6b2o1819bobo6b2o1519bobo6b2o$2894b2o6b3o1819b2o6b3o1519b2o6b3o$2904b2o
bo1826b2obo1526b2obo$2904bo2bo5b2o1819bo2bo5b2o1519bo2bo5b2o$2904b2obo
5b2o1819b2obo5b2o1519b2obo5b2o$2902b3o1827b3o1527b3o$2902b2o1828b2o
1528b2o129$3037bo1829bo1529bo$3035b3o1827b3o1527b3o$3034bo1829bo1529bo
$3034b2o1828b2o1528b2o9$3031b3o1827b3o1527b3o$3030bo3bo1825bo3bo1525bo
3bo$3029bo5bo1823bo5bo1523bo5bo$3030bo3bo1825bo3bo1525bo3bo$3031b3o
1827b3o1527b3o$3031b3o1827b3o1527b3o4$3031b2o1828b2o1528b2o$3031b2o
1828b2o1528b2o44$2251b2o$2251bo$2238bo10bobo$2236b4o9b2o$2235bobob2o$
2230b2o2bo2bob3o$2230b2o3bobob2o$2236b4o$2238bo70$2643b2o1828b2o1528b
2o$2644bo1829bo1529bo$2644bobo7bo1819bobo7bo1519bobo7bo$2645b2o7b4o
1817b2o7b4o1517b2o7b4o$2338b6o311b4o1826b4o1209b6o311b4o$2337bo6bo310b
o2bo5b2o1819bo2bo5b2o1201bo6bo310bo2bo5b2o$2336bo8bo309b4o5b2o1819b4o
5b2o1200bo8bo309b4o5b2o$2337bo6bo309b4o1826b4o1209bo6bo309b4o$2338b6o
310bo1829bo1213b6o310bo3$2327b3o$2327b3o$2328bo$2328bo$2328bo$2327bobo
3$2327bobo$2328bo$2328bo$2328bo$2327b3o$2327b3o13$656bo$654b3o$653bo$
653b2o7$648b2o3b2o$649b5o$649b2ob2o2046bo1829bo1529bo$649b2ob2o2044b3o
1827b3o1527b3o$650b3o2044bo1829bo1529bo$2697b2o1828b2o1528b2o3$679b2o$
679b2o2$655bo$649bo3bobo2036b2o3b2o1823b2o3b2o1523b2o3b2o$648b3o3b2o
2039bo1829bo1529bo$647b5o2040bo5bo1823bo5bo1523bo5bo$646bobobobo2040b
2ob2o1825b2ob2o1525b2ob2o$646b2o3b2o2041bobo1827bobo1527bobo$2695bo
1829bo1529bo$662bo2032bo1829bo1529bo$649bo13bo$648bobo10b3o14b5o$648bo
bo26bob3obo$649bo28bo3bo$649b2o28b3o2012b2o1828b2o1528b2o$649b2o29bo
2013b2o1828b2o1528b2o$649b2o$670bo$668bobo$669b2o11bo$682bo$675bo5bobo
$675bobo2b2ob2o$667b2o6b2o2bo5bo$667b2o13bo$679b2o3b2o5245b2o$5930bobo
$5932bo$675bo$676b2o$675b2o$684b2o2817b2o1828b2o1528b2o$684bo2818bo
1829bo1529bo$657b2o26b3o2802b2o9bobo1816b2o9bobo1516b2o9bobo$650b3o4b
2o28bo2800bo3bo8b2o1815bo3bo8b2o1515bo3bo8b2o$649b5o6b2o10bo2814bo5bo
1823bo5bo1523bo5bo$648bobo3bo5b3o7bobo9bobo2797b2o2b2obo3bo1818b2o2b2o
bo3bo1518b2o2b2obo3bo$648b2o3bo6b2o6b2o13b2o2797b2o3bo5bo1818b2o3bo5bo
1518b2o3bo5bo$657b2o9b2o13bo2804bo3bo1825bo3bo1525bo3bo$657b2o9b2o
2820b2o1828b2o1528b2o$670bobo7b2o$660bo11bo7bobo$660bobo19bo$660b2o20b
2o6bo$691b2o$690b2o3$653bo$652bo$652b3o$697bobo$698b2o$698bo3$645bo$
645bobo$645b2o58bo$706b2o$705b2o$634b2o$634bobo$629b2o4b3o12bo65b2o$
625b4o2bo4b3o8b4o63bo2bo$625b3ob2o4b3o8b4o51bobo9bo7b5o$634bobo9bo2bo
51bo3bo7bo6bo5bo$634b2o10b4o55bo7bo7b2o3bo$647b4o6b2o42bo4bo7bo2bo7bo$
650bo6bobo45bo10b2o$659bo33b2o6bo3bo$659b2o31bobo6bobo$692bo$691b2o14$
3499b2o1828b2o1528b2o$3499bo1829bo1529bo$3491bo5bobo1821bo5bobo1521bo
5bobo$3490b4o3b2o1821b4o3b2o1521b4o3b2o$3489b2obobo1824b2obobo1524b2ob
obo$3478b2o8b3obo2bo1812b2o8b3obo2bo1512b2o8b3obo2bo$3478b2o9b2obobo
1813b2o9b2obobo1513b2o9b2obobo$3490b4o1826b4o1526b4o$3491bo1829bo1529b
o45$2404bo2bob2obo2bo1818bo2bob2obo2bo1518bo2bob2obo2bo$2404b4ob2ob4o
1818b4ob2ob4o1518b4ob2ob4o$2404bo2bob2obo2bo1818bo2bob2obo2bo1518bo2bo
b2obo2bo275bo$6050bo$6050b3o3$2422bo1829bo1529bo$2421b3o1827b3o1527b3o
$2420b5o1825b5o1525b5o7$2420b5o1825b5o1525b5o$2421b3o1827b3o1527b3o$
2422bo1829bo1529bo41$3671bo2b2o4b2o2bo1816bo2b2o4b2o2bo1516bo2b2o4b2o
2bo$3670bo3b3o2b3o3bo1814bo3b3o2b3o3bo1514bo3b3o2b3o3bo$2375b2o6b2o
1286bo2b2o4b2o2bo520b2o6b2o1286bo2b2o4b2o2bo220b2o6b2o1286bo2b2o4b2o2b
o$2374bo2bo4bo2bo1818bo2bo4bo2bo1518bo2bo4bo2bo$2374bo2bo4bo2bo1818bo
2bo4bo2bo1518bo2bo4bo2bo$2374bo2bo4bo2bo1818bo2bo4bo2bo1518bo2bo4bo2bo
$2375b2o6b2o1279b3o538b2o6b2o1279b3o238b2o6b2o1279b3o2$3663bo3bo1825bo
3bo1525bo3bo$3663bo3bo1825bo3bo1525bo3bo2$3664b3o1827b3o1527b3o$2391b
3o1827b3o1527b3o$2391bobo1827bobo1527bobo$2391b3o1270b3o554b3o1270b3o
254b3o1270b3o$2391b3o1827b3o1527b3o$2391b3o1269bo3bo553b3o1269bo3bo
253b3o1269bo3bo$2391b3o1269bo3bo553b3o1269bo3bo253b3o1269bo3bo$2391bob
o1827bobo1527bobo$1892bo498b3o1270b3o554b3o1270b3o254b3o1270b3o$1892b
3o$1895bo$1894b2o2$1896b3o$1896b3o4$1894b2o3b2o$1895b5o$1896b3o$1897bo
8$1897b2o$1897b2o$3338bo1829bo1529bo$3338b3o1827b3o1527b3o$323b2o3016b
o1829bo1529bo$323b2o3015b2o1828b2o1528b2o3$3342b3o1827b3o1527b3o$3342b
3o1827b3o1527b3o$323bo3017bo3bo1825bo3bo1525bo3bo$321b2ob2o3014bo5bo
1823bo5bo1523bo5bo$3341bo3bo1825bo3bo1525bo3bo$320bo5bo3015b3o1827b3o
1527b3o2$320b2obob2o$341b2o$341b2o$321bo$321bo2bo$321bo$324b2o$325bo$
323bobo15b3o2999b2o1828b2o1528b2o$323b2o15b2ob2o2998b2o1828b2o1528b2o$
340b2ob2o$340b5o$318b2o3b2o14b2o3b2o$318bo5bo$331bo2104bo1829bo1529bo$
319bo3bo5bobo10b2o2090b3o1827b3o1527b3o$320b3o7b2o8b5o2088bo1829bo
1529bo$344bo2089bo1829bo1529bo$340b3o2088bo2bo1826bo2bo1526bo2bo$340bo
2089bo1829bo1529bo$341b2o2087bobo1827bobo1527bobo$341b2o2088bo1829bo
1529bo2$2377b2o1828b2o1528b2o$336b2o3b2o3b2o2029b2o49b2o3b2o1772b2o49b
2o3b2o1472b2o49b2o3b2o$336b3o2bobobobo2080bobobobo1823bobobobo1523bobo
bobo$326b2o7bob2o3b5o2082b5o1825b5o1525b5o$317b3o5bobo7b3o5b3o2071bo
12b3o1814bo12b3o1514bo12b3o$316bo3bo6bo8bo7bo2032bo37b3o13bo1775bo37b
3o13bo1475bo37b3o13bo$315bo5bo2054b3o35bo1791b3o35bo1491b3o35bo$315bo
5bo2053bo3bo34b2o1789bo3bo34b2o1489bo3bo34b2o$2374bob3obo1823bob3obo
1523bob3obo$321bo2053b5o1825b5o1525b5o$320b2o5b2o35bo$320b2o4bobo33b3o
$318bo2b2o3bobob2o11b2o16bo2066bobo1270bo2b2o4b2o2bo543bobo1270bo2b2o
4b2o2bo243bobo1270bo2b2o4b2o2bo$319bobo5bobobo11b2o16b2o2046b2obob2o
12b2o1270bo3b3o2b3o3bo523b2obob2o12b2o1270bo3b3o2b3o3bo223b2obob2o12b
2o1270bo3b3o2b3o3bo$319b2o8bo2079bo5bo13bo1271bo2b2o4b2o2bo524bo5bo13b
o1271bo2b2o4b2o2bo224bo5bo13bo1271bo2b2o4b2o2bo$328bo2bo2042b2o2bo31bo
3bo1789b2o2bo31bo3bo1489b2o2bo31bo3bo$328bo2047bobo32b3o1792bobo32b3o
1492bobo32b3o$317b2o3b2o4bo3bo2045b2o52b3o1773b2o52b3o1473b2o52b3o$
317b2o3b2o4bo5bob2o2041b2o50bo3bo1258b3o512b2o50bo3bo1258b3o212b2o50bo
3bo1258b3o$328bo2bo3b3o2039bob2o41bo7bo5bo1770bob2o41bo7bo5bo1470bob2o
41bo7bo5bo$319b3o7bo6bo2040b3o40b2o9bo3bo1257bo3bo509b3o40b2o9bo3bo
1257bo3bo209b3o40b2o9bo3bo1257bo3bo$319b3o5bobobo2089b2o9b3o1258bo3bo
553b2o9b3o1258bo3bo253b2o9b3o1258bo3bo$320bo5bobob2o2100b3o1827b3o
1527b3o$326bobo2043b2o3b2o35bo1279b3o505b2o3b2o35bo1279b3o205b2o3b2o
35bo1279b3o$327b2o2046bo39bo1789bo39bo1489bo39bo$2372bo5bo34b3o1786bo
5bo34b3o1486bo5bo34b3o$1027b2o1344b2ob2o6bobo49bo1257b3o506b2ob2o6bobo
49bo1257b3o206b2ob2o6bobo49bo1257b3o$1027b2o1345bobo8b2o38b2o7b2ob2o
1765bobo8b2o38b2o7b2ob2o1465bobo8b2o38b2o7b2ob2o$320b2o2053bo9bo38b2o
1267bo3bo507bo9bo38b2o1267bo3bo207bo9bo38b2o1267bo3bo$320b2o2053bo50bo
6bo5bo1253bo3bo507bo50bo6bo5bo1253bo3bo207bo50bo6bo5bo1253bo3bo$2408b
5o1825b5o1525b5o$336b2o2069bob3obo2bobo14b2obob2o1254b3o540bob3obo2bob
o14b2obob2o1254b3o240bob3obo2bobo14b2obob2o1254b3o$336b3o689bo1379bo3b
o6bo1818bo3bo6bo1518bo3bo6bo$335bob2o687b2ob2o1361bo16b3o7bo1802bo16b
3o7bo1502bo16b3o7bo$335b3o2037b2o16b2o15bo5bo2bo12b2o1771b2o16b2o15bo
5bo2bo12b2o1471b2o16b2o15bo5bo2bo12b2o$336bo688bo5bo1343b2o15b2o23b3o
12bobo1770b2o15b2o23b3o12bobo1470b2o15b2o23b3o12bobo$2433bo1829bo1529b
o$1025b2obob2o1401b2o1828b2o1528b2o$1009b2o1399b2o20b3o1805b2o20b3o
1505b2o20b3o$1009b2o1399b2o20b2o1806b2o20b2o1506b2o20b2o$1030bo1404bo
1829bo1529bo$1027bo2bo1368bobo1827bobo1527bobo$1030bo1369b2o1828b2o
1528b2o$1026b2o1372bo1829bo1529bo$1026bo1407bo1829bo1529bo$1008b3o15bo
bo1404b3o1827b3o1527b3o$1007b2ob2o15b2o1389bobo11b5o1811bobo11b5o1511b
obo11b5o$1007b2ob2o1405bo13b2o3b2o1809bo13b2o3b2o1509bo13b2o3b2o$1007b
5o1395bo9bo14b5o1800bo9bo14b5o1500bo9bo14b5o$310bo695b2o3b2o14b2o3b2o
1374b2o7bo2bo11bo3bo1801b2o7bo2bo11bo3bo1501b2o7bo2bo11bo3bo$309bobo
715bo5bo1373b2o8b3o13bobo1801b2o8b3o13bobo1501b2o8b3o13bobo$292b2o14bo
3b2o706bo1413bo1829bo1529bo$292bobo13bo3b2o694b2o10bobo5bo3bo$293b3o
12bo3b2o693b5o8b2o7b3o$294b3o12bobo3b2o690bo1425b2o1828b2o1528b2o$293b
3o7bo6bo4bobo691b3o1421b2o1828b2o1528b2o$285b2o5bobo9b2o11bo693bo1402b
obo1827bobo1527bobo$284bobo5b2o9b2o12b2o690b2o1404b2o1828b2o1528b2o$
284bo724b2o1404bo1829bo1529bo$283b2o2$336b2o666b2o3b2o3b2o$336b3o665bo
bobobo2b3o1403bo1829bo1529bo$280b2o53bob2o666b5o3b2obo7b2o1391bo2bo
1826bo2bo1526bo2bo$281bo53b3o668b3o5b3o7bobo5b3o1383b2o1828b2o1528b2o$
281bobo6bo7bo37bo19bobo648bo7bo8bo6bo3bo$282b2o4bobo5b4o56bo3bo669bo5b
o$286b2o8b2o2bo2b2o41b2o12bo669bo5bo$286b2o11b2o2b2o41b2o8bo4bo$286b2o
7bo10b2o52bo669bo2150bo1829bo1529bo$288bobo4bo10b3o9bo37bo3bo4b2o656b
2o5b2o2149b3o1827b3o1527b3o$290bo4bo10b2o11b2o35bobo6bobo655bobo4b2o
2152bo1829bo1529bo$303b2o7b2o4b2o47bo639b2o11b2obobo3b2o2bo2149b2o
1828b2o1528b2o$303b2o7bobo52b2o638b2o11bobobo5bobo$314bo707bo8b2o2153b
o1829bo1529bo$314b2o704bo2bo2161b3o1827b3o1527b3o$1023bo2160bo3bo1825b
o3bo1525bo3bo$1019bo3bo4b2o3b2o2151bo1829bo1529bo$1014b2obo5bo4b2o3b2o
2148bo5bo1823bo5bo1523bo5bo$1014b3o3bo2bo2159bo5bo1823bo5bo1523bo5bo$
1015bo6bo7b3o2151bo3bo1825bo3bo1525bo3bo$1020bobobo5b3o2152b3o1827b3o
1527b3o$1020b2obobo5bo$1023bobo1462bo1829bo1529bo$1023b2o1461b3o1827b
3o1527b3o$2485bo1829bo1529bo$2485b2o1828b2o1528b2o2$1030b2o$1030b2o$
3186b2o1828b2o1528b2o$336b2o676b2o2170b2o1828b2o1528b2o$336b3o674b3o
1413b2o1828b2o1528b2o$335bob2o674b2obo1412b2o1828b2o1528b2o$335b3o676b
3o1412b2o49b2obob2o1772b2o49b2obob2o1472b2o49b2obob2o$336bo678bo1413bo
1829bo1529bo$2428bobo38bo10bo5bo1771bobo38bo10bo5bo1471bobo38bo10bo5bo
$2428bobo36b3o1788bobo36b3o1488bobo36b3o$2429bo36bo14b2ob2o1773bo36bo
14b2ob2o1473bo36bo14b2ob2o$2466b2o15bo1812b2o15bo1512b2o15bo2$2426b2o
3b2o1823b2o3b2o1523b2o3b2o$2426bobobobo1823bobobobo1523bobobobo$2427b
5o1825b5o1525b5o$2428b3o1827b3o1527b3o$2429bo50bo1778bo50bo1478bo50bo$
2461b2o3b2o10b2o4b3o1804b2o3b2o10b2o4b3o1504b2o3b2o10b2o4b3o$1026b2o
1434b5o12b2o2bo3bo1804b5o12b2o2bo3bo1504b5o12b2o2bo3bo$1026bobo1433b2o
b2o1825b2ob2o1525b2ob2o$1028bo12bo1420b2ob2o15bo5bo1803b2ob2o15bo5bo
1503b2ob2o15bo5bo$1028b2o10bobo1420b3o16b2o3b2o1804b3o16b2o3b2o1504b3o
16b2o3b2o$1038b2o3bo14b2o$1038b2o3bo13bobo1370bobo1827bobo1527bobo$
1038b2o3bo12b3o1372b2o38bobo11bo1775b2o38bobo11bo1475b2o38bobo11bo$
1035b2o3bobo12b3o1373bo39b2o11bobo1774bo39b2o11bobo1474bo39b2o11bobo$
1034bobo4bo6bo7b3o1413bo11bo1817bo11bo1517bo11bo$1034bo11b2o9bobo5b2o
1421bo1829bo1529bo$1033b2o12b2o9b2o5bobo1358b3o39bo7bo12bo1766b3o39bo
7bo12bo1466b3o39bo7bo12bo$1067bo1357bo3bo32bo3bobo6b2o8bo4bo1764bo3bo
32bo3bobo6b2o8bo4bo1464bo3bo32bo3bobo6b2o8bo4bo$1067b2o1355bo5bo7bo22b
3o3b2o6bobo10bo1765bo5bo7bo22b3o3b2o6bobo10bo1465bo5bo7bo22b3o3b2o6bob
o10bo$2425bo3bo9b2o19b5o20bo5bo1763bo3bo9b2o19b5o20bo5bo1463bo3bo9b2o
19b5o20bo5bo$336b2o676b2o1410b3o9b2o19bobobobo19bo5bo1764b3o9b2o19bobo
bobo19bo5bo1464b3o9b2o19bobobobo19bo5bo$336b3o674b3o1410b3o30b2o3b2o
20bo3bo1765b3o30b2o3b2o20bo3bo1465b3o30b2o3b2o20bo3bo$335bob2o674b2obo
53b2o1415b3o1827b3o1527b3o$335b3o676b3o53bo$336bo678bo37bo7bo6bobo
1391bo20b2o1807bo20b2o1507bo20b2o$1052b4o5bobo4b2o1357b2o32bobo6bobo9b
2o1773b2o32bobo6bobo9b2o1473b2o32bobo6bobo9b2o$1047b2o2bo2b2o8b2o1361b
2o16bobo13bobo5bo14bo1772b2o16bobo13bobo5bo14bo1472b2o16bobo13bobo5bo
14bo$1047b2o2b2o11b2o1380b2o14bo6bo1806b2o14bo6bo1506b2o14bo6bo$1044b
2o10bo7b2o1380bo15b2o5bo2bo1803bo15b2o5bo2bo1503bo15b2o5bo2bo$1033bo9b
3o10bo4bobo1398b2o5b3o1820b2o5b3o1520b2o5b3o$1031b2o11b2o10bo4bo1400b
2o1828b2o1528b2o$1032b2o4b2o7b2o$1037bobo7b2o1437bo1829bo1529bo$1037bo
1415bo31b3o1795bo31b3o1495bo31b3o$963b2o71b2o1416b2o29b3o1796b2o29b3o
1496b2o29b3o$962bobo1488b2o1828b2o1528b2o$961b3o12bo1506b2o3b2o1823b2o
3b2o1523b2o3b2o$952b2o6b3o8b2o3b4o1503b2o3b2o1823b2o3b2o1523b2o3b2o$
952b2o7b3o8b2o3b4o$962bobo2b2obob2o3bo2bo5b2o$963b2o2b2obobo4b4o5b2o
1480bobo15bo1811bobo15bo1511bobo15bo$969b2obo3b4o1480bobo8bo13bobo
1802bobo8bo13bobo1502bobo8bo13bobo$976bo1484b2o8bo15b2o1802b2o8bo15b2o
1502b2o8bo15b2o$452b2o28b2o28b2o28b2o28b2o28b2o28b2o28b2o28b2o28b2o28b
2o28b2o28b2o28b2o28b2o28b2o28b2o28b2o1497bo6bo2bo15b2o1802bo6bo2bo15b
2o1502bo6bo2bo15b2o$451b4o26b4o26b4o26b4o26b4o26b4o26b4o26b4o26b4o26b
4o26b4o26b4o26b4o26b4o26b4o26b4o26b4o11b2o13b4o1504b3o14b3o1810b3o14b
3o1510b3o14b3o$450b2ob2o25b2ob2o25b2ob2o25b2ob2o25b2ob2o25b2ob2o25b2ob
2o25b2ob2o25b2ob2o25b2ob2o25b2ob2o25b2ob2o25b2ob2o25b2ob2o25b2ob2o25b
2ob2o25b2ob2o10b3o12b2ob2o1520bobo1827bobo1527bobo$451b2o28b2o28b2o28b
2o28b2o28b2o28b2o28b2o28b2o28b2o28b2o28b2o28b2o28b2o28b2o28b2o28b2o13b
o14b2o1522b2o1828b2o1528b2o$399bo26b2o519bo$398bobo24bobo2040bo1829bo
1529bo$388b2o7bob2o24bo522bo1520b2o1828b2o1528b2o$336b2o49bobo6b2ob2o
10b2o11b2o517b2obo3bob2o18b3o39b2o1452b2o1828b2o1528b2o$336b3o47bo6b3o
bob2o10b2o530bo9bo18bo40b3o$335bob2o47bo2bo2bo2bo2bobo543b2o5b2o20bo
39b2obo$335b3o48bo6b2o4bo541b3o2b5o2b3o58b3o$336bo42b2o6bobo551bo2bo7b
o2bo4b3o52bo$378bobo7b2o552b2o9b2o7bo25bobo$378bo582bo18b3o5bo3bo$377b
2o21bobo8bo563b2o2bo2bobo7bo5b2o$401b2o6b3o535b2o24bo2bo2b2o7bo4bo4b2o
$401bo6bo538b2o4bo18bo19bo$408b2o526b2o6b2o6b5ob2o12bo10b3o2bo3bo$936b
2o5b3o5bo2b2o4bo11bo15bobo$944b2o5b2o8bo11bo2bo$406bo540b2o4bo7bo13b2o
$405b3o539b2o12bo$369b2o28bo4bo3bo551bo$369b3o26bo4bob3obo548b2o$355bo
15b2obo23b3o3b5o$310bo42bobo4b3o8bo2bo5b2o$309bobo40bobo16b2obo5b2o$
292b2o14bo3b2o32b2o3bo2bo7bo2b2o2b3o$292bobo13bo3b2o32b2o4bobo7bo3bo2b
2o$293b3o12bo3b2o39bobo6bo2bo$294b3o12bobo3b2o38bo8b2o25bo$293b3o7bo6b
o4bobo73bobo476b2o$285b2o5bobo9b2o11bo73b2o5bo472bo$284bobo5b2o9b2o12b
2o77b3o472bobo7bo$284bo88bo21bo476b2o4b4o$283b2o86bobo21b2o8b2o470b4o
16bo$372b2o31b2o470bo2bo8b2o5bobo$336b2o46bo492b4o14bo3b2o3b2o108b2o$
336b3o44bo7b2o485b4o3b2obobo4bo3b2o3b2o107b3o$280b2o53bob2o44b3o6b2o
487bo2bo3b2o5bo3b2o112b2obo$281bo53b3o41bo11bo493bo10bobo115b3o$281bob
o6bo7bo37bo42bo505bo2bo8bo117bo$282b2o4bobo5b4o$286b2o8b2o2bo2b2o$286b
2o11b2o2b2o$286b2o7bo10b2o76bo493bo$288bobo4bo10b3o9bo65b2o491bo$290bo
4bo10b2o11b2o62bobo491b3o$303b2o7b2o4b2o$303b2o7bobo$314bo$314b2o2$
376b2o492bo26b2o$377b2o491bobo26bo$366b2o8bo493b2o14b2o12bo$365bobo
518b2o4bo7bo13b2o$365bo517b2o5b2o8bo11bo2bo$364b2o516b3o5bo2b2o4bo11bo
15bobo$883b2o6b5ob2o12bo10b3o2bo3bo$347b2o20bo493bo13b2o7b2o4bo18bo19b
o5b2o$348bo20b2o491bo13bobo7b2o24bo2bo2b2o7bo4bo4b2o$348bobo6bobo8bobo
10b2o479b3o11bo37b2o2bo2bobo7bo$349b2o6bo3bo19bo493b2o23bo18b3o5bo3bo$
361bo10b2o5bobo519bo25bobo22bo$357bo4bo7bo2bo5b2o518b3o49bobo$361bo7bo
581b2obo7b2o$336b2o19bo3bo7bo542bo26b2o10b2ob2o6bobo49b2o$336b3o18bobo
9bo485bo55bo27b2o10b2obob3o6bo47b3o$335bob2o31bo2bo51b2o428bobo53b3o
37bobo2bo2bo2bo2bo47b2obo$335b3o34b2o52bo428b2o95bo4b2o6bo48b3o$336bo
89bobo533bobo6b2o42bo$427b2o427b2o28b2o74b2o7bobo$855b4o11b2o13b4o11b
2o71bo$854b2ob2o10b2ob2o10b2ob2o10b2ob2o36bo8bobo21b2o$855b2o13b4o11b
2o13b4o36b3o6b2o$871b2o28b2o40bo6bo$915bo26b2o$908b2obo3b4o$902b2o2b2o
bobo4b4o5b2o$901bobo2b2obob2o3bo2bo5b2o18bo$891b2o7b3o8b2o3b4o24b3o$
891b2o6b3o8b2o3b4o24bo3bo4bo28b2o$900b3o12bo26bob3obo4bo26b3o$901bobo
39b5o3b3o23bob2o15bo$902b2o66b2o5bo2bo8b3o4bobo42bo$970b2o5bob2o16bobo
40bobo$980b3o2b2o2bo7bo2bo3b2o32b2o3bo14b2o$981b2o2bo3bo7bobo4b2o32b2o
3bo13bobo$986bo2bo6bobo39b2o3bo12b3o$960bo25b2o8bo38b2o3bobo12b3o$482b
2o474bobo73bobo4bo6bo7b3o$482bo470bo5b2o73bo11b2o9bobo5b2o$475bo4bobo
470b3o77b2o12b2o9b2o5bobo$474bobo3b2o474bo21bo88bo$457b2o15b2obo467b2o
8b2o21bobo86b2o$457bobo14b2ob2o466b2o31b2o$336b2o110b2o2b2o6bo13b2obo
489bo46b2o$336b3o109b2obo2bo2bo2bo13bobo482b2o7bo44b3o$335bob2o113b2o
6bo8bo5bo482b2o6b3o44b2obo53b2o$335b3o119bobo7bobo490bo11bo41b3o53bo$
336bo120b2o9b2o502bo42bo37bo7bo6bobo$1052b4o5bobo4b2o$1047b2o2bo2b2o8b
2o$1047b2o2b2o11b2o$967bo76b2o10bo7b2o$476bo489b2o65bo9b3o10bo4bobo$
477bo488bobo62b2o11b2o10bo4bo$475b3o554b2o4b2o7b2o$1037bobo7b2o$1037bo
$1036b2o2$454b2o518b2o$452bo2bo28bo488b2o$451bo15bobo12bobo490bo8b2o$
439bo11bo10b3o2bo3bo11b2o499bobo$439b4o8bo19bo514bo$423bo16b4o8bo2bo2b
2o7bo4bo513b2o$422bobo5b2o8bo2bo10b2o2bo2bobo7bo$415b2o3b2o3bo14b4o15b
3o5bo3bo3b2o505bo20b2o$415b2o3b2o3bo4bobob2o3b4o24bobo5bobo13bo489b2o
20bo$420b2o3bo5b2o3bo2bo37bo14bo476b2o10bobo8bobo6bobo$422bobo10bo41b
2o11b3o477bo19bo3bo6b2o$399bo23bo8bo2bo16bo517bobo5b2o10bo$398bobo50bo
519b2o5bo2bo7bo4bo$388b2o7bob2o50b3o528bo7bo$336b2o49bobo6b2ob2o10b2o
569bo7bo3bo19b2o$336b3o47bo6b3obob2o10b2o29bo539bo9bobo18b3o$335bob2o
47bo2bo2bo2bo2bobo42bo534bo2bo31b2obo$335b3o48bo6b2o4bo41b3o54b2o478b
2o34b3o$336bo42b2o6bobo108b3o514bo$378bobo7b2o78b2o$378bo75b2o11b4o13b
2o$377b2o21bobo8bo40b2ob2o10b2ob2o10b2ob2o$401b2o6b3o40b4o13b2o11b4o
13b2o$401bo6bo44b2o28b2o477b2o$408b2o25bo9b2o515bobo$434bobo7b4o516bo$
427b2o4bob2o5b3o2bo2bobo511b2o$406bo20b2o3b2ob2o9b2o2bo2bo3192bo1829bo
1529bo$405b3o25bob2o6bo9b2o6b2o3183b3o1827b3o1527b3o$369b2o28bo4bo3bo
25bobo5bo8bo3b2o4b2o3186bo1829bo1529bo$369b3o26bo4bob3obo25bo6bo10b2o
3193b2o1828b2o1528b2o$355bo15b2obo23b3o3b5o41bo2bo$310bo42bobo4b3o8bo
2bo5b2o68bobo$309bobo40bobo16b2obo5b2o$292b2o14bo3b2o32b2o3bo2bo7bo2b
2o2b3o$292bobo13bo3b2o32b2o4bobo7bo3bo2b2o1910b2o$293b3o12bo3b2o39bobo
6bo2bo1915b2o1368bo1829bo1529bo$294b3o12bobo3b2o38bo8b2o25bo3258b3o
1827b3o1527b3o$293b3o7bo6bo4bobo73bobo476b2o1339bo1437b5o48b2o1775b5o
48b2o1475b5o48b2o$285b2o5bobo9b2o11bo73b2o5bo472bo1339b3o1434bobobobo
46bo2bo1773bobobobo46bo2bo1473bobobobo46bo2bo$284bobo5b2o9b2o12b2o77b
3o472bobo7bo1332bo1433b2o3b2o10bo38bo1773b2o3b2o10bo38bo1473b2o3b2o10b
o38bo$284bo88bo21bo476b2o4b4o1331b2o1450b3o36bo1790b3o36bo1490b3o36bo$
283b2o86bobo21b2o8b2o470b4o16bo1383b3o1384bo33bobo1793bo33bobo1493bo
33bobo$372b2o31b2o470bo2bo8b2o5bobo1381b2ob2o1366bo15b2o33bobo1776bo
15b2o33bobo1476bo15b2o33bobo$336b2o46bo492b4o14bo3b2o3b2o108b2o1264b2o
b2o1365bobo50bo1776bobo50bo1476bobo50bo$336b3o44bo7b2o485b4o3b2obobo4b
o3b2o3b2o107b3o1264b5o1364b2obo1826b2obo1526b2obo$280b2o53bob2o44b3o6b
2o487bo2bo3b2o5bo3b2o112b2obo1262b2o3b2o1363b3o1827b3o1527b3o$281bo53b
3o41bo11bo493bo10bobo115b3o2631bo2bo48b2o3b2o1771bo2bo48b2o3b2o1471bo
2bo48b2o3b2o$281bobo6bo7bo37bo42bo505bo2bo8bo117bo2632b3o49bo5bo1771b
3o49bo5bo1471b3o49bo5bo$282b2o4bobo5b4o1982b2o1363bo3bo17b3o1805bo3bo
17b3o1505bo3bo17b3o$286b2o8b2o2bo2b2o1975b5o1361bo5bo15bo3bo28bo3bo
1770bo5bo15bo3bo28bo3bo1470bo5bo15bo3bo28bo3bo$286b2o11b2o2b2o1908b2o
3b2o10bo53bo1362bo3bo5bo9bo5bo28b3o1772bo3bo5bo9bo5bo28b3o1472bo3bo5bo
9bo5bo28b3o$286b2o7bo10b2o76bo493bo1336b3o12b3o47b3o1365b3o7bo8b2obob
2o1804b3o7bo8b2obob2o1504b3o7bo8b2obob2o$288bobo4bo10b3o9bo65b2o491bo
1336bo3bo14bo46bo1375b3o1827b3o1527b3o$290bo4bo10b2o11b2o62bobo491b3o
1335bobo14b2o47b2o$303b2o7b2o4b2o1896bo64b2o1387bo1829bo1529bo$303b2o
7bobo3354bobo1827bobo1527bobo$314bo3354bobo1827bobo1527bobo$314b2o
1965b2o3b2o1382b2o28bo1799b2o28bo1499b2o28bo$2281bobobobo1384bo27bobo
1799bo27bobo1499bo27bobo$376b2o492bo26b2o1314b3o58bobo5b5o1378b2o4b3o
26b2o1793b2o4b3o26b2o1493b2o4b3o26b2o$377b2o491bobo26bo1319bobo52b2o7b
3o1379b2o3bo3bo1820b2o3bo3bo1520b2o3bo3bo$366b2o8bo493b2o14b2o12bo
1312bobo4b2o10b2o3b2o36bo8bo1378bobo3bob3obo29bo1787bobo3bob3obo29bo
1487bobo3bob3obo29bo$365bobo518b2o4bo7bo13b2o1296b5o3bo1442b2o5b5o29b
3o1786b2o5b5o29b3o1486b2o5b5o29b3o$365bo517b2o5b2o8bo11bo2bo1295b2o3b
2o15bo3bo1425b2o38b5o1785b2o38b5o1485b2o38b5o$364b2o516b3o5bo2b2o4bo
11bo15bobo1281b2o3b2o16b3o1427b2o27bo8b2o3b2o1785b2o27bo8b2o3b2o1485b
2o27bo8b2o3b2o$883b2o6b5ob2o12bo10b3o2bo3bo1302b3o1406b2obob2o42bo10b
5o1765b2obob2o42bo10b5o1465b2obob2o42bo10b5o$347b2o20bo493bo13b2o7b2o
4bo18bo19bo5b2o1329bo1383b3o37b3o8bo3bo1774b3o37b3o8bo3bo1474b3o37b3o
8bo3bo$348bo20b2o491bo13bobo7b2o24bo2bo2b2o7bo4bo4b2o1288bo38b2o1375bo
5bo4bo49bobo1766bo5bo4bo49bobo1466bo5bo4bo49bobo$348bobo6bobo8bobo10b
2o479b3o11bo37b2o2bo2bobo7bo1282b2o12b2o37b2o14b2o1368bo51bo1777bo51bo
1477bo51bo$349b2o6bo3bo19bo493b2o23bo18b3o5bo3bo1295b2o54b2o1359b2ob2o
1825b2ob2o1525b2ob2o$361bo10b2o5bobo519bo25bobo22bo2693bo1829bo1529bo$
357bo4bo7bo2bo5b2o518b3o49bobo1269b2o6bo5bo1466b2o1828b2o1528b2o$361bo
7bo581b2obo7b2o1260b2o4bo5b3o1446bo18b2o1809bo18b2o1509bo18b2o$336b2o
19bo3bo7bo542bo26b2o10b2ob2o6bobo49b2o1207bo6b3o3b3o1409bo22b2o12bobo
1790bo22b2o12bobo1490bo22b2o12bobo$336b3o18bobo9bo485bo55bo27b2o10b2ob
ob3o6bo47b3o1243bobo1385bobo14b2o5b2o12b2o1790bobo14b2o5b2o12b2o1490bo
bo14b2o5b2o12b2o$335bob2o31bo2bo51b2o428bobo53b3o37bobo2bo2bo2bo2bo47b
2obo1191b2obob2o19b2o3b2o18b2o1385bo3bo13b3o1809bo3bo13b3o1509bo3bo13b
3o$335b3o34b2o52bo428b2o95bo4b2o6bo48b3o1191bo5bo19b2o3b2o19bo1385b5o
12bob2o1809b5o12bob2o1509b5o12bob2o$336bo89bobo533bobo6b2o42bo1193bo3b
o1431b2o3b2o11b3o1809b2o3b2o11b3o1509b2o3b2o11b3o$427b2o427b2o28b2o74b
2o7bobo1236b3o3bo1429b5o13bo1811b5o13bo1511b5o13bo$855b4o11b2o13b4o11b
2o71bo1242b2o19bo1409b3o28bo1798b3o28bo1498b3o28bo$854b2ob2o10b2ob2o
10b2ob2o10b2ob2o36bo8bobo21b2o1240bobo18bobo1409bo28bo1800bo28bo1500bo
28bo$855b2o13b4o11b2o13b4o36b3o6b2o1278bobo6b2o13bo1423b3o1827b3o1527b
3o$871b2o28b2o40bo6bo1277bo9b2o11b2o$915bo26b2o1284bo8b3o12b2o$908b2ob
o3b4o1309bo2bo4bobo$902b2o2b2obobo4b4o5b2o1301b3o5b2o$901bobo2b2obob2o
3bo2bo5b2o18bo1267bo$891b2o7b3o8b2o3b4o24b3o1266bo1456bo1829bo1529bo$
891b2o6b3o8b2o3b4o24bo3bo4bo28b2o1229bobo1455bobo1827bobo1527bobo$900b
3o12bo26bob3obo4bo26b3o1228b2ob2o28bobo1401b2o13b2o5b2o1806b2o13b2o5b
2o1506b2o13b2o5b2o$901bobo39b5o3b3o23bob2o15bo1213bo5bo27b2o1402b2o12b
3o1813b2o12b3o1513b2o12b3o$902b2o66b2o5bo2bo8b3o4bobo42bo1171bo31bo
1416b2obo1826b2obo1526b2obo$970b2o5bob2o16bobo40bobo1167b2o3b2o1446b3o
1827b3o1527b3o$980b3o2b2o2bo7bo2bo3b2o32b2o3bo14b2o2603bobo1827bobo
1527bobo$981b2o2bo3bo7bobo4b2o32b2o3bo13bobo2603bo1829bo1529bo$986bo2b
o6bobo39b2o3bo12b3o1153bo1449bo1829bo1529bo$960bo25b2o8bo38b2o3bobo12b
3o1154bo14bobo8bo1423b3o1827b3o1527b3o$482b2o474bobo73bobo4bo6bo7b3o
1152bo18bo5b2o$482bo470bo5b2o73bo11b2o9bobo5b2o1163bo6b2o$475bo4bobo
470b3o77b2o12b2o9b2o5bobo1159bo2bo$474bobo3b2o474bo21bo88bo1145b2o13b
3o$457b2o15b2obo467b2o8b2o21bobo86b2o1144b2o$457bobo14b2ob2o466b2o31b
2o$336b2o110b2o2b2o6bo13b2obo489bo46b2o$336b3o109b2obo2bo2bo2bo13bobo
482b2o7bo44b3o1213bobo$335bob2o113b2o6bo8bo5bo482b2o6b3o44b2obo53b2o
1157b2o$335b3o119bobo7bobo490bo11bo41b3o53bo1159bo$336bo120b2o9b2o502b
o42bo37bo7bo6bobo$1052b4o5bobo4b2o$1047b2o2bo2b2o8b2o$1047b2o2b2o11b2o
$967bo76b2o10bo7b2o$476bo489b2o65bo9b3o10bo4bobo$477bo488bobo62b2o11b
2o10bo4bo$475b3o554b2o4b2o7b2o$1037bobo7b2o$1037bo$1036b2o2$454b2o518b
2o$452bo2bo28bo488b2o$451bo15bobo12bobo490bo8b2o$439bo11bo10b3o2bo3bo
11b2o499bobo$439b4o8bo19bo514bo$423bo16b4o8bo2bo2b2o7bo4bo513b2o$422bo
bo5b2o8bo2bo10b2o2bo2bobo7bo$415b2o3b2o3bo14b4o15b3o5bo3bo3b2o505bo20b
2o$415b2o3b2o3bo4bobob2o3b4o24bobo5bobo13bo489b2o20bo$420b2o3bo5b2o3bo
2bo37bo14bo476b2o10bobo8bobo6bobo$422bobo10bo41b2o11b3o477bo19bo3bo6b
2o$399bo23bo8bo2bo16bo517bobo5b2o10bo$398bobo50bo519b2o5bo2bo7bo4bo$
388b2o7bob2o50b3o528bo7bo$336b2o49bobo6b2ob2o10b2o569bo7bo3bo19b2o$
336b3o47bo6b3obob2o10b2o29bo539bo9bobo18b3o$335bob2o47bo2bo2bo2bo2bobo
42bo534bo2bo31b2obo$335b3o48bo6b2o4bo41b3o54b2o478b2o34b3o$336bo42b2o
6bobo108b3o514bo$378bobo7b2o78b2o$378bo75b2o11b4o13b2o$377b2o21bobo8bo
40b2ob2o10b2ob2o10b2ob2o$401b2o6b3o40b4o13b2o11b4o13b2o$401bo6bo44b2o
28b2o477b2o$408b2o25bo9b2o515bobo$434bobo7b4o516bo$427b2o4bob2o5b3o2bo
2bobo511b2o$406bo20b2o3b2ob2o9b2o2bo2bo$405b3o25bob2o6bo9b2o6b2o$369b
2o28bo4bo3bo25bobo5bo8bo3b2o4b2o$369b3o26bo4bob3obo25bo6bo10b2o$355bo
15b2obo23b3o3b5o41bo2bo3102b2o1828b2o1528b2o$310bo42bobo4b3o8bo2bo5b2o
68bobo3102bo2bo1826bo2bo1526bo2bo$309bobo40bobo16b2obo5b2o3173bo1829bo
1529bo$292b2o14bo3b2o32b2o3bo2bo7bo2b2o2b3o3183bo1829bo1529bo$292bobo
13bo3b2o32b2o4bobo7bo3bo2b2o3184bobo1827bobo1527bobo$293b3o12bo3b2o39b
obo6bo2bo3189bobo1827bobo1527bobo$294b3o12bobo3b2o38bo8b2o25bo3164bo
1829bo1529bo$293b3o7bo6bo4bobo73bobo476b2o$285b2o5bobo9b2o11bo73b2o5bo
472bo$284bobo5b2o9b2o12b2o77b3o472bobo7bo2671b2o3b2o1823b2o3b2o1523b2o
3b2o$284bo88bo21bo476b2o4b4o2671bo5bo1823bo5bo1523bo5bo$283b2o86bobo
21b2o8b2o470b4o16bo$372b2o31b2o470bo2bo8b2o5bobo2655bo3bo1825bo3bo
1525bo3bo$336b2o46bo492b4o14bo3b2o3b2o108b2o2539b3o1827b3o1527b3o$336b
3o44bo7b2o485b4o3b2obobo4bo3b2o3b2o107b3o$280b2o53bob2o44b3o6b2o487bo
2bo3b2o5bo3b2o112b2obo2512b2o1828b2o1528b2o$281bo53b3o41bo11bo493bo10b
obo115b3o2512b2o1828b2o1528b2o$281bobo6bo7bo37bo42bo505bo2bo8bo117bo$
282b2o4bobo5b4o$286b2o8b2o2bo2b2o$286b2o11b2o2b2o3248bo1829bo1529bo$
286b2o7bo10b2o76bo493bo2674bobo1827bobo1527bobo$288bobo4bo10b3o9bo65b
2o491bo2652bo22b2o1805bo22b2o1505bo22b2o$290bo4bo10b2o11b2o62bobo491b
3o2502b2o145b3o1680b2o145b3o1380b2o145b3o$303b2o7b2o4b2o3063bo145b3o
26bo1654bo145b3o26bo1354bo145b3o26bo$303b2o7bobo3068bobo4bo166b3o1653b
obo4bo166b3o1353bobo4bo166b3o$314bo3064bo4b3ob4o135b2o3b2o22b5o1648bo
4b3ob4o135b2o3b2o22b5o1348bo4b3ob4o135b2o3b2o22b5o$314b2o3063b3o4b2obo
b2o14b2o118b2o3b2o12bo8b2o3b2o1647b3o4b2obob2o14b2o118b2o3b2o12bo8b2o
3b2o1347b3o4b2obob2o14b2o118b2o3b2o12bo8b2o3b2o$3382bo3bo2bob3o11bo2bo
7bo128bo10b5o1651bo3bo2bob3o11bo2bo7bo128bo10b5o1351bo3bo2bob3o11bo2bo
7bo128bo10b5o$376b2o492bo26b2o2482b2o4bobob2o11bo7b2o3bo127b3o8bo3bo
1650b2o4bobob2o11bo7b2o3bo127b3o8bo3bo1350b2o4bobob2o11bo7b2o3bo127b3o
8bo3bo$377b2o491bobo26bo2488b4o12bo6bo5bo111b2o26bobo1658b4o12bo6bo5bo
111b2o26bobo1358b4o12bo6bo5bo111b2o26bobo$366b2o8bo493b2o14b2o12bo
2489bo5bo7bo7b5o112bobo26b3o1659bo5bo7bo7b5o112bobo26b3o1359bo5bo7bo7b
5o112bobo26b3o$365bobo518b2o4bo7bo13b2o2479bo9bo2bo119bo2b2o27b2o1663b
o9bo2bo119bo2b2o27b2o1363bo9bo2bo119bo2b2o27b2o$365bo517b2o5b2o8bo11bo
2bo2479b3o9b2o121b2o28bo1664b3o9b2o121b2o28bo1364b3o9b2o121b2o28bo$
364b2o516b3o5bo2b2o4bo11bo15bobo2600b2o29b3o1796b2o29b3o1496b2o29b3o$
883b2o6b5ob2o12bo10b3o2bo3bo2599bo6bo24bo1797bo6bo24bo1355bo141bo6bo
24bo$347b2o20bo493bo13b2o7b2o4bo18bo19bo5b2o2599bobo1827bobo1377b2o
148bobo$348bo20b2o491bo13bobo7b2o24bo2bo2b2o7bo4bo4b2o2586bo5bo6b2o
1815bo5bo6b2o1378bobo134bo5bo6b2o$348bobo6bobo8bobo10b2o479b3o11bo37b
2o2bo2bobo7bo2593bo5bo1823bo5bo1523bo5bo$349b2o6bo3bo19bo493b2o23bo18b
3o5bo3bo2456bo137bo3bo6bo4b2o1674bo137bo3bo6bo4b2o1512bo3bo6bo4b2o$
361bo10b2o5bobo519bo25bobo22bo2435bobo136b3o5bobo4b2o1674bobo136b3o5bo
bo4b2o1513b3o5bobo4b2o$357bo4bo7bo2bo5b2o518b3o49bobo2434b2o146b2o
1680b2o146b2o1528b2o$361bo7bo581b2obo7b2o2428b2o1828b2o1528b2o5b3o$
336b2o19bo3bo7bo542bo26b2o10b2ob2o6bobo49b2o2376b2o1828b2o1528b2o5bo$
336b3o18bobo9bo485bo55bo27b2o10b2obob3o6bo47b3o5744bo$335bob2o31bo2bo
51b2o428bobo53b3o37bobo2bo2bo2bo2bo47b2obo2482bo1829bo1529bo$335b3o34b
2o52bo428b2o95bo4b2o6bo48b3o2364bo117b3o31bo1677bo117b3o31bo1495b3o31b
o$336bo89bobo533bobo6b2o42bo2364bo121bo22b2o4b2o1677bo121bo22b2o4b2o
1499bo22b2o4b2o$427b2o427b2o28b2o74b2o7bobo2406b3o118b2o6b2o15bo5b2o
1676b3o118b2o6b2o15bo5b2o1497b2o6b2o15bo5b2o$855b4o11b2o13b4o11b2o71bo
2534bobo12b3o1812bobo12b3o1411b2o99bobo12b3o$854b2ob2o10b2ob2o10b2ob2o
10b2ob2o36bo8bobo21b2o2534bo13bo1815bo13bo1413bobo99bo13bo$855b2o13b4o
11b2o13b4o36b3o6b2o5816bo$871b2o28b2o40bo6bo2552b2o1828b2o$915bo26b2o
1795b2o755b2o5b2o1064b2o755b2o5b2o764b2o755b2o$908b2obo3b4o1820bo633bo
122b2o26bobo1042bo633bo122b2o26bobo742bo756b2o6b2o18bobo$902b2o2b2obob
o4b4o5b2o1801b2o7bobo633bobo148b2o1032b2o7bobo633bobo148b2o732b2o7bobo
764b2o18b2o$901bobo2b2obob2o3bo2bo5b2o18bo1782b2o7b2o634b2o150bo1032b
2o7b2o634b2o150bo732b2o7b2o786bo$891b2o7b3o8b2o3b4o24b3o1768bo4bo10b2o
755bo24b2o1030bo4bo10b2o755bo24b2o730bo4bo10b2o681b3o71bo24b2o$891b2o
6b3o8b2o3b4o24bo3bo4bo28b2o1730bobo4bo10b3o752b3o24b2o1028bobo4bo10b3o
752b3o24b2o728bobo4bo10b3o680bo71b3o24b2o$900b3o12bo26bob3obo4bo26b3o
1722b2o4b2o7bo10b2o752bo1049b2o4b2o7bo10b2o752bo749b2o4b2o7bo10b2o682b
o69bo$901bobo39b5o3b3o23bob2o15bo1708b2o4b2o11b2o2b2o755b2o11b2o1035b
2o4b2o11b2o2b2o755b2o11b2o735b2o4b2o11b2o2b2o755b2o11b2o$902b2o66b2o5b
o2bo8b3o4bobo42bo1669b2o8b2o2bo2b2o636bo130bobo18bo1022b2o8b2o2bo2b2o
636bo130bobo18bo722b2o8b2o2bo2b2o767bobo18bo$970b2o5bob2o16bobo40bobo
1670bobo5b4o640bo131bo18b2o1025bobo5b4o640bo131bo18b2o725bobo5b4o772bo
18b2o$980b3o2b2o2bo7bo2bo3b2o32b2o3bo14b2o1655bo7bo641b3o128b2o19b2o7b
2o1017bo7bo641b3o128b2o19b2o7b2o717bo7bo772b2o19b2o7b2o$981b2o2bo3bo7b
obo4b2o32b2o3bo13bobo2466b2o1828b2o1424b2o102b2o$986bo2bo6bobo39b2o3bo
12b3o2370b2o52bo1775b2o52bo1468bobo4b2o52bo$960bo25b2o8bo38b2o3bobo12b
3o2327b2o43bo51b3o1730b2o43bo51b3o1430b2o35bo7bo51b3o$482b2o474bobo73b
obo4bo6bo7b3o1671bobo651bo45bobo6bobo39b5o1074bobo651bo45bobo6bobo39b
5o774bobo651bo45bobo6bobo39b5o$482bo470bo5b2o73bo11b2o9bobo5b2o1664b2o
650bo12b2o33b2o5bo2bo38bobobobo1074b2o650bo12b2o33b2o5bo2bo38bobobobo
774b2o650bo12b2o33b2o5bo2bo38bobobobo$475bo4bobo470b3o77b2o12b2o9b2o5b
obo1663bo626bo14b2o8bo7bo4b2o39b2o10bo6bo23b2o3b2o39b3o1032bo626bo14b
2o8bo7bo4b2o39b2o10bo6bo23b2o3b2o39b3o732bo641b2o8bo7bo4b2o39b2o10bo6b
o23b2o3b2o39b3o$474bobo3b2o474bo21bo88bo2290bobo12b2o8bo8b2o5b2o34b2o
3bo8bo5bobo57b3o8b3o1659bobo12b2o8bo8b2o5b2o34b2o3bo8bo5bobo57b3o8b3o
1374b2o8bo8b2o5b2o34b2o3bo8bo5bobo57b3o8b3o$457b2o15b2obo467b2o8b2o21b
obo86b2o2289b2o24bo4b2o2bo5b3o5b2o28b2o9bo6b2obo4b2o50bo9bo3bo1658b2o
24bo4b2o2bo5b3o5b2o28b2o9bo6b2obo4b2o50bo9bo3bo1384bo4b2o2bo5b3o5b2o
28b2o9bo6b2obo4b2o50bo9bo3bo$457bobo14b2ob2o466b2o31b2o2405b2ob5o6b2o
6b2o29bo2bo2b2o9b2ob2o3b2o18bo24bo7bo62b2o1634b2ob5o6b2o6b2o29bo2bo2b
2o9b2ob2o3b2o18bo24bo7bo62b2o1334b2ob5o6b2o6b2o20b3o6bo2bo2b2o9b2ob2o
3b2o18bo24bo7bo62b2o$336b2o110b2o2b2o6bo13b2obo489bo46b2o2375bo4b2o41b
obo2bo2b3o5b2obo23bobo21b3o15b2o3b2o48b2o1640bo4b2o41bobo2bo2b3o5b2obo
23bobo21b3o15b2o3b2o48b2o1340bo4b2o31bo9bobo2bo2b3o5b2obo23bobo21b3o
15b2o3b2o48b2o$336b3o109b2obo2bo2bo2bo13bobo482b2o7bo44b3o1722bo657b2o
46b4o7bobo23b2obo20bo1062bo657b2o46b4o7bobo23b2obo20bo762bo657b2o32bo
13b4o7bobo23b2obo20bo$335bob2o113b2o6bo8bo5bo482b2o6b3o44b2obo53b2o
1641bo25b2o643bobo58b2o9bo24b3o21b2o1036bo25b2o643bobo58b2o9bo24b3o21b
2o736bo25b2o13bo2bo26bo2bo26bo2bo26bo2bo26bo2bo26bo2bo26bo2bo26bo2bo
26bo2bo26bo2bo26bo2bo26bo2bo26bo2bo26bo2bo26bo2bo26bo2bo26bo2bo26bo2bo
26bo2bo26bo2bo26bo2bo26bobo58b2o9bo24b3o21b2o$335b3o119bobo7bobo490bo
11bo41b3o53bo1641bobo23b2o628b4o11bo96bo2bo104b2o952bobo23b2o628b4o11b
o96bo2bo104b2o652bobo23b2o13bo14b4o11bo14b4o11bo14b4o11bo14b4o11bo14b
4o11bo14b4o11bo14b4o11bo14b4o11bo14b4o11bo14b4o11bo14b4o11bo14b4o11bo
14b4o11bo14b4o11bo14b4o11bo14b4o11bo14b4o11bo14b4o11bo14b4o11bo14b4o
11bo14b4o11bo96bo2bo104b2o$336bo120b2o9b2o502bo42bo37bo7bo6bobo1641b2o
bo7b2o625b2o2b2obo10bo3bo10bo3bo92b3o40b2o62bobo952b2obo7b2o625b2o2b2o
bo10bo3bo10bo3bo92b3o40b2o62bobo652b2obo7b2o28bo3bo10bo3bo10bo3bo10bo
3bo10bo3bo10bo3bo10bo3bo10bo3bo10bo3bo10bo3bo10bo3bo10bo3bo10bo3bo10bo
3bo10bo3bo10bo3bo10bo3bo10bo3bo10bo3bo10bo3bo10bo3bo10bo3bo10bo3bo10bo
3bo10bo3bo10bo3bo10bo3bo10bo3bo10bo3bo10bo3bo10bo3bo10bo3bo10bo3bo10bo
3bo10bo3bo10bo3bo10bo3bo10bo3bo10bo3bo10bo3bo10bo3bo10bo3bo10bo3bo92b
3o40b2o62bobo$1052b4o5bobo4b2o1625bo16b2ob2o6bobo624b4o14bo14b4o92bo3b
o39bobo62bo936bo16b2ob2o6bobo624b4o14bo14b4o92bo3bo39bobo62bo636bo16b
2ob2o6bobo27b4o11bo14b4o11bo14b4o11bo14b4o11bo14b4o11bo14b4o11bo14b4o
11bo14b4o11bo14b4o11bo14b4o11bo14b4o11bo14b4o11bo14b4o11bo14b4o11bo14b
4o11bo14b4o11bo14b4o11bo14b4o11bo14b4o11bo14b4o11bo14b4o11bo14b4o92bo
3bo39bobo62bo$1047b2o2bo2b2o8b2o1629b2o15b2obob3o6bo625b2o15bo2bo65bo
39bo5bo38bo1001b2o15b2obob3o6bo625b2o15bo2bo65bo39bo5bo38bo701b2o15b2o
bob3o6bo17bo24bo2bo26bo2bo26bo2bo26bo2bo26bo2bo26bo2bo26bo2bo26bo2bo
26bo2bo26bo2bo26bo2bo26bo2bo26bo2bo26bo2bo26bo2bo26bo2bo26bo2bo26bo2bo
26bo2bo26bo2bo26bo2bo64b2o2b2o35bo5bo38bo$1047b2o2b2o11b2o1617b2o11b2o
14bobo2bo2bo2bo2bo709b2o41bo3bo5bo13bo1009b2o11b2o14bobo2bo2bo2bo2bo
709b2o41bo3bo5bo13bo709b2o11b2o14bobo2bo2bo2bo2bo17bo692bobo3bo35bo3bo
5bo13bo$967bo76b2o10bo7b2o1616b3o3bo7b3o14bo4b2o6bo710b2o41b3o7bo11b3o
77b2o928b3o3bo7b3o14bo4b2o6bo710b2o41b3o7bo11b3o77b2o628b3o3bo7b3o14bo
4b2o6bo710bo4bo37b3o7bo11b3o$476bo489b2o65bo9b3o10bo4bobo1615bob2o4b4o
5b2o25bobo6b2o11bobo647bo92b3o10b5o17bo58b2o925bob2o4b4o5b2o25bobo6b2o
11bobo647bo92b3o10b5o17bo58b2o625bob2o4b4o5b2o25bobo6b2o661bo92b3o10b
5o17bo60b2o$477bo488bobo62b2o11b2o10bo4bo1610b2o5bo2bo4bo4bo2b2o26b2o
7bobo11b2o646b2o104bobobobo995b2o5bo2bo4bo4bo2b2o26b2o7bobo11b2o646b2o
104bobobobo695b2o5bo2bo4bo4bo2b2o26b2o7bobo659b2o45bo58bobobobo77b2o$
475b3o554b2o4b2o7b2o1623b2o5bob2o5bo3bo2bo38bo11bo647bobo42b2o59b2o3b
2o82b2o911b2o5bob2o5bo3bo2bo38bo11bo647bobo42b2o59b2o3b2o82b2o611b2o5b
ob2o5bo3bo2bo38bo659bobo41bo2bo58b2o3b2o82b2o$1037bobo7b2o1633b3o3b2ob
o18bobo21b2o683b2o18b2o148bobo920b3o3b2obo18bobo21b2o683b2o18b2o148bob
o620b3o3b2obo18bobo21b2o683b2o18b2o8bo139bobo$1037bo1645b2o25b2o669bo
37bo171bo921b2o25b2o669bo37bo171bo621b2o25b2o669bo37bo28b2o141bo$1036b
2o1673bo669b2o25b2o7bobo9bobo71bo20b3o49b2o13b2o948bo669b2o25b2o7bobo
9bobo71bo20b3o49b2o13b2o648bo669b2o25b2o7bobo28bobo52bo20b3o49b2o13b2o
$3380bobo18bob2o3b3o6b2o10b2o66bo4bobo18bo3bo49bo1632bobo18bob2o3b3o6b
2o10b2o66bo4bobo18bo3bo49bo1332bobo18bob2o3b3o6b2o78bo4bobo18bo3bo49bo
$454b2o518b2o1720bobo54bo643bo2bo3bo5b2obo16bo64bobo3b2obo17bo5bo45b3o
6b2o941bobo54bo643bo2bo3bo5b2obo16bo64bobo3b2obo17bo5bo45b3o6b2o641bob
o698bo2bo3bo5b2obo81bobo3b2obo17bo5bo45b3o6b2o$452bo2bo28bo488b2o1699b
o22b2o55b2o612b2o26b2o2bo4bo4bo2bo82b2o3b3o18bo5bo45bo8b2o919bo22b2o
55b2o612b2o26b2o2bo4bo4bo2bo82b2o3b3o18bo5bo45bo8b2o619bo22b2o669b2o
26b2o2bo4bo4bo2bo82b2o3b3o18bo5bo45bo8b2o$451bo15bobo12bobo490bo8b2o
1686bobo22bo55b2o612bobo25b2o5b4o4b2obo67b2o17bo2bo21bo976bobo22bo55b
2o612bobo25b2o5b4o4b2obo67b2o17bo2bo21bo676bobo22bo669bobo25b2o5b4o4b
2obo67b2o17bo2bo21bo$439bo11bo10b3o2bo3bo11b2o499bobo1675b2o6b2o12b2o
671b2o7bo6b2o4bo14b3o7bo3b3o70b2o17b3o20bo3bo964b2o6b2o12b2o671b2o7bo
6b2o4bo14b3o7bo3b3o70b2o17b3o20bo3bo664b2o6b2o12b2o671b2o7bo6b2o4bo14b
3o7bo3b3o70b2o17b3o20bo3bo$439b4o8bo19bo514bo1674bo3bo4b2o12b2o671b2o
7bo2bo2bo2bo2bobo14b2o11b2o89bo3bo20b3o964bo3bo4b2o12b2o671b2o7bo2bo2b
o2bo2bobo14b2o11b2o89bo3bo20b3o664bo3bo4b2o12b2o671b2o7bo2bo2bo2bo2bob
o14b2o11b2o46b2o41bo3bo20b3o$423bo16b4o8bo2bo2b2o7bo4bo513b2o1662b2o8b
o5bo3b2o48bo2bo26bo2bo612bo6b3obob2o15b2o25bo74bo5bo20bo954b2o8bo5bo3b
2o48bo2bo26bo2bo612bo6b3obob2o15b2o25bo74bo5bo20bo654b2o8bo5bo3b2o48bo
2bo26bo2bo26bo2bo26bo2bo26bo2bo26bo2bo26bo2bo26bo2bo26bo2bo26bo2bo26bo
2bo26bo2bo26bo2bo26bo2bo26bo2bo26bo2bo26bo2bo26bo2bo26bo2bo26bo2bo26bo
2bo42bo6b3obob2o15b2o57b2o41bo5bo20bo$422bobo5b2o8bo2bo10b2o2bo2bobo7b
o2178b2o8bo3bob2o4bobo31b4o14bo11b4o14bo612bobo6b2ob2o16bo23b2o76bo3bo
976b2o8bo3bob2o4bobo31b4o14bo11b4o14bo612bobo6b2ob2o16bo23b2o76bo3bo
676b2o8bo3bob2o4bobo31b4o14bo11b4o14bo11b4o14bo11b4o14bo11b4o14bo11b4o
14bo11b4o14bo11b4o14bo11b4o14bo11b4o14bo11b4o14bo11b4o14bo11b4o14bo11b
4o14bo11b4o14bo11b4o14bo11b4o14bo11b4o14bo11b4o14bo11b4o14bo11b4o14bo
11b4o27bobo6b2ob2o16bo59bo41bo3bo$415b2o3b2o3bo14b4o15b3o5bo3bo3b2o
505bo20b2o1655bo5bo7bo30bo3bo10bo3bo10bo3bo10bo3bo613b2o7bob2o41b2o76b
3o987bo5bo7bo30bo3bo10bo3bo10bo3bo10bo3bo613b2o7bob2o41b2o76b3o687bo5b
o7bo30bo3bo10bo3bo10bo3bo10bo3bo10bo3bo10bo3bo10bo3bo10bo3bo10bo3bo10b
o3bo10bo3bo10bo3bo10bo3bo10bo3bo10bo3bo10bo3bo10bo3bo10bo3bo10bo3bo10b
o3bo10bo3bo10bo3bo10bo3bo10bo3bo10bo3bo10bo3bo10bo3bo10bo3bo10bo3bo10b
o3bo10bo3bo10bo3bo10bo3bo10bo3bo10bo3bo10bo3bo10bo3bo10bo3bo10bo3bo10b
o3bo10bo3bo10bo3bo10bo3bo28b2o7bob2o119b3o$415b2o3b2o3bo4bobob2o3b4o
24bobo5bobo13bo489b2o20bo1657bo3bo43bo11b4o14bo11b4o623bobo143b2o965bo
3bo43bo11b4o14bo11b4o623bobo143b2o665bo3bo43bo11b4o14bo11b4o14bo11b4o
14bo11b4o14bo11b4o14bo11b4o14bo11b4o14bo11b4o14bo11b4o14bo11b4o14bo11b
4o14bo11b4o14bo11b4o14bo11b4o14bo11b4o14bo11b4o14bo11b4o14bo11b4o14bo
11b4o14bo11b4o14bo11b4o14bo38bobo143b2o$420b2o3bo5b2o3bo2bo37bo14bo
476b2o10bobo8bobo6bobo1658b2o42bobo26bo2bo614b2o24bo144b2o966b2o42bobo
26bo2bo614b2o24bo144b2o666b2o42bobo26bo2bo26bo2bo26bo2bo26bo2bo26bo2bo
26bo2bo26bo2bo26bo2bo26bo2bo26bo2bo26bo2bo26bo2bo26bo2bo26bo2bo26bo2bo
26bo2bo26bo2bo26bo2bo26bo2bo26bo2bo26bo2bo14b2o24bo144b2o$422bobo10bo
41b2o11b3o477bo19bo3bo6b2o1670bo21b2o656bobo1147bo21b2o656bobo847bo21b
2o656bobo$399bo23bo8bo2bo16bo517bobo5b2o10bo1683b2o19b2o4bo653bo1148b
2o19b2o4bo653bo848b2o19b2o4bo653bo108bo$398bobo50bo519b2o5bo2bo7bo4bo
1678b2o17b2o6b5ob2o647b2o1146b2o17b2o6b5ob2o647b2o846b2o17b2o6b5ob2o
647b2o106b2o$388b2o7bob2o50b3o528bo7bo1693b2o5b3o5bo2b2o4bo705bobo
1097b2o5b3o5bo2b2o4bo705bobo797b2o5b3o5bo2b2o4bo754bobo$336b2o49bobo6b
2ob2o10b2o569bo7bo3bo19b2o1668b2o6b2o5b2o8bo8b2o694b2o1098b2o6b2o5b2o
8bo8b2o694b2o798b2o6b2o5b2o8bo8b2o$336b3o47bo6b3obob2o10b2o29bo539bo9b
obo18b3o1679b2o4bo7bo8b2o695bo1109b2o4bo7bo8b2o695bo809b2o4bo7bo8b2o$
335bob2o47bo2bo2bo2bo2bobo42bo534bo2bo31b2obo1678b2o12bo988b2o825b2o
12bo988b2o525b2o12bo988b2o$335b3o48bo6b2o4bo41b3o54b2o478b2o34b3o1515b
o175bo726b2o64b2o108bo86b2o662bo175bo726b2o64b2o108bo86b2o362bo175bo
726b2o64b2o108bo86b2o$336bo42b2o6bobo108b3o514bo1514b3o147bobo23b2o
726bo66b2o39bo68b3o746b3o147bobo23b2o726bo66b2o39bo68b3o446b3o147bobo
23b2o726bo66b2o39bo68b3o$378bobo7b2o78b2o2059bo151b2o750bo12b2o92bobo
71bo744bo151b2o750bo12b2o92bobo71bo444bo151b2o750bo12b2o23b2o67bobo71b
o$378bo75b2o11b4o13b2o2035b2o6b2o150bo726bo14b2o8bo7bo4b2o90b2o18b2o
53b2o6b2o728b2o6b2o150bo726bo14b2o8bo7bo4b2o90b2o18b2o53b2o6b2o428b2o
6b2o150bo741b2o8bo7bo4b2o22b2o66b2o18b2o53b2o6b2o$377b2o21bobo8bo40b2o
b2o10b2ob2o10b2ob2o2034bobo882b2o15b2o8bo8b2o5b2o78bo8b2o17bo3bo58bobo
728bobo882b2o15b2o8bo8b2o5b2o78bo8b2o17bo3bo58bobo428bobo899b2o8bo8b2o
5b2o21bo56bo8b2o17bo3bo58bobo$401b2o6b3o40b4o13b2o11b4o13b2o2021bo884b
2o25bo4b2o2bo5b3o5b2o70bobo6b2o16bo5bo58bo730bo884b2o25bo4b2o2bo5b3o5b
2o70bobo6b2o16bo5bo58bo430bo911bo4b2o2bo5b3o5b2o70bobo6b2o16bo5bo58bo$
401bo6bo44b2o28b2o477b2o2471b2ob5o6b2o6b2o53b2o18b2o6bobo4bo8bo3bob2o
2b2o1697b2ob5o6b2o6b2o53b2o18b2o6bobo4bo8bo3bob2o2b2o1397b2ob5o6b2o6b
2o53b2o18b2o6bobo4bo8bo3bob2o2b2o$408b2o25bo9b2o515bobo2476bo4b2o62bo
3bo17b2o8bo3bo9bo5bo3b2o47b2o81bo658b2o912bo4b2o62bo3bo17b2o8bo3bo9bo
5bo3b2o47b2o81bo1272bo4b2o62bo3bo17b2o8bo3bo9bo5bo3b2o47b2o81bo$434bob
o7b4o516bo1569b2o152bo757b2o61bo5bo16b2o12b3o2bo5bo3bo46b2o5b2o80b3o
657b2o5b2o152bo757b2o61bo5bo16b2o12b3o2bo5bo3bo46b2o5b2o80b3o364b2o
910b2o61bo5bo16b2o12b3o2bo5bo3bo46b2o5b2o80b3o$427b2o4bob2o5b3o2bo2bob
o511b2o1560b2o6b2o127bo25b2o713bo2bo26bobo67b2o2b2obo3bo8bo4bobo26b2o
48b2o86b5o663b2o127bo25b2o713bo2bo26bobo67b2o2b2obo3bo8bo4bobo26b2o48b
2o86b5o355b2o6b2o127bo50bo2bo26bo2bo26bo2bo26bo2bo26bo2bo26bo2bo26bo2b
o26bo2bo26bo2bo26bo2bo26bo2bo26bo2bo26bo2bo26bo2bo26bo2bo26bo2bo26bo2b
o26bo2bo26bo2bo26bo2bo26bo2bo26bo2bo26bo2bo26bo2bo26bobo42bo24b2o2b2ob
o3bo8bo4bobo26b2o48b2o86b5o$406bo20b2o3b2ob2o9b2o2bo2bo2072b2o134bobo
23b2o713bo14b4o11bo70b2o3bo5bo9bo3bo165bobobobo790bobo23b2o713bo14b4o
11bo70b2o3bo5bo9bo3bo165bobobobo354b2o134bobo33b4o11bo14b4o11bo14b4o
11bo14b4o11bo14b4o11bo14b4o11bo14b4o11bo14b4o11bo14b4o11bo14b4o11bo14b
4o11bo14b4o11bo14b4o11bo14b4o11bo14b4o11bo14b4o11bo14b4o11bo14b4o11bo
14b4o11bo14b4o11bo14b4o11bo14b4o11bo14b4o11bo14b4o11bo14b4o11bo44b2o
24b2o3bo5bo9bo3bo165bobobobo$405b3o25bob2o6bo9b2o6b2o2199b2obo7b2o724b
obobo3bo10bo3bo10bo3bo72bo3bo5bo2b3o169b2o3b2o790b2obo7b2o724bobobo3bo
10bo3bo10bo3bo72bo3bo5bo2b3o169b2o3b2o490b2obo7b2o23bo3bo10bo3bo10bo3b
o10bo3bo10bo3bo10bo3bo10bo3bo10bo3bo10bo3bo10bo3bo10bo3bo10bo3bo10bo3b
o10bo3bo10bo3bo10bo3bo10bo3bo10bo3bo10bo3bo10bo3bo10bo3bo10bo3bo10bo3b
o10bo3bo10bo3bo10bo3bo10bo3bo10bo3bo10bo3bo10bo3bo10bo3bo10bo3bo10bo3b
o10bo3bo10bo3bo10bo3bo10bo3bo10bo3bo10bo3bo10bo3bo10bo3bo10bo3bo10bo3b
o10bo3bo10bo3bo10bo3bo10bo3bo10bo3bo10bo3bo10bo3bo40bobo29bo3bo5bo2b3o
169b2o3b2o$369b2o28bo4bo3bo25bobo5bo8bo3b2o4b2o2054b2o126bo16b2ob2o6bo
bo723b2o2b4o11bo14b4o75b2o111b2o720b2o126bo16b2ob2o6bobo723b2o2b4o11bo
14b4o75b2o111b2o420b2o126bo16b2ob2o6bobo22bo14b4o11bo14b4o11bo14b4o11b
o14b4o11bo14b4o11bo14b4o11bo14b4o11bo14b4o11bo14b4o11bo14b4o11bo14b4o
11bo14b4o11bo14b4o11bo14b4o11bo14b4o11bo14b4o11bo14b4o11bo14b4o11bo14b
4o11bo14b4o11bo14b4o11bo14b4o11bo14b4o11bo14b4o11bo14b4o75b2o111b2o$
369b3o26bo4bob3obo25bo6bo10b2o2062b2o126b2o15b2obob3o6bo723bo18bo2bo
202b2o720b2o126b2o15b2obob3o6bo723bo18bo2bo202b2o420b2o126b2o15b2obob
3o6bo22bo2bo26bo2bo26bo2bo26bo2bo26bo2bo26bo2bo26bo2bo26bo2bo26bo2bo
26bo2bo26bo2bo26bo2bo26bo2bo26bo2bo26bo2bo26bo2bo26bo2bo26bo2bo26bo2bo
26bo2bo26bo2bo26bo2bo26bo2bo26bo2bo26bo2bo202b2o$355bo15b2obo23b3o3b5o
41bo2bo2005b2o172b2o11b2o14bobo2bo2bo2bo2bo862bo158bo590b2o172b2o11b2o
14bobo2bo2bo2bo2bo862bo158bo290b2o172b2o11b2o14bobo2bo2bo2bo2bo862bo
158bo$310bo42bobo4b3o8bo2bo5b2o68bobo2006b2o71b2o98b3o3bo7b3o14bo4b2o
6bo862bobo68b2o85bobo589b2o71b2o98b3o3bo7b3o14bo4b2o6bo862bobo68b2o85b
obo289b2o71b2o98b3o3bo7b3o14bo4b2o6bo862bobo68b2o85bobo$309bobo40bobo
16b2obo5b2o2150bobo94bob2o4b4o5b2o25bobo6b2o11bobo747bo56b2o35b2o68bob
o85bob2o661bobo94bob2o4b4o5b2o25bobo6b2o11bobo747bo56b2o35b2o68bobo85b
ob2o361bobo94bob2o4b4o5b2o25bobo6b2o761bo56b2o35b2o68bobo85bob2o$292b
2o14bo3b2o32b2o3bo2bo7bo2b2o2b3o2162bo87b2o5bo2bo4bo4bo2b2o26b2o7bobo
11b2o746b2o56b2o28bo76bo88b3o663bo87b2o5bo2bo4bo4bo2b2o26b2o7bobo11b2o
746b2o56b2o28bo76bo88b3o363bo87b2o5bo2bo4bo4bo2b2o26b2o7bobo759b2o40b
2o14b2o28bo76bo88b3o$292bobo13bo3b2o32b2o4bobo7bo3bo2b2o2163b2o86b2o5b
ob2o5bo3bo2bo38bo11bo747bobo83bobo75b2o88bo2bo662b2o86b2o5bob2o5bo3bo
2bo38bo11bo747bobo83bobo75b2o88bo2bo362b2o86b2o5bob2o5bo3bo2bo38bo759b
obo38b2o43bobo75b2o88bo2bo$293b3o12bo3b2o39bobo6bo2bo2266b3o3b2obo18bo
bo21b2o845b2o166b3o760b3o3b2obo18bobo21b2o845b2o166b3o460b3o3b2obo18bo
bo21b2o801bo43b2o166b3o$294b3o12bobo3b2o38bo8b2o25bo2241b2o25b2o769bo
266bo3bo760b2o25b2o769bo266bo3bo460b2o25b2o769bo266bo3bo$293b3o7bo6bo
4bobo73bobo476b2o1789bo769b2o25b2o72bo164bo5bo787bo769b2o25b2o72bo164b
o5bo487bo769b2o25b2o237bo5bo$285b2o5bobo9b2o11bo73b2o5bo472bo1588bo
969bobo18bob2o3b3o57bobo2bobo5bo9bobo2bobo143bo5bo3bo587bo969bobo18bob
2o3b3o57bobo2bobo5bo9bobo2bobo143bo5bo3bo287bo969bobo18bob2o3b3o57bobo
2bobo15bobo2bobo143bo5bo3bo$284bobo5b2o9b2o12b2o77b3o472bobo7bo1577b3o
184bobo54bo743bo2bo3bo5b2obo5b2o43b2obo2bo2bo2bob2ob3o3b2obo2bo2bo2bob
2o138bo7b3o587b3o184bobo54bo743bo2bo3bo5b2obo5b2o43b2obo2bo2bo2bob2ob
3o3b2obo2bo2bo2bob2o138bo7b3o287b3o184bobo798bo2bo3bo5b2obo5b2o43b2obo
2bo2bo2bob2o7b2obo2bo2bo2bob2o138bo7b3o$284bo88bo21bo476b2o4b4o1576b5o
184b2o55b2o712b2o26b2o2bo4bo4bo2bo5b2o32bo14bobo2bobo15bobo2bobo142b3o
594b5o184b2o55b2o712b2o26b2o2bo4bo4bo2bo5b2o32bo14bobo2bobo15bobo2bobo
142b3o294b5o184b2o769b2o26b2o2bo4bo4bo2bo5b2o23bo8bo14bobo2bobo15bobo
2bobo142b3o$283b2o86bobo21b2o8b2o470b4o16bo1559bobobobo93b2o88bo55b2o
712bobo25b2o5b4o4b2obo38b3o80b2o700bobobobo93b2o88bo55b2o712bobo25b2o
5b4o4b2obo38b3o80b2o400bobobobo93b2o88bo769bobo25b2o5b4o4b2obo29b2o7b
3o27bobo50b2o$372b2o31b2o470bo2bo8b2o5bobo1558b2o3b2o93b2o848b2o7bo6b
2o4bo14b3o7bo3b3o40b5o79b2o700b2o3b2o93b2o848b2o7bo6b2o4bo14b3o7bo3b3o
40b5o79b2o400b2o3b2o93b2o848b2o7bo6b2o4bo14b3o7bo3b3o32bobo5b5o26b2o
51b2o$336b2o46bo492b4o14bo3b2o3b2o108b2o2391b2o7bo2bo2bo2bo2bobo14b2o
11b2o40bobobobo1730b2o7bo2bo2bo2bo2bobo14b2o11b2o40bobobobo1430b2o7bo
2bo2bo2bo2bobo14b2o11b2o40bobobobo26bo$336b3o44bo7b2o485b4o3b2obobo4bo
3b2o3b2o107b3o1654bo2bo26bo2bo712bo6b3obob2o15b2o52b2o3b2o993bo2bo26bo
2bo712bo6b3obob2o15b2o52b2o3b2o693bo2bo26bo2bo26bo2bo26bo2bo26bo2bo26b
o2bo26bo2bo26bo2bo26bo2bo26bo2bo26bo2bo26bo2bo26bo2bo26bo2bo26bo2bo26b
o2bo26bo2bo26bo2bo26bo2bo26bo2bo26bo2bo26bo2bo26bo2bo26bo2bo26bo2bo22b
o6b3obob2o15b2o52b2o3b2o$280b2o53bob2o44b3o6b2o487bo2bo3b2o5bo3b2o112b
2obo1443bo96bo98b4o14bo11b4o14bo712bobo6b2ob2o16bo138bo703bo96bo98b4o
14bo11b4o14bo712bobo6b2ob2o16bo138bo403bo96bo98b4o14bo11b4o14bo11b4o
14bo11b4o14bo11b4o14bo11b4o14bo11b4o14bo11b4o14bo11b4o14bo11b4o14bo11b
4o14bo11b4o14bo11b4o14bo11b4o14bo11b4o14bo11b4o14bo11b4o14bo11b4o14bo
11b4o14bo11b4o14bo11b4o14bo11b4o14bo11b4o14bo11b4o14bo11b4o14bo22bobo
6b2ob2o16bo138bo$281bo53b3o41bo11bo493bo10bobo115b3o1442bobo94b3o96bo
3bo10bo3bo10bo3bo10bo3bo713b2o7bob2o154b3o96bo604bobo94b3o96bo3bo10bo
3bo10bo3bo10bo3bo713b2o7bob2o154b3o96bo304bobo94b3o96bo3bo10bo3bo10bo
3bo10bo3bo10bo3bo10bo3bo10bo3bo10bo3bo10bo3bo10bo3bo10bo3bo10bo3bo10bo
3bo10bo3bo10bo3bo10bo3bo10bo3bo10bo3bo10bo3bo10bo3bo10bo3bo10bo3bo10bo
3bo10bo3bo10bo3bo10bo3bo10bo3bo10bo3bo10bo3bo10bo3bo10bo3bo10bo3bo10bo
3bo10bo3bo10bo3bo10bo3bo10bo3bo10bo3bo10bo3bo10bo3bo10bo3bo10bo3bo10bo
3bo10bo3bo10bo3bo10bo3bo10bo3bo10bo3bo10bo3bo10bo3bo23b2o7bob2o154b3o
96bo$281bobo6bo7bo37bo42bo505bo2bo8bo117bo1442b2obo93bo3bo99bo11b4o14b
o11b4o723bobo69b2o82bo3bo95bobo15b2o584b2obo93bo3bo99bo11b4o14bo11b4o
723bobo69b2o82bo3bo95bobo15b2o284b2obo93bo3bo99bo11b4o14bo11b4o14bo11b
4o14bo11b4o14bo11b4o14bo11b4o14bo11b4o14bo11b4o14bo11b4o14bo11b4o14bo
11b4o14bo11b4o14bo11b4o14bo11b4o14bo11b4o14bo11b4o14bo11b4o14bo11b4o
14bo11b4o14bo11b4o14bo11b4o14bo11b4o14bo11b4o14bo11b4o14bo11b4o33bobo
69b2o82bo3bo95bobo15b2o$282b2o4bobo5b4o2158b3o96bo98bobo26bo2bo712b2o
26bo70b2o4bo79bo97b2o16bo585b3o96bo98bobo26bo2bo712b2o26bo70b2o4bo79bo
97b2o16bo285b3o96bo98bobo26bo2bo26bo2bo26bo2bo26bo2bo26bo2bo26bo2bo26b
o2bo26bo2bo26bo2bo26bo2bo26bo2bo26bo2bo26bo2bo26bo2bo26bo2bo26bo2bo26b
o2bo26bo2bo26bo2bo26bo2bo26bo2bo26bo2bo26bo2bo26bo2bo22b2o26bo70b2o24b
o59bo97b2o16bo$286b2o8b2o2bo2b2o2152bo2bo93bo5bo84b2o754bobo95bo5bob2o
74bo5bo113b3o581bo2bo93bo5bo84b2o754bobo95bo5bob2o74bo5bo113b3o281bo2b
o93bo5bo84b2o754bobo95bo24b2o57bo5bo113b3o$286b2o11b2o2b2o2152b3o94bo
5bo84b2o4bo751bo95b3ob4o76bo5bo115bo581b3o94bo5bo84b2o4bo751bo95b3ob4o
76bo5bo115bo281b3o94bo5bo84b2o4bo751bo95b3o23b2o56bo5bo115bo$286b2o7bo
10b2o76bo493bo1577bo3bo94bo3bo74b2o6b2o6b5ob2o745b2o110b2o67bo3bo697bo
3bo94bo3bo74b2o6b2o6b5ob2o745b2o110b2o67bo3bo397bo3bo94bo3bo74b2o6b2o
6b5ob2o745b2o98bo11b2o67bo3bo$288bobo4bo10b3o9bo65b2o491bo1577bo5bo94b
3o75b2o5b3o5bo2b2o4bo840b5o11b2o68b3o697bo5bo94b3o75b2o5b3o5bo2b2o4bo
840b5o11b2o68b3o397bo5bo94b3o75b2o5b3o5bo2b2o4bo840b5o11b2o68b3o$290bo
4bo10b2o11b2o62bobo491b3o1140b2o434bo3bo5bo125b2o48b2o5b2o8bo8b2o831b
2o47b2o125bo608bo3bo5bo125b2o48b2o5b2o8bo8b2o831b2o47b2o125bo308bo3bo
5bo125b2o48b2o5b2o8bo8b2o831b2o47b2o125bo$303b2o7b2o4b2o1700b2o435b3o
7bo124b2o51b2o4bo7bo8b2o880b2o124bo610b3o7bo124b2o51b2o4bo7bo8b2o880b
2o124bo310b3o7bo124b2o51b2o4bo7bo8b2o845bo34b2o124bo$303b2o7bobo2150b
3o177b2o12bo854bo161b3o616b3o177b2o12bo854bo161b3o316b3o177b2o12bo854b
3o159b3o$314bo2259bo83bo839b2o3b2o8b2o54bo834bo83bo839b2o3b2o8b2o54bo
534bo83bo839b2o3b2o8bo3b3o49bo$314b2o1700b2o2b2o2b2o533bo14bo13b2o2b2o
2b2o58b2o841b5o9bobo30b2o2b2o2b2o13bo14bo804bo14bo13b2o2b2o2b2o58b2o
841b5o9bobo30b2o2b2o2b2o13bo14bo504bo14bo13b2o2b2o2b2o58b2o841b5o9bobo
30b2o2b2o2b2o13bo14bo$2016b2o2b2o2b2o562b2o2b2o2b2o901b2ob2o42b2o2b2o
2b2o862b2o2b2o2b2o901b2ob2o42b2o2b2o2b2o562b2o2b2o2b2o901b2ob2o10bo31b
2o2b2o2b2o$376b2o492bo26b2o1675bo81b2o841b2ob2o65bo834bo81b2o841b2ob2o
65bo534bo81b2o841b2ob2o65bo$377b2o491bobo26bo1659bo13bobo82bo841b3o65b
obo13bo804bo13bobo82bo841b3o65bobo13bo504bo13bobo82bo841b3o65bobo13bo$
366b2o8bo493b2o14b2o12bo1119b2o452bo82bobo32b2o51b2o12bo862bo7bo19b2o
32bobo82bo634bo82bobo32b2o51b2o12bo862bo7bo19b2o32bobo82bo334bo82bobo
32b2o51b2o12bo862bo7bo19b2o32bobo82bo$365bobo518b2o4bo7bo13b2o1104b2o
433b2o15bobo83b2o13b3o16b2o51b2o4bo7bo8b2o851b4o5bobo17b2o16b3o13b2o
83bobo613b2o15bobo83b2o13b3o16b2o51b2o4bo7bo8b2o851b4o5bobo17b2o16b3o
13b2o83bobo313b2o15bobo83b2o13b3o16b2o51b2o4bo7bo8b2o836bo14b4o5bobo
17b2o16b3o13b2o83bobo$365bo517b2o5b2o8bo11bo2bo1540bo16b2o167b2o5b2o8b
o8b2o846b2o2bo2b2o8b2o4b2o128b2o615bo16b2o167b2o5b2o8bo8b2o846b2o2bo2b
2o8b2o4b2o128b2o315bo16b2o167b2o5b2o8bo8b2o836bobo7b2o2bo2b2o8b2o4b2o
128b2o$364b2o516b3o5bo2b2o4bo11bo15bobo1523b3o178b2o5b3o5bo2b2o4bo839b
2o16b2o2b2o11b2o4b2o742b3o178b2o5b3o5bo2b2o4bo839b2o16b2o2b2o11b2o4b2o
442b3o178b2o5b3o5bo2b2o4bo839b2o6b2o8b2o2b2o11b2o4b2o$883b2o6b5ob2o12b
o10b3o2bo3bo1521bo30b2o87b3o58b2o6b2o6b5ob2o745b2o94bo13b2o10bo7b2o33b
3o87b2o623bo30b2o87b3o58b2o6b2o6b5ob2o745b2o94bo13b2o10bo7b2o33b3o87b
2o323bo30b2o87b3o58b2o6b2o6b5ob2o745b2o94bo13b2o10bo7b2o33b3o87b2o$
347b2o20bo493bo13b2o7b2o4bo18bo19bo5b2o1545b2o66b2o3b2o86b2o4bo751bo
92b3o13b3o10bo4bobo52b2o3b2o66b2o654b2o66b2o3b2o86b2o4bo751bo92b3o13b
3o10bo4bobo52b2o3b2o66b2o354b2o66b2o3b2o86b2o4bo751bo92b3o13b3o10bo4bo
bo52b2o3b2o66b2o$348bo20b2o491bo13bobo7b2o24bo2bo2b2o7bo4bo4b2o1627bo
6bobo69b2o754bobo92bo16b2o10bo4bo37bobo6bo818bo6bobo69b2o754bobo92bo
16b2o10bo4bo37bobo6bo518bo6bobo69b2o754bobo92bo16b2o10bo4bo37bobo6bo$
348bobo6bobo8bobo10b2o479b3o11bo37b2o2bo2bobo7bo1549bo71bo3bo9bo6bo23b
2o56bobo26bo2bo712b2o26bo77b2o7b2o26b2o23bo6bo9bo3bo71bo648bo71bo3bo9b
o6bo23b2o56bobo26bo2bo712b2o26bo77b2o7b2o26b2o23bo6bo9bo3bo71bo348bo
71bo3bo9bo6bo23b2o56bobo26bo2bo26bo2bo26bo2bo26bo2bo26bo2bo26bo2bo26bo
2bo26bo2bo26bo2bo26bo2bo26bo2bo26bo2bo26bo2bo26bo2bo26bo2bo26bo2bo26bo
2bo26bo2bo26bo2bo26bo2bo26bo2bo26bo2bo26bo2bo26bo2bo22b2o26bo77b2o7b2o
26b2o23bo6bo9bo3bo71bo$349b2o6bo3bo19bo493b2o23bo18b3o5bo3bo1550bo71b
3o8b3o30b2o59bo11b4o14bo11b4o723bobo75bobo7b2o26b2o30b3o8b3o71bo650bo
71b3o8b3o30b2o59bo11b4o14bo11b4o723bobo75bobo7b2o26b2o30b3o8b3o71bo
350bo71b3o8b3o30b2o59bo11b4o14bo11b4o14bo11b4o14bo11b4o14bo11b4o14bo
11b4o14bo11b4o14bo11b4o14bo11b4o14bo11b4o14bo11b4o14bo11b4o14bo11b4o
14bo11b4o14bo11b4o14bo11b4o14bo11b4o14bo11b4o14bo11b4o14bo11b4o14bo11b
4o14bo11b4o14bo11b4o14bo11b4o14bo11b4o33bobo68bo6bobo7b2o26b2o30b3o8b
3o71bo$361bo10b2o5bobo519bo25bobo22bo1527b3o71b3o17bo80bo3bo10bo3bo10b
o3bo10bo3bo713b2o7bob2o75bo62bo17b3o71b3o646b3o71b3o17bo80bo3bo10bo3bo
10bo3bo10bo3bo713b2o7bob2o75bo62bo17b3o71b3o346b3o71b3o17bo80bo3bo10bo
3bo10bo3bo10bo3bo10bo3bo10bo3bo10bo3bo10bo3bo10bo3bo10bo3bo10bo3bo10bo
3bo10bo3bo10bo3bo10bo3bo10bo3bo10bo3bo10bo3bo10bo3bo10bo3bo10bo3bo10bo
3bo10bo3bo10bo3bo10bo3bo10bo3bo10bo3bo10bo3bo10bo3bo10bo3bo10bo3bo10bo
3bo10bo3bo10bo3bo10bo3bo10bo3bo10bo3bo10bo3bo10bo3bo10bo3bo10bo3bo10bo
3bo10bo3bo10bo3bo10bo3bo10bo3bo10bo3bo10bo3bo10bo3bo10bo3bo23b2o7bob2o
67bo7bo62bo17b3o71b3o$357bo4bo7bo2bo5b2o518b3o49bobo1530b3o87bo81b4o
14bo11b4o14bo712bobo6b2ob2o16bo57b2o62bo87b3o654b3o87bo81b4o14bo11b4o
14bo712bobo6b2ob2o16bo57b2o62bo87b3o354b3o87bo81b4o14bo11b4o14bo11b4o
14bo11b4o14bo11b4o14bo11b4o14bo11b4o14bo11b4o14bo11b4o14bo11b4o14bo11b
4o14bo11b4o14bo11b4o14bo11b4o14bo11b4o14bo11b4o14bo11b4o14bo11b4o14bo
11b4o14bo11b4o14bo11b4o14bo11b4o14bo11b4o14bo11b4o14bo11b4o14bo22bobo
6b2ob2o16bo50b3o4b2o62bo87b3o$361bo7bo581b2obo7b2o1522bo183bo2bo26bo2b
o712bo6b3obob2o15b2o209bo658bo183bo2bo26bo2bo712bo6b3obob2o15b2o209bo
358bo183bo2bo26bo2bo26bo2bo26bo2bo26bo2bo26bo2bo26bo2bo26bo2bo26bo2bo
26bo2bo26bo2bo26bo2bo26bo2bo26bo2bo26bo2bo26bo2bo26bo2bo26bo2bo26bo2bo
26bo2bo26bo2bo26bo2bo26bo2bo26bo2bo26bo2bo22bo6b3obob2o15b2o209bo$336b
2o19bo3bo7bo542bo26b2o10b2ob2o6bobo49b2o1469bo921b2o7bo2bo2bo2bo2bobo
14b2o11b2o198bo656bo921b2o7bo2bo2bo2bo2bobo14b2o11b2o198bo287bobo66bo
921b2o7bo2bo2bo2bo2bobo14b2o11b2o198bo$336b3o18bobo9bo485bo55bo27b2o
10b2obob3o6bo47b3o1582b3o806b2o7bo6b2o4bo14b3o7bo3b3o82b3o21bo838bo21b
3o806b2o7bo6b2o4bo14b3o7bo3b3o82b3o21bo381bo178b3o806b2o7bo6b2o4bo14b
3o7bo3b3o82b3o21bo$335bob2o31bo2bo51b2o428bobo53b3o37bobo2bo2bo2bo2bo
47b2obo1454b2o18bobo63b3o14bo23b3o46bo55b2o712bobo25b2o5b4o4b2obo79b3o
19b2o17b3o63bobo18b2o628b2o18bobo63b3o17b2o19b3o46bo55b2o712bobo25b2o
5b4o4b2obo79b3o19b2o17b3o63bobo18b2o276bo51b2o18bobo63b3o14bo23b3o46bo
769bobo25b2o5b4o4b2obo79b3o19b2o17b3o63bobo18b2o$335b3o34b2o52bo428b2o
95bo4b2o6bo48b3o1454b2o4bo14b2o63b3o8b3obobo22bo3bo45b2o55b2o712b2o26b
2o2bo4bo4bo2bo5b2o71bo3bo19b2o5b3o8b3o63b2o14bo4b2o628b2o4bo14b2o63b3o
8b3o5b2o19bo3bo45b2o55b2o712b2o26b2o2bo4bo4bo2bo5b2o71bo3bo19b2o5b3o8b
3o63b2o14bo4b2o273bo2bo51b2o4bo14b2o63b3o8b3obobo22bo3bo45b2o769b2o26b
2o2bo4bo4bo2bo5b2o71bo3bo19b2o5b3o8b3o63b2o14bo4b2o$336bo89bobo533bobo
6b2o42bo1452b2o6b5ob2o8bo63bo3bo9bo2b2o71bobo54bo743bo2bo3bo5b2obo5b2o
102bo9bo3bo63bo8b2ob5o6b2o622b2o6b5ob2o8bo63bo3bo9bo75bobo54bo743bo2bo
3bo5b2obo5b2o102bo9bo3bo63bo8b2ob5o6b2o271b3o48b2o6b5ob2o8bo63bo3bo9bo
2b2o71bobo798bo2bo3bo5b2obo5b2o20bo81bo9bo3bo63bo8b2ob5o6b2o$427b2o
427b2o28b2o74b2o7bobo1486b2o5b3o5bo2b2o4bo33bo50bo26b2o3b2o827bobo18bo
b2o3b3o80b2o3b2o26bo50bo33bo4b2o2bo5b3o5b2o606b2o5b3o5bo2b2o4bo33bo50b
o26b2o3b2o827bobo18bob2o3b3o80b2o3b2o26bo50bo33bo4b2o2bo5b3o5b2o306b2o
5b3o5bo2b2o4bo33bo50bo26b2o3b2o827bobo18bob2o3b3o30bobo47b2o3b2o26bo
50bo33bo4b2o2bo5b3o5b2o$855b4o11b2o13b4o11b2o71bo1486b2o6b2o5b2o8bo30b
obo36b2o3b2o12bo86bo769b2o25b2o109bo12b2o3b2o36bobo30bo8b2o5b2o6b2o
606b2o6b2o5b2o8bo30bobo36b2o3b2o12bo86bo769b2o25b2o109bo12b2o3b2o36bob
o30bo8b2o5b2o6b2o306b2o6b2o5b2o8bo30bobo36b2o3b2o12bo86bo769b2o25b2o
31b2o76bo12b2o3b2o36bobo30bo8b2o5b2o6b2o$854b2ob2o10b2ob2o10b2ob2o10b
2ob2o36bo8bobo21b2o1496b2o4bo7bo28b2o18b2o38bo58b2o25b2o769bo137bo38b
2o18b2o28bo7bo4b2o628b2o4bo7bo28b2o18b2o38bo58b2o25b2o769bo137bo38b2o
18b2o28bo7bo4b2o328b2o4bo7bo28b2o18b2o38bo58b2o25b2o769bo137bo38b2o18b
2o28bo7bo4b2o$855b2o13b4o11b2o13b4o36b3o6b2o1520b2o12bo22b2o4b2o17bo3b
o94b3o3b2obo18bobo21b2o920bo3bo17b2o4b2o22bo12b2o628b2o12bo22b2o4b2o
17bo3bo94b3o3b2obo18bobo21b2o920bo3bo17b2o4b2o22bo12b2o328b2o12bo22b2o
4b2o17bo3bo94b3o3b2obo18bobo21b2o920bo3bo17b2o4b2o22bo12b2o$871b2o28b
2o40bo6bo1533bo7b2o5bo8b2o4b2o16bo5bo35bo47b2o5bob2o5bo3bo2bo38bo11bo
747bobo111bobo8bo35bo5bo16b2o4b2o8bo5b2o7bo654bo7b2o5bo8b2o4b2o16bo5bo
35bo8bobo36b2o5bob2o5bo3bo2bo38bo11bo747bobo111bobo8bo35bo5bo16b2o4b2o
8bo5b2o7bo354bo7b2o5bo8b2o4b2o16bo5bo35bo47b2o5bob2o5bo3bo2bo38bo759bo
bo111bobo8bo35bo5bo16b2o4b2o8bo5b2o7bo$915bo26b2o1538b2o8bobo5b2o14bob
o4bo8bo3bob2o2b2o17b2o10bobo24b3o19b2o5bo2bo4bo4bo2b2o26b2o7bobo11b2o
746b2o95b3o14b2o8bobo10b2o17b2o2b2obo3bo8bo4bobo14b2o5bobo8b2o650b2o8b
obo5b2o14bobo4bo8bo3bob2o2b2o17b2o10bobo8b2o14b3o19b2o5bo2bo4bo4bo2b2o
26b2o7bobo11b2o746b2o95b3o14b2o8bobo10b2o17b2o2b2obo3bo8bo4bobo14b2o5b
obo8b2o350b2o8bobo5b2o14bobo4bo8bo3bob2o2b2o17b2o10bobo24b3o19b2o5bo2b
o4bo4bo2b2o26b2o7bobo759b2o95b3o14b2o8bobo10b2o17b2o2b2obo3bo8bo4bobo
14b2o5bobo8b2o$908b2obo3b4o1575bo4b2o17bo3bo9bo5bo3b2o16bobo34b2o30bob
2o4b4o5b2o25bobo6b2o11bobo747bo99b2o12bo21bobo16b2o3bo5bo9bo3bo17b2o4b
o674bo4b2o17bo3bo9bo5bo3b2o16bobo21bo12b2o30bob2o4b4o5b2o25bobo6b2o11b
obo747bo99b2o12bo21bobo16b2o3bo5bo9bo3bo17b2o4bo374bo4b2o17bo3bo9bo5bo
3b2o16bobo34b2o30bob2o4b4o5b2o25bobo6b2o761bo38bo60b2o12bo21bobo16b2o
3bo5bo9bo3bo17b2o4bo$902b2o2b2obobo4b4o5b2o1567b2o26b3o2bo5bo3bo24bo
10b3o21b2o33b3o3bo7b3o14bo4b2o6bo868b2o21b3o10bo24bo3bo5bo2b3o26b2o
674b2o26b3o2bo5bo3bo24bo10b3o21b2o33b3o3bo7b3o14bo4b2o6bo868b2o21b3o
10bo24bo3bo5bo2b3o26b2o374b2o26b3o2bo5bo3bo24bo10b3o21b2o33b3o3bo7b3o
14bo4b2o6bo806bo61b2o21b3o10bo24bo3bo5bo2b3o26b2o$901bobo2b2obob2o3bo
2bo5b2o18bo1588b2o60b2o35b2o11b2o14bobo2bo2bo2bo2bo869b2o60b2o754b2o
60b2o35b2o11b2o14bobo2bo2bo2bo2bo869b2o60b2o454b2o60b2o35b2o11b2o14bob
o2bo2bo2bo2bo806b3o60b2o60b2o$891b2o7b3o8b2o3b4o24b3o1048b2o47b2o551bo
bo45b2o15b2obob3o6bo742bo2bo121bobo880bobo45b2o15b2obob3o6bo742bo2bo
121bobo580bobo45b2o15b2obob3o6bo22bo2bo26bo2bo26bo2bo26bo2bo26bo2bo26b
o2bo26bo2bo26bo2bo26bo2bo26bo2bo26bo2bo26bo2bo26bo2bo26bo2bo26bo2bo26b
o2bo26bo2bo26bo2bo26bo2bo26bo2bo26bo2bo26bo2bo26bo2bo26bo2bo26bo2bo
121bobo$891b2o6b3o8b2o3b4o24bo3bo4bo28b2o1012b2o47b2o516bo10b3o22b2o
45bo16b2ob2o6bobo742bo14b4o107b2o22b3o10bo810bo10b3o22b2o45bo16b2ob2o
6bobo742bo14b4o107b2o22b3o10bo510bo10b3o22b2o45bo16b2ob2o6bobo22bo14b
4o11bo14b4o11bo14b4o11bo14b4o11bo14b4o11bo14b4o11bo14b4o11bo14b4o11bo
14b4o11bo14b4o11bo14b4o11bo14b4o11bo14b4o11bo14b4o11bo14b4o11bo14b4o
11bo14b4o11bo14b4o11bo14b4o11bo14b4o11bo14b4o11bo14b4o11bo14b4o11bo14b
4o11bo14b4o107b2o22b3o10bo$900b3o12bo26bob3obo4bo26b3o1679b2obo7b2o
743bo3bo10bo3bo114bo868bo70b2obo7b2o743bo3bo10bo3bo114bo639b2obo7b2o
23bo3bo10bo3bo10bo3bo10bo3bo10bo3bo10bo3bo10bo3bo10bo3bo10bo3bo10bo3bo
10bo3bo10bo3bo10bo3bo10bo3bo10bo3bo10bo3bo10bo3bo10bo3bo10bo3bo10bo3bo
10bo3bo10bo3bo10bo3bo10bo3bo10bo3bo10bo3bo10bo3bo10bo3bo10bo3bo10bo3bo
10bo3bo10bo3bo10bo3bo10bo3bo10bo3bo10bo3bo10bo3bo10bo3bo10bo3bo10bo3bo
10bo3bo10bo3bo10bo3bo10bo3bo10bo3bo10bo3bo10bo3bo10bo3bo10bo3bo10bo3bo
114bo$901bobo39b5o3b3o23bob2o15bo1509bobo64bobo86bobo23b2o728b4o11bo
118bo15bobo64bobo698bobo64bobo15bo70bobo23b2o728b4o11bo118bo15bobo64bo
bo398bobo64bobo86bobo33b4o11bo14b4o11bo14b4o11bo14b4o11bo14b4o11bo14b
4o11bo14b4o11bo14b4o11bo14b4o11bo14b4o11bo14b4o11bo14b4o11bo14b4o11bo
14b4o11bo14b4o11bo14b4o11bo14b4o11bo14b4o11bo14b4o11bo14b4o11bo14b4o
11bo14b4o11bo14b4o11bo14b4o11bo14b4o11bo118bo15bobo64bobo$902b2o66b2o
5bo2bo8b3o4bobo42bo1465b2o6bo58bo23b2o3b2o58bo25b2o743bobo102b2o3b2o6b
o16bo58bo6b2o700b2o6bo58bo16bo6b2o3b2o58bo25b2o743bobo102b2o3b2o6bo16b
o58bo6b2o400b2o6bo58bo23b2o3b2o58bo50bo2bo26bo2bo26bo2bo26bo2bo26bo2bo
26bo2bo26bo2bo26bo2bo26bo2bo26bo2bo26bo2bo26bo2bo26bo2bo26bo2bo26bo2bo
26bo2bo26bo2bo26bo2bo26bo2bo26bo2bo26bo2bo26bo2bo26bo2bo26bo2bo26bobo
102b2o3b2o6bo16bo58bo6b2o$970b2o5bob2o16bobo40bobo1464bo7bobo68b2o10b
2o3b2o83bo757b2o91b2o3b2o7bo2b2o68bobo7bo700bo7bobo68b2o2bo7b2o3b2o83b
o757b2o91b2o3b2o7bo2b2o68bobo7bo400bo7bobo68b2o10b2o3b2o841b2o28bo62b
2o3b2o7bo2b2o68bobo7bo$980b3o2b2o2bo7bo2bo3b2o32b2o3bo14b2o1455b2o42b
3o12bo11b2o4bo848bo4b2o103bob2ob2o11bo12b3o42b2o716b2o42b3o12bo11b2ob
2obo848bo4b2o103bob2ob2o11bo12b3o42b2o416b2o42b3o12bo11b2o4bo848bo4b2o
28bobo72bob2ob2o11bo12b3o42b2o$981b2o2bo3bo7bobo4b2o32b2o3bo13bobo934b
3o47b3o455b2o54bo3bo11bo15b2o8b3o832b2ob5o6b2o6b2o82b3o6bo2bo15bo11bo
3bo54b2o690b2o54bo3bo11bo15bo2bo6b3o832b2ob5o6b2o6b2o82b3o6bo2bo15bo
11bo3bo54b2o390b2o54bo3bo11bo15b2o8b3o832b2ob5o6b2o6b2o17b2o63b3o6bo2b
o15bo11bo3bo54b2o$986bo2bo6bobo39b2o3bo12b3o1443b2o53bo5bo27b2o7b3o
809b2o20bo4b2o2bo5b3o5b2o82b3o7b2o27bo5bo53b2o690b2o53bo5bo27b2o7b3o
809b2o20bo4b2o2bo5b3o5b2o82b3o7b2o27bo5bo53b2o390b2o53bo5bo27b2o7b3o
831bo4b2o2bo5b3o5b2o82b3o7b2o27bo5bo53b2o$960bo25b2o8bo38b2o3bobo12b3o
936bobo47bobo510bo5bo37bo810bobo8b2o8bo8b2o5b2o91bo37bo5bo800bo5bo37bo
810bobo8b2o8bo8b2o5b2o91bo37bo5bo500bo5bo37bo821b2o8bo8b2o5b2o91bo37bo
5bo$482b2o474bobo73bobo4bo6bo7b3o934b5o45b5o512bo120bo730bo10b2o8bo7bo
4b2o135bo806bo120bo730bo10b2o8bo7bo4b2o135bo506bo120bo741b2o8bo7bo4b2o
135bo$482bo470bo5b2o73bo11b2o9bobo5b2o925b2o3b2o43b2o3b2o444b2o63bo3bo
118b2o23b2o725bo12b2o133bo3bo63b2o672b2o63bo3bo118b2o23b2o725bo12b2o
133bo3bo63b2o372b2o63bo3bo118b2o23b2o725bo12b2o133bo3bo63b2o$475bo4bob
o470b3o77b2o12b2o9b2o5bobo924b2o3b2o14b2o11b2o14b2o3b2o444bobo63b3o
118bobo25bo725bo147b3o63bobo672bobo63b3o118bobo25bo725bo147b3o63bobo
372bobo63b3o118bobo25bo725bo34bo112b3o63bobo$474bobo3b2o474bo21bo88bo
945b2o11b2o466bo22b2o41bo23bo18b2o90b2o12bo725b2o102b2o4bo37bo41b2o22b
o674bo22b2o41bo37bo4b2o90b2o12bo725b2o102b2o4bo37bo41b2o22bo374bo22b2o
41bo23bo18b2o90b2o12bo725b2o31bo70b2o4bo37bo41b2o22bo$457b2o15b2obo
467b2o8b2o21bobo86b2o1449bo65bo18bo91b2o4bo7bo8b2o820bo3bo80bo722bo80b
o3bo91b2o4bo7bo8b2o820bo3bo80bo422bo65bo18bo91b2o4bo7bo8b2o748b3o69bo
3bo80bo$457bobo14b2ob2o466b2o31b2o1014b2o49b2o471bobo7b2o48b2o3bobo18b
3o85b2o5b2o8bo8b2o817b3o4b3o17b2o48b2o7bobo722bobo7b2o48b2o17b3o4b3o
85b2o5b2o8bo8b2o817b3o4b3o17b2o48b2o7bobo422bobo7b2o48b2o3bobo18b3o85b
2o5b2o8bo8b2o817b3o4b3o17b2o48b2o7bobo$336b2o110b2o2b2o6bo13b2obo489bo
46b2o977b2ob2o45b2ob2o471b2o6bobo30b2o15bobo4b2o20bo77b2o5b3o5bo2b2o4b
o710b3o115bo26bobo15b2o30bobo6b2o18b2o684b2o18b2o6bobo30b2o15bobo26bo
77b2o5b3o5bo2b2o4bo710b3o115bo26bobo15b2o30bobo6b2o18b2o404b2o6bobo30b
2o15bobo4b2o20bo77b2o5b3o5bo2b2o4bo828bo26bobo15b2o30bobo6b2o18b2o$
336b3o109b2obo2bo2bo2bo13bobo482b2o7bo44b3o978bo2bo45bo2bo450b2o27b3o
4b2o4bo20b2o14b3o6bo5bo92b2o6b2o6b5ob2o647b2o62bo132bo12b3o14b2o20bo4b
2o4b3o25b2o684b2o25b3o4b2o4bo20b2o14b3o12bo92b2o6b2o6b5ob2o647b2o62bo
132bo12b3o14b2o20bo4b2o4b3o25b2o382b2o27b3o4b2o4bo20b2o14b3o6bo5bo92b
2o6b2o6b5ob2o647b2o195bo12b3o14b2o20bo4b2o4b3o25b2o$335bob2o113b2o6bo
8bo5bo482b2o6b3o44b2obo53b2o922bo51bo450b2o26b3o4bo2b2obobo26b2o6b3o7b
obo3b4o78b2o20b2o4bo653bo64bo128b4o3b2o8b3o6b2o26bobob2o2bo4b3o736b3o
4bo2b2obobo26b2o6b3o8b2o3b4o78b2o20b2o4bo653bo64bo128b4o3b2o8b3o6b2o
26bobob2o2bo4b3o408b2o26b3o4bo2b2obobo26b2o6b3o7bobo3b4o78b2o20b2o4bo
653bo193b4o3b2o8b3o6b2o26bobob2o2bo4b3o$335b3o119bobo7bobo490bo11bo41b
3o53bo926bo16bo11bo16bo448b2o32b3o4b3obo3bo9b2o14b2o7b3o8b2o3b4o78b2o
19b2o656bobo192b4o3b2o8b3o7b2o14b2o9bo3bob3o4b3o32b2o670b2o32b3o4b3obo
3bo9b2o14b2o7b3o8b2o3b4o78b2o19b2o656bobo192b4o3b2o8b3o7b2o14b2o9bo3bo
b3o4b3o32b2o370b2o32b3o4b3obo3bo9b2o14b2o7b3o8b2o3b4o78b2o19b2o656bobo
192b4o3b2o8b3o7b2o14b2o9bo3bob3o4b3o32b2o$336bo120b2o9b2o502bo42bo37bo
7bo6bobo924b2o16b3o9b3o16b2o445bobo33bobo4b2obo3bo9b2o24bobo2b2obob2o
3bo2bo77bo32bobo26bo2bo614b2o24bo168bo2bo3b2obob2o2bobo24b2o9bo3bob2o
4bobo33bobo668bobo33bobo4b2obo3bo9b2o24bobo2b2obob2o3bo2bo77bo32bobo
26bo2bo614b2o24bo168bo2bo3b2obob2o2bobo24b2o9bo3bob2o4bobo33bobo368bob
o33bobo4b2obo3bo9b2o24bobo2b2obob2o3bo2bo77bo32bobo26bo2bo26bo2bo26bo
2bo26bo2bo26bo2bo26bo2bo26bo2bo26bo2bo26bo2bo26bo2bo26bo2bo26bo2bo26bo
2bo26bo2bo26bo2bo26bo2bo26bo2bo26bo2bo26bo2bo26bo2bo26bo2bo14b2o24bo
81bo86bo2bo3b2obob2o2bobo24b2o9bo3bob2o4bobo33bobo$1052b4o5bobo4b2o
943b3o9b3o463bo36b2o6b2o3bo36b2o2b2obobo4b4o66b2o45bo11b4o14bo11b4o
623bobo156bo10b4o4bobob2o2b2o36bo3b2o6b2o36bo668bo36b2o6b2o3bo36b2o2b
2obobo4b4o10bo55b2o45bo11b4o14bo11b4o623bobo156bo10b4o4bobob2o2b2o36bo
3b2o6b2o36bo368bo36b2o6b2o3bo36b2o2b2obobo4b4o66b2o45bo11b4o14bo11b4o
14bo11b4o14bo11b4o14bo11b4o14bo11b4o14bo11b4o14bo11b4o14bo11b4o14bo11b
4o14bo11b4o14bo11b4o14bo11b4o14bo11b4o14bo11b4o14bo11b4o14bo11b4o14bo
11b4o14bo11b4o14bo11b4o14bo11b4o14bo38bobo80bobo73bo10b4o4bobob2o2b2o
36bo3b2o6b2o36bo$1047b2o2bo2b2o8b2o1424b2o13b2o31bobo43b2obo3b4o4b2o
60bo3bo39bo3bo10bo3bo10bo3bo10bo3bo613b2o7bob2o156bobo3b2o4b4o3bob2o
43bobo31b2o13b2o666b2o13b2o31bobo43b2obo3b4o4b2o3bobo54bo3bo39bo3bo10b
o3bo10bo3bo10bo3bo613b2o7bob2o156bobo3b2o4b4o3bob2o43bobo31b2o13b2o
366b2o13b2o31bobo43b2obo3b4o4b2o60bo3bo39bo3bo10bo3bo10bo3bo10bo3bo10b
o3bo10bo3bo10bo3bo10bo3bo10bo3bo10bo3bo10bo3bo10bo3bo10bo3bo10bo3bo10b
o3bo10bo3bo10bo3bo10bo3bo10bo3bo10bo3bo10bo3bo10bo3bo10bo3bo10bo3bo10b
o3bo10bo3bo10bo3bo10bo3bo10bo3bo10bo3bo10bo3bo10bo3bo10bo3bo10bo3bo10b
o3bo10bo3bo10bo3bo10bo3bo10bo3bo10bo3bo10bo3bo10bo3bo10bo3bo28b2o7bob
2o80b2o74bobo3b2o4b4o3bob2o43bobo31b2o13b2o$1047b2o2b2o11b2o924b2o3b2o
14b2o3b2o5b2o3b2o14b2o3b2o454bo33bo51bo7bobo58bo5bo7bo31b4o14bo11b4o
14bo612bobo6b2ob2o16bo29b2o108b2o3bobo7bo51bo33bo696bo33bo51bo7bobo3b
2o53bo5bo7bo31b4o14bo11b4o14bo612bobo6b2ob2o16bo29b2o108b2o3bobo7bo51b
o33bo396bo33bo51bo7bobo58bo5bo7bo31b4o14bo11b4o14bo11b4o14bo11b4o14bo
11b4o14bo11b4o14bo11b4o14bo11b4o14bo11b4o14bo11b4o14bo11b4o14bo11b4o
14bo11b4o14bo11b4o14bo11b4o14bo11b4o14bo11b4o14bo11b4o14bo11b4o14bo11b
4o14bo11b4o14bo11b4o27bobo6b2ob2o16bo139b2o3bobo7bo51bo33bo$967bo76b2o
10bo7b2o925b5o5bo9b2o3b2o5b2o3b2o9bo5b5o448b2o6b3o24b3o65bo48b2o8bo3bo
b2o4bobo45bo2bo26bo2bo612bo6b3obob2o15b2o29bobo112bo65b3o24b3o6b2o682b
2o6b3o24b3o65bo48b2o8bo3bob2o4bobo45bo2bo26bo2bo612bo6b3obob2o15b2o29b
obo112bo65b3o24b3o6b2o382b2o6b3o24b3o65bo48b2o8bo3bob2o4bobo45bo2bo26b
o2bo26bo2bo26bo2bo26bo2bo26bo2bo26bo2bo26bo2bo26bo2bo26bo2bo26bo2bo26b
o2bo26bo2bo26bo2bo26bo2bo26bo2bo26bo2bo26bo2bo26bo2bo26bo2bo26bo2bo42b
o6b3obob2o15b2o144bo65b3o24b3o6b2o$476bo489b2o65bo9b3o10bo4bobo928b3o
7b2o33b2o7b3o449b2o8bo26bo65b2o47b2o8bo5bo3b2o685b2o7bo2bo2bo2bo2bobo
14b2o11b2o17bo113b2o65bo26bo8b2o682b2o8bo26bo65b2o47b2o8bo5bo3b2o685b
2o7bo2bo2bo2bo2bobo14b2o11b2o17bo113b2o65bo26bo8b2o382b2o8bo26bo65b2o
47b2o8bo5bo3b2o685b2o7bo2bo2bo2bo2bobo14b2o11b2o131b2o65bo26bo8b2o$
477bo488bobo62b2o11b2o10bo4bo931bo7b2o35b2o7bo486bo126bo3bo4b2o12b2o
671b2o7bo6b2o4bo14b3o7bo3b3o155bo42bo754bo42bo83bo3bo4b2o12b2o671b2o7b
o6b2o4bo14b3o7bo3b3o155bo42bo454bo126bo3bo4b2o12b2o671b2o7bo6b2o4bo14b
3o7bo3b3o155bo42bo$475b3o554b2o4b2o7b2o965b2o9b2o635b2o6b2o12b2o11bo
55b2o612bobo25b2o5b4o4b2obo153b2o836b2o85b2o6b2o12b2o11bo55b2o612bobo
25b2o5b4o4b2obo153b2o623b2o6b2o12b2o11bo669bobo25b2o5b4o4b2obo40bo112b
2o$1037bobo7b2o917b2o45bobo9bobo45b2o597bobo22b2o55b2o612b2o26b2o2bo4b
o4bo2bo5b2o109bo35b2o838b2o35bo58bobo22b2o55b2o612b2o26b2o2bo4bo4bo2bo
5b2o109bo35b2o634bobo22b2o669b2o26b2o2bo4bo4bo2bo5b2o32bo76bo35b2o$
1037bo928b2o44b2o2bo7bo2b2o44b2o599bo21bobo54bo643bo2bo3bo5b2obo5b2o
108bo914bo59bo21bobo54bo643bo2bo3bo5b2obo5b2o108bo674bo21bobo698bo2bo
3bo5b2obo5b2o32b3o73bo$1036b2o975b2o11b2o1352bobo18bob2o3b3o118b3o910b
3o765bobo18bob2o3b3o118b3o1378bobo18bob2o3b3o118b3o$2013b2o11b2o498b2o
183bo669b2o25b2o24b3o179b2o738b2o183bo669b2o25b2o24b3o179b2o438b2o183b
o669b2o25b2o206b2o$454b2o518b2o1037bo13bo497bobo155b2o25b2o669bo52bo7b
2o172bobo736bobo155b2o25b2o669bo52bo7b2o172bobo436bobo155b2o25b2o669bo
60b2o172bobo$452bo2bo28bo488b2o1033bo23bo469b2o23bo154b3o3b2obo18bobo
21b2o699bo6b2o172bo23b2o690b2o23bo154b3o3b2obo18bobo21b2o699bo6b2o172b
o23b2o390b2o23bo154b3o3b2obo18bobo21b2o706b2o172bo23b2o$451bo15bobo12b
obo490bo8b2o1021bo2bo2bo5bobo5bo2bo2bo469bo175bob2o5bo3bo2bo38bo11bo
647bobo176bobo64bo692bo64bobo108bob2o5bo3bo2bo38bo11bo647bobo176bobo
64bo392bo175bob2o5bo3bo2bo38bo659bobo176bobo64bo$439bo11bo10b3o2bo3bo
11b2o499bobo1020bo5bo5bobo5bo5bo469bobo7b2o157b2o5bo2bo4bo4bo2b2o26b2o
7bobo11b2o646b2o178b2o53b2o7bobo692bobo7b2o53b2o102b2o5bo2bo4bo4bo2b2o
26b2o7bobo11b2o646b2o178b2o53b2o7bobo392bobo7b2o157b2o5bo2bo4bo4bo2b2o
26b2o7bobo659b2o50bo127b2o53b2o7bobo$439b4o8bo19bo514bo1020bo2bo3bo3bo
3bo3bo3bo2bo470b2o6bobo157b2o5bob2o4b4o5b2o25bobo6b2o11bobo647bo126bo
51bo54bobo6b2o694b2o6bobo54bo51bo50b2o5bob2o4b4o5b2o25bobo6b2o11bobo
647bo126bo51bo54bobo6b2o394b2o6bobo157b2o5bob2o4b4o5b2o25bobo6b2o661bo
50bobo73bo51bo54bobo6b2o$423bo16b4o8bo2bo2b2o7bo4bo513b2o1019b3o5b3o5b
3o5b3o477b3o4b2o4bo157b3o3bo7b3o14bo4b2o6bo795bobo94bo4b2o4b3o708b3o4b
2o4bo94bobo60b3o3bo7b3o14bo4b2o6bo795bobo94bo4b2o4b3o408b3o4b2o4bo157b
3o3bo7b3o14bo4b2o6bo719b2o74bobo94bo4b2o4b3o$422bobo5b2o8bo2bo10b2o2bo
2bobo7bo1494b3o28b2o43b2o28b3o435b3o4bo2b2obobo157b2o11b2o14bobo2bo2bo
2bo2bo715b2o78b2o94bobob2o2bo4b3o706b3o4bo2b2obobo94b2o61b2o11b2o14bob
o2bo2bo2bo2bo715b2o78b2o94bobob2o2bo4b3o406b3o4bo2b2obobo157b2o11b2o
14bobo2bo2bo2bo2bo17bo697b2o78b2o94bobob2o2bo4b3o$415b2o3b2o3bo14b4o
15b3o5bo3bo3b2o505bo20b2o960bo3bo28b2o41b2o28bo3bo435b3o4b3obo3bo9b2o
157b2o15b2obob3o6bo642bo2bo69bobo161b2o9bo3bob3o4b3o708b3o4b3obo3bo9b
2o157b2o15b2obob3o6bo642bo2bo69bobo161b2o9bo3bob3o4b3o408b3o4b3obo3bo
9b2o157b2o15b2obob3o6bo17bo24bo2bo26bo2bo26bo2bo26bo2bo26bo2bo26bo2bo
26bo2bo26bo2bo26bo2bo26bo2bo26bo2bo26bo2bo26bo2bo26bo2bo26bo2bo26bo2bo
26bo2bo26bo2bo26bo2bo26bo2bo26bo2bo69bobo161b2o9bo3bob3o4b3o$415b2o3b
2o3bo4bobob2o3b4o24bobo5bobo13bo489b2o20bo960bo5bo17b5o4bo45bo4b5o17bo
5bo435bobo4b2obo3bo9b2o157bo16b2ob2o6bobo642bo14b4o55bo163b2o9bo3bob2o
4bobo710bobo4b2obo3bo9b2o157bo16b2ob2o6bobo642bo14b4o55bo163b2o9bo3bob
2o4bobo410bobo4b2obo3bo9b2o157bo16b2ob2o6bobo27b4o11bo14b4o11bo14b4o
11bo14b4o11bo14b4o11bo14b4o11bo14b4o11bo14b4o11bo14b4o11bo14b4o11bo14b
4o11bo14b4o11bo14b4o11bo14b4o11bo14b4o11bo14b4o11bo14b4o11bo14b4o11bo
14b4o11bo14b4o11bo14b4o11bo14b4o55bo163b2o9bo3bob2o4bobo$420b2o3bo5b2o
3bo2bo37bo14bo476b2o10bobo8bobo6bobo960bo5bo16bob3obo53bob3obo16bo5bo
436b2o6b2o3bo185b2obo7b2o643bo3bo10bo3bo193bo35bo3b2o6b2o712b2o6b2o3bo
35bo149b2obo7b2o643bo3bo10bo3bo193bo35bo3b2o6b2o412b2o6b2o3bo185b2obo
7b2o28bo3bo10bo3bo10bo3bo10bo3bo10bo3bo10bo3bo10bo3bo10bo3bo10bo3bo10b
o3bo10bo3bo10bo3bo10bo3bo10bo3bo10bo3bo10bo3bo10bo3bo10bo3bo10bo3bo10b
o3bo10bo3bo10bo3bo10bo3bo10bo3bo10bo3bo10bo3bo10bo3bo10bo3bo10bo3bo10b
o3bo10bo3bo10bo3bo10bo3bo10bo3bo10bo3bo10bo3bo10bo3bo10bo3bo10bo3bo10b
o3bo10bo3bo10bo3bo10bo3bo48bo144bo35bo3b2o6b2o$422bobo10bo41b2o11b3o
477bo19bo3bo6b2o964bo20bo3bo55bo3bo20bo449bobo186bobo23b2o628b4o11bo
71b2o125b2o34bobo732bobo34b2o150bobo23b2o628b4o11bo71b2o125b2o34bobo
432bobo186bobo23b2o13bo14b4o11bo14b4o11bo14b4o11bo14b4o11bo14b4o11bo
14b4o11bo14b4o11bo14b4o11bo14b4o11bo14b4o11bo14b4o11bo14b4o11bo14b4o
11bo14b4o11bo14b4o11bo14b4o11bo14b4o11bo14b4o11bo14b4o11bo14b4o11bo14b
4o11bo50b2o19b2o125b2o34bobo$399bo23bo8bo2bo16bo517bobo5b2o10bo974bo3b
o19b3o57b3o19bo3bo448bo188bo25b2o643bobo68bobo57bo65b2o36bo734bo36b2o
65bo84bo25b2o643bobo68bobo57bo65b2o36bo434bo188bo25b2o13bo2bo26bo2bo
26bo2bo26bo2bo26bo2bo26bo2bo26bo2bo26bo2bo26bo2bo26bo2bo26bo2bo26bo2bo
26bo2bo26bo2bo26bo2bo26bo2bo26bo2bo26bo2bo26bo2bo26bo2bo26bo2bo26bobo
48b2o18bobo57bo65b2o36bo$398bobo50bo519b2o5bo2bo7bo4bo971b3o21bo59bo
21b3o663bo657b2o47bo4b2o4b3o55bo944bo108bo657b2o47bo4b2o4b3o55bo753bo
657b2o47bo4b2o4b3o55bo$388b2o7bob2o50b3o528bo7bo976bo23b2o55b2o23bo
1317bo4b2o46bobob2o2bo4b3o6b2o46b3o940b3o761bo4b2o46bobob2o2bo4b3o6b2o
46b3o1404bo4b2o46bobob2o2bo4b3o6b2o46b3o$336b2o49bobo6b2ob2o10b2o569bo
7bo3bo19b2o975bobo21b2o7b2o21bobo1335b2ob5o6b2o6b2o34bo3bob3o4b3o7b2o
1747b2ob5o6b2o6b2o34bo3bob3o4b3o7b2o1447b2ob5o6b2o6b2o34bo3bob3o4b3o7b
2o$336b3o47bo6b3obob2o10b2o29bo539bo9bobo18b3o975bobo21b2o7b2o21bobo
1334bo4b2o2bo5b3o5b2o34bo3bob2o4bobo1756bo4b2o2bo5b3o5b2o34bo3bob2o4bo
bo1456bo4b2o2bo5b3o5b2o34bo3bob2o4bobo$335bob2o47bo2bo2bo2bo2bobo42bo
534bo2bo31b2obo947b3o25bo13bobo23bobo13bo25b3o1296b2o8bo8b2o5b2o42bo3b
2o6b2o1746b2o8bo8b2o5b2o42bo3b2o6b2o1446b2o8bo8b2o5b2o42bo3b2o6b2o$
335b3o48bo6b2o4bo41b3o54b2o478b2o34b3o947b3o42bo21bo42b3o654bo641b2o8b
o7bo4b2o36b2o8bobo141bobo792bobo175bo641b2o8bo7bo4b2o36b2o8bobo141bobo
670bo641b2o8bo7bo4b2o29bobo4b2o8bobo141bobo$336bo42b2o6bobo108b3o514bo
939b2o6bo3bo41bo21bo41bo3bo6b2o645b2o631bo18bo12b2o35bobo9bo143b2o792b
2o176b2o631bo18bo12b2o35bobo9bo143b2o670b2o650bo12b2o29b2o4bobo9bo143b
2o$378bobo7b2o78b2o1485b2o14bobo15b2obob2o10bo2bo21bo2bo10b2obob2o15bo
bo14b2o488b2o35b2o117bobo630b2o19bo48bo73bo23b2o35b2o19bo794bo19b2o35b
2o23bo93bobo630b2o19bo48bo73bo23b2o35b2o19bo514b2o35b2o117bobo651bo43b
o4bo73bo23b2o35b2o19bo$378bo75b2o11b4o13b2o1476b2o3b2o3b2o15bo5bo11b3o
21b3o11bo5bo15b2o3b2o3b2o495b2o35b2o750bobo19b2o45b2o73bobo21b2o35b2o
834b2o35b2o21bobo726bobo19b2o45b2o73bobo21b2o35b2o534b2o35b2o772b2o45b
2o73bobo21b2o35b2o$377b2o21bobo8bo40b2ob2o10b2ob2o10b2ob2o1485bo17bo3b
o51bo3bo17bo1438b2o956b2o870b2o1528b2o$401b2o6b3o40b4o13b2o11b4o13b2o
1490b3o53b3o617b2o806b2o1020b2o806b2o720b2o806b2o$401bo6bo44b2o28b2o
477b2o1703b2o46bo7bo751b2o1020b2o46bo7bo751b2o720b2o46bo7bo751b2o$408b
2o25bo9b2o515bobo1748bobo5b4o871bo780bo165bobo5b4o871bo646bobo5b4o696b
o174bo$434bobo7b4o516bo990b3o126b3o429b2o193b2o8b2o2bo2b2o867b2o27b2o
718b2o27b2o164b2o8b2o2bo2b2o867b2o27b2o418b2o193b2o8b2o2bo2b2o689b2o
176b2o27b2o$427b2o4bob2o5b3o2bo2bobo511b2o1013bo81bo454b2o56b3o33b3o
92b2o4b2o11b2o2b2o641b2o127bo30b3o33b3o26b2o28b2o718b2o28b2o26b3o33b3o
30bo61b2o4b2o11b2o2b2o641b2o127bo30b3o33b3o26b2o28b2o418b2o56b3o33b3o
92b2o4b2o11b2o2b2o690b2o78bo30b3o33b3o26b2o28b2o$406bo20b2o3b2ob2o9b2o
2bo2bo1501bobo22b2o77b2o23bobo618b2o4b2o7bo10b2o637b2o127bo974bo60b2o
4b2o7bo10b2o637b2o127bo735b2o4b2o7bo10b2o766bo$405b3o25bob2o6bo9b2o6b
2o1491b5o20b2o13b2o49b2o13b2o21b5o486bobo33bobo100bobo4bo10b3o638bo
126b3o29bobo33bobo834bobo33bobo29b3o68bobo4bo10b3o638bo126b3o29bobo33b
obo534bobo33bobo100bobo4bo10b3o765b3o29bobo33bobo$369b2o28bo4bo3bo25bo
bo5bo8bo3b2o4b2o1490b2o3b2o34bo51bo35b2o3b2o484b5o31b5o101bo4bo10b2o
797b5o31b5o832b5o31b5o101bo4bo10b2o797b5o31b5o532b5o31b5o101bo4bo10b2o
797b5o31b5o$369b3o26bo4bob3obo25bo6bo10b2o1498b2o3b2o4b2o8b2o19b3o45b
3o19b2o8b2o5b2o3b2o428bo54b2o3b2o29b2o3b2o52bo60b2o7b2o737bo52b2o3b2o
29b2o3b2o54bo720bo54b2o3b2o29b2o3b2o52bo60b2o7b2o737bo52b2o3b2o29b2o3b
2o54bo420bo54b2o3b2o29b2o3b2o52bo60b2o7b2o737bo52b2o3b2o29b2o3b2o54bo$
355bo15b2obo23b3o3b5o41bo2bo1510b2o8b2o21bo10bobo19bobo10bo21b2o8b2o
439b3o37b2o14b2o3b2o29b2o3b2o14b2o35b3o59b2o7bobo735b3o35b2o14b2o3b2o
29b2o3b2o14b2o37b3o718b3o37b2o14b2o3b2o29b2o3b2o14b2o35b3o59b2o7bobo
735b3o35b2o14b2o3b2o29b2o3b2o14b2o37b3o418b3o37b2o14b2o3b2o29b2o3b2o
14b2o35b3o59b2o7bobo735b3o35b2o14b2o3b2o29b2o3b2o14b2o37b3o$353bobo4b
3o8bo2bo5b2o68bobo1554bo25bo481bo3bo36b2o71b2o34b5o69bo734b5o34b2o71b
2o15bobo18bo3bo716bo3bo18bobo15b2o71b2o34b5o69bo734b5o34b2o71b2o15bobo
18bo3bo416bo3bo36b2o71b2o34b5o69bo672bobo59b5o34b2o71b2o15bobo18bo3bo$
352bobo16b2obo5b2o1573b2o50bo25bo51b2o427bob3obo143bobobobo68b2o638bo
93bobobobo124b2o17bob3obo714bob3obo17b2o124bobobobo68b2o638bo93bobobob
o124b2o17bob3obo414bob3obo143bobobobo68b2o671b2o59bobobobo124b2o17bob
3obo$346b2o3bo2bo7bo2b2o2b3o1582b2ob2o48bo2bo19bo2bo49b2ob2o427b5o55b
2o33b2o52b2o3b2o707b2o93b2o3b2o12bo39b2o33b2o35bo19b5o716b5o19bo35b2o
33b2o39bo12b2o3b2o707b2o93b2o3b2o12bo39b2o33b2o35bo19b5o416b5o55b2o33b
2o52b2o3b2o742bo59b2o3b2o12bo39b2o33b2o35bo19b5o$346b2o4bobo7bo3bo2b2o
1584bo2bo48b3o21b3o49bo2bo486b2ob2o31b2ob2o764bobo111bobo35b2ob2o31b2o
b2o832b2ob2o31b2ob2o35bobo726bobo111bobo35b2ob2o31b2ob2o532b2ob2o31b2o
b2o878bobo35b2ob2o31b2ob2o$353bobo6bo2bo1589bo130bo486bo2bo33bo2bo878b
2o36bo2bo33bo2bo832bo2bo33bo2bo36b2o840b2o36bo2bo33bo2bo532bo2bo33bo2b
o878b2o36bo2bo33bo2bo$355bo8b2o25bo1566bo16bo90bo16bo492bo33bo56bo808b
o56bo33bo838bo33bo56bo808bo56bo33bo538bo33bo56bo808bo56bo33bo$391bobo
476b2o1084b2o16b3o88b3o16b2o470bo16bo39bo16bo35bobo806bobo35bo16bo39bo
16bo798bo16bo39bo16bo35bobo806bobo35bo16bo39bo16bo498bo16bo39bo16bo35b
obo806bobo35bo16bo39bo16bo$391b2o5bo472bo1102b3o88b3o487b3o16b2o35b2o
16b3o34bob2o804b2obo34b3o16b2o35b2o16b3o22bo750bo22b3o16b2o35b2o16b3o
34bob2o804b2obo34b3o16b2o35b2o16b3o22bo473b3o16b2o35b2o16b3o34bob2o
736bo67b2obo34b3o16b2o35b2o16b3o22bo$396b3o472bobo7bo1632b2o2bo36b3o
71b3o35b3o804b3o35b3o71b3o23b2o11bo2b2o714b2o2bo11b2o23b3o71b3o35b3o
804b3o35b3o71b3o23b2o11bo2b2o414b2o2bo36b3o71b3o35b3o734b2o68b3o35b3o
71b3o23b2o11bo2b2o$373bo21bo476b2o4b4o1069b2o3b2o14b2o3b2o84b2o3b2o14b
2o3b2o425bobo148bo2bo715b2o85bo2bo8bo125b2o12bobo718bobo12b2o125bo8bo
2bo715b2o85bo2bo8bo125b2o12bobo418bobo148bo2bo734b2o66bo2bo8bo125b2o
12bobo$371bobo21b2o8b2o470b4o16bo1054b5o5bo9b2o3b2o84b2o3b2o9bo5b5o
428b2o33b2o3b2o14b2o3b2o25b2o3b2o14b2o3b2o34b3o714b2o86b3o8bo25b2o3b2o
14b2o3b2o25b2o3b2o14b2o3b2o33b2o722b2o33b2o3b2o14b2o3b2o25b2o3b2o14b2o
3b2o25bo8b3o714b2o86b3o8bo25b2o3b2o14b2o3b2o25b2o3b2o14b2o3b2o33b2o
422b2o33b2o3b2o14b2o3b2o25b2o3b2o14b2o3b2o34b3o802b3o8bo25b2o3b2o14b2o
3b2o25b2o3b2o14b2o3b2o33b2o$372b2o31b2o470bo2bo8b2o5bobo1054b3o7b2o
112b2o7b3o430b2o32b2o3b2o9bo5b5o27b5o5bo9b2o3b2o33bo3bo715bo6b2o76bo3b
o7b3o23b2o3b2o9bo5b5o27b5o5bo9b2o3b2o32b2o724b2o32b2o3b2o9bo5b5o27b5o
5bo9b2o3b2o23b3o7bo3bo715bo6b2o76bo3bo7b3o23b2o3b2o9bo5b5o27b5o5bo9b2o
3b2o32b2o424b2o32b2o3b2o9bo5b5o27b5o5bo9b2o3b2o33bo3bo722b2o76bo3bo7b
3o23b2o3b2o9bo5b5o27b5o5bo9b2o3b2o32b2o$336b2o46bo492b4o14bo3b2o3b2o
108b2o938bo7b2o24b3o59b3o25b2o7bo429bob2o46b2o7b3o29b3o7b2o46bo5bo721b
2o75bo5bo46b2o7b3o29b3o7b2o46b2obo720bob2o46b2o7b3o29b3o7b2o46bo5bo
721b2o75bo5bo46b2o7b3o29b3o7b2o46b2obo420bob2o46b2o7b3o29b3o7b2o46bo5b
o721b2o75bo5bo46b2o7b3o29b3o7b2o46b2obo$336b3o44bo7b2o485b4o3b2obobo4b
o3b2o3b2o107b3o959b2o11bo2bo57bo2bo12b2o450b3o48b2o7bo31bo7b2o42bo5bo
3bo800bo3bo5bo42b2o7bo31bo7b2o48b3o720b3o48b2o7bo31bo7b2o42bo5bo3bo
800bo3bo5bo42b2o7bo31bo7b2o48b3o420b3o48b2o7bo31bo7b2o42bo5bo3bo800bo
3bo5bo42b2o7bo31bo7b2o48b3o$335bob2o44b3o6b2o487bo2bo3b2o5bo3b2o112b2o
bo957bobo11bo17bobo23bobo17bo12bobo487b2o73b2o22b2o4bo7b3o802b3o7bo4b
2o22b2o73b2o29bo736bo29b2o73b2o22b2o4bo7b3o802b3o7bo4b2o22b2o73b2o29bo
466b2o73b2o22b2o4bo7b3o802b3o7bo4b2o22b2o73b2o29bo$335b3o41bo11bo493bo
10bobo115b3o956b2o2bo10bo20bo21bo20bo11bo2b2o486bobo71bobo22b2o4b3o
818b3o4b2o22bobo71bobo28bobo734bobo28bobo71bobo22b2o4b3o818b3o4b2o22bo
bo71bobo28bobo465bobo71bobo22b2o4b3o734bobo81b3o4b2o22bobo71bobo28bobo
$336bo42bo505bo2bo8bo117bo958b2o13bobo17bo21bo17bobo14b2o444b2o3b2o35b
o2b2o69b2o2bo761bo116bo2b2o69b2o2bo24b2o3bo5b2o3b2o710b2o3b2o5bo3b2o
24bo2b2o69b2o2bo761bo116bo2b2o69b2o2bo24b2o3bo5b2o3b2o410b2o3b2o35bo2b
2o69b2o2bo761bob3o112bo2b2o69b2o2bo24b2o3bo5b2o3b2o$1974b2o30bo2bo21bo
2bo31b2o447bo13b2o25b2o71b2o762b2o118b2o71b2o25bo14bo716bo14bo25b2o71b
2o762b2o118b2o71b2o25bo14bo416bo13b2o25b2o71b2o762b2o3bo114b2o71b2o25b
o14bo$1974bo32b3o21b3o33bo444bo5bo10b2o25b2o71b2o762bobo117b2o71b2o25b
o4bo6bo5bo710bo5bo6bo4bo25b2o71b2o762bobo117b2o71b2o25bo4bo6bo5bo410bo
5bo10b2o25b2o71b2o762bobo117b2o71b2o25bo4bo6bo5bo$1932b2o35bo102bo35b
2o403b2ob2o6bobo30bo71bo884bo71bo27bo4bo6b2ob2o712b2ob2o6bo4bo27bo71bo
884bo71bo27bo4bo6b2ob2o412b2ob2o6bobo30bo71bo884bo71bo27bo4bo6b2ob2o$
384bo493bo1053b2o34bo2bo2bo5bo80bo5bo2bo2bo34b2o404bobo8b2o35bo61bo
894bo61bo35b3o7bobo714bobo7b3o35bo61bo894bo61bo35b3o7bobo414bobo8b2o
35bo61bo894bo61bo35b3o7bobo$384b2o491bo1090bo5bo5bo80bo5bo5bo441bo9bo
25bo5bo2bo2bo59bo2bo2bo5bo17bo753b2o69bobo27bo5bo2bo2bo59bo2bo2bo5bo
35bo716bo35bo5bo2bo2bo59bo2bo2bo5bo27bobo741b2o69bobo27bo5bo2bo2bo59bo
2bo2bo5bo35bo416bo9bo25bo5bo2bo2bo59bo2bo2bo5bo17bo732bo20b2o69bobo27b
o5bo2bo2bo59bo2bo2bo5bo35bo$383bobo491b3o1088bo2bo3bo3bo82bo3bo3bo2bo
441bo35bo5bo5bo59bo5bo5bo17bobo15b2o727bob2o3b3o61b2o5b2o28bo5bo5bo59b
o5bo5bo35bo716bo35bo5bo5bo59bo5bo5bo28b2o5b2o727bob2o3b3o61b2o5b2o28bo
5bo5bo59bo5bo5bo35bo416bo35bo5bo5bo59bo5bo5bo17bobo15b2o713bobo11bob2o
3b3o61b2o5b2o28bo5bo5bo59bo5bo5bo35bo$1968b3o5b3o84b3o5b3o478bo3bo3bo
2bo59bo2bo3bo3bo18b2o16bo724bo2bo3bo5b2obo59bo6bo29bo3bo3bo2bo59bo2bo
3bo3bo790bo3bo3bo2bo59bo2bo3bo3bo29bo6bo724bo2bo3bo5b2obo59bo6bo29bo3b
o3bo2bo59bo2bo3bo3bo490bo3bo3bo2bo59bo2bo3bo3bo18b2o16bo714b2o8bo2bo3b
o5b2obo59bo6bo29bo3bo3bo2bo59bo2bo3bo3bo$1958b2o122b2o469b3o5b3o59b3o
5b3o38b3o720b2o2bo4bo4bo2bo5b2o49b3o38b3o5b3o59b3o5b3o792b3o5b3o59b3o
5b3o38b3o720b2o2bo4bo4bo2bo5b2o49b3o38b3o5b3o59b3o5b3o492b3o5b3o59b3o
5b3o38b3o720b2o2bo4bo4bo2bo5b2o49b3o38b3o5b3o59b3o5b3o$1932b3o24b2o
120b2o24b3o402b2o58b2o39b2o59bo708b2o9b2o5b4o4b2obo5b2o49bo59b2o39b2o
58b2o710b2o58b2o39b2o59bo708b2o9b2o5b4o4b2obo5b2o49bo59b2o39b2o58b2o
410b2o58b2o39b2o59bo708b2o9b2o5b4o4b2obo5b2o49bo59b2o39b2o58b2o$1932b
3o14b5o4bo124bo4b5o14b3o403bo18bo38b2o41b2o768bo8b3o7bo3b3o118b2o41b2o
53bo3bo712bo3bo53b2o41b2o768bo8b3o7bo3b3o118b2o41b2o53bo3bo412bo18bo
38b2o41b2o768bo8b3o7bo3b3o118b2o41b2o53bo3bo$1931bo3bo12bob3obo33b3o
59b3o34bob3obo12bo3bo399b3o20b2o38bo4b5o21b5o4bo767b3o10b2o11b2o121bo
4b5o21b5o4bo53bobo4b3o706b3o4bobo53bo4b5o21b5o4bo767b3o10b2o11b2o121bo
4b5o21b5o4bo53bobo4b3o406b3o20b2o38bo4b5o21b5o4bo767b3o10b2o11b2o121bo
4b5o21b5o4bo53bobo4b3o$376b2o492bo26b2o1050bo3bo33bo2bo59bo2bo34bo3bo
417bo21b2o43bob3obo19bob3obo36bo734bo4b2o7b2o75bo61bob3obo19bob3obo58b
2o6bo706bo6b2o58bob3obo19bob3obo61bo709bo4b2o7b2o75bo61bob3obo19bob3ob
o58b2o6bo406bo21b2o43bob3obo19bob3obo36bo734bo4b2o7b2o75bo61bob3obo19b
ob3obo58b2o6bo$377b2o491bobo26bo1030b2o3b2o13b3o37bo17bobo19bobo17bo
38b3o13b2o3b2o466bo3bo21bo3bo36bo739bobo8bo73b2o63bo3bo21bo3bo842bo3bo
21bo3bo63b2o711bobo8bo73b2o63bo3bo21bo3bo542bo3bo21bo3bo36bo739bobo8bo
73b2o63bo3bo21bo3bo$366b2o8bo493b2o14b2o12bo1050bo38bo16bo25bo16bo39bo
488b3o23b3o37b3o737bo85b2o63b3o23b3o844b3o23b3o63b2o712bo85b2o63b3o23b
3o544b3o23b3o37b3o737bo85b2o63b3o23b3o$365bobo518b2o4bo7bo13b2o1036b2o
33bobo17bo25bo17bobo34b2o490bo25bo777b2o151bo25bo846bo25bo777b2o151bo
25bo546bo25bo777b2o151bo25bo$365bo517b2o5b2o8bo11bo2bo1036bobo21b2o29b
o2bo19bo2bo30b2o21bobo488b2o27b2o926b2o27b2o842b2o27b2o926b2o27b2o542b
2o27b2o926b2o27b2o$364b2o516b3o5bo2b2o4bo11bo15bobo1022bobo21b2o29b3o
21b3o30b2o21bobo464b2o21bobo27bobo21b2o878b2o21bobo27bobo21b2o43bo706b
o43b2o21bobo27bobo21b2o878b2o21bobo27bobo21b2o43bo450b2o21bobo27bobo
21b2o878b2o21bobo27bobo21b2o43bo$883b2o6b5ob2o12bo10b3o2bo3bo998b3o20b
o13bobo102bobo13bo20b3o427bobo12b2o21bobo27bobo21b2o878b2o21bobo27bobo
21b2o44bo704bo44b2o21bobo27bobo21b2o878b2o21bobo27bobo21b2o44bo434bobo
12b2o21bobo27bobo21b2o878b2o21bobo27bobo21b2o44bo$347b2o20bo493bo13b2o
7b2o4bo18bo19bo5b2o995b2o34bo100bo34b2o432b2o20bobo13bo29bo13bobo894bo
bo13bo29bo13bobo50b3o704b3o50bobo13bo29bo13bobo894bobo13bo29bo13bobo
50b3o435b2o20bobo13bo29bo13bobo894bobo13bo29bo13bobo50b3o$348bo20b2o
491bo13bobo7b2o24bo2bo2b2o7bo4bo4b2o995b2o34bo100bo34b2o432bo20bo63bo
12bo824bobo52bo63bo808bo63bo52bobo782bobo52bo63bo487bo20bo63bo12bo824b
obo52bo63bo$348bobo6bobo8bobo10b2o479b3o11bo37b2o2bo2bobo7bo1003b2o13b
2obob2o10bo2bo100bo2bo10b2obob2o13b2o423bo30bo63bo12bobo9b2o811b2o27b
2o24bo63bo30bo746bo30bo63bo24b2o27b2o782b2o27b2o24bo63bo30bo446bo30bo
63bo12bobo9b2o811b2o27b2o24bo63bo30bo$349b2o6bo3bo19bo493b2o23bo18b3o
5bo3bo1001bobo14bo5bo11b3o100b3o11bo5bo14bobo421b3o28bo2bo10b2obob2o
23b2obob2o10bo2bo12b2o10b2o58b2o720b2o30bo27b2o24bo2bo10b2obob2o23b2ob
ob2o10bo2bo28b3o746b3o28bo2bo10b2obob2o23b2obob2o10bo2bo24b2o27bo30b2o
720b2o30bo27b2o24bo2bo10b2obob2o23b2obob2o10bo2bo28b3o446b3o28bo2bo10b
2obob2o23b2obob2o10bo2bo12b2o10b2o58b2o720b2o30bo27b2o24bo2bo10b2obob
2o23b2obob2o10bo2bo28b3o$361bo10b2o5bobo519bo25bobo22bo980b2o16bo3bo
130bo3bo16b2o424bo27b3o11bo5bo23bo5bo11b3o84b2o720b2o84b3o11bo5bo23bo
5bo11b3o27bo752bo27b3o11bo5bo23bo5bo11b3o84b2o720b2o84b3o11bo5bo23bo5b
o11b3o27bo452bo27b3o11bo5bo23bo5bo11b3o84b2o720b2o84b3o11bo5bo23bo5bo
11b3o27bo$357bo4bo7bo2bo5b2o518b3o49bobo998b3o132b3o384b2o56b2o42bo3bo
25bo3bo922bo3bo25bo3bo42b2o56b2o634b2o56b2o42bo3bo25bo3bo922bo3bo25bo
3bo42b2o56b2o334b2o56b2o42bo3bo25bo3bo922bo3bo25bo3bo42b2o56b2o$361bo
7bo581b2obo7b2o1509bo2bo70bo29b3o27b3o924b3o27b3o74bo25bo2bo632bo2bo
25bo74b3o27b3o924b3o27b3o74bo25bo2bo332bo2bo70bo29b3o27b3o924b3o27b3o
74bo25bo2bo$336b2o19bo3bo7bo542bo26b2o10b2ob2o6bobo49b2o912b2o3b2o53b
3o59b3o54b2o3b2o362bo71b2o1089bobo25bo638bo25bobo1134bobo25bo338bo71b
2o1089bobo25bo$336b3o18bobo9bo485bo55bo27b2o10b2obob3o6bo47b3o912b2o3b
2o53bo2bo57bo2bo54b2o3b2o362bo70b2o82bo825bo182b2o25bo638bo25b2o182bo
770bo182b2o25bo338bo70b2o82bo825bo182b2o25bo$335bob2o31bo2bo51b2o428bo
bo53b3o37bobo2bo2bo2bo2bo47b2obo923bo47bo17bobo23bobo17bo48bo372bobo
57b3o93bo18b3o803b2o35b3o112b3o57bobo634bobo57b3o112b3o35b2o766b2o35b
3o112b3o57bobo334bobo57b3o93bo18b3o803b2o35b3o112b3o57bobo$335b3o34b2o
52bo428b2o95bo4b2o6bo48b3o913b3o8b2o45bo20bo21bo20bo46b2o8b3o362bobo
153b3o76b3o720b3o21b2o209bobo634bobo209b2o21b3o720b3o21b2o209bobo334bo
bo153b3o76b3o720b3o21b2o209bobo$336bo89bobo533bobo6b2o42bo914b3o7b2o
13b2o32bobo17bo21bo17bobo33b2o13b2o7b3o363bo58bobo112bobo840bobo112bob
o58bo636bo58bobo112bobo840bobo112bobo58bo336bo58bobo112bobo840bobo112b
obo58bo$427b2o427b2o28b2o74b2o7bobo957bo23bo50bo2bo21bo2bo51bo23bo422b
5o110b5o56bobo720bobo56b5o110b5o752b5o110b5o56bobo720bobo56b5o110b5o
452b5o110b5o56bobo720bobo56b5o110b5o$855b4o11b2o13b4o11b2o71bo982b3o
48b3o21b3o49b3o446b2o3b2o108b2o3b2o54b5o718b5o54b2o3b2o108b2o3b2o36bo
676bo36b2o3b2o108b2o3b2o54b5o718b5o54b2o3b2o108b2o3b2o36bo413b2o3b2o
108b2o3b2o54b5o718b5o54b2o3b2o108b2o3b2o36bo$854b2ob2o10b2ob2o10b2ob2o
10b2ob2o36bo8bobo21b2o983bo10bobo98bobo10bo388b2o3b2o37b2o14b2o3b2o15b
obo20b2o29b2o37b2o3b2o14b2o37b2o3b2o716b2o3b2o37b2o14b2o3b2o37b2o29b2o
38b2o3b2o14b2o21bo15b2o3b2o630b2o3b2o15bo21b2o14b2o3b2o38b2o29b2o37b2o
3b2o14b2o37b2o3b2o716b2o3b2o37b2o14b2o3b2o37b2o29b2o38b2o3b2o14b2o21bo
15b2o3b2o330b2o3b2o37b2o14b2o3b2o15bobo20b2o29b2o37b2o3b2o14b2o37b2o3b
2o716b2o3b2o37b2o14b2o3b2o37b2o29b2o38b2o3b2o14b2o21bo15b2o3b2o$855b2o
13b4o11b2o13b4o36b3o6b2o1017bo104bo398bo5bo37b2o37b2o3bobo14b2o29b2o
58b2o37b2o3b2o716b2o3b2o37b2o41bobo14b2o29b2o14bobo42b2o19b3o15bo5bo
630bo5bo15b3o19b2o42bobo14b2o29b2o14bobo41b2o37b2o3b2o716b2o3b2o37b2o
41bobo14b2o29b2o14bobo42b2o19b3o15bo5bo330bo5bo37b2o37b2o3bobo14b2o29b
2o14bobo41b2o37b2o3b2o716b2o3b2o37b2o41bobo14b2o29b2o14bobo42b2o19b3o
15bo5bo$871b2o28b2o40bo6bo977b2o38bo104bo38b2o441bo7bo884bobo69bo59bo
812bo59bo69bobo752bobo69bo59bo504bo7bo59bo69bobo752bobo69bo59bo$915bo
26b2o985bo17bobo18bo2bo98bo2bo18bobo17bo360bo3bo57b2o26bo85b2o797b2o
43b2o25bo59bo26b2o57bo3bo632bo3bo57b2o26bo59bo25b2o43b2o752b2o43b2o25b
o59bo26b2o57bo3bo332bo3bo57b2o26bo59bo25b2o43b2o752b2o43b2o25bo59bo26b
2o57bo3bo$908b2obo3b4o1007b3o19b2o18b3o100b3o18b2o19b3o358b3o56b2ob2o
22bo2bo22bo13bo47b2ob2o57b2o720b2o15bo41b2ob2o21bo2bo22bo13bo22bo2bo
22b2ob2o56b3o634b3o56b2ob2o22bo2bo22bo13bo22bo2bo21b2ob2o41bo15b2o720b
2o15bo41b2ob2o21bo2bo22bo13bo22bo2bo22b2ob2o56b3o334b3o56b2ob2o22bo2bo
22bo13bo22bo2bo21b2ob2o41bo15b2o720b2o15bo41b2ob2o21bo2bo22bo13bo22bo
2bo22b2ob2o56b3o$902b2o2b2obobo4b4o5b2o999bo21bo144bo21bo417bo2bo24b3o
20b3o13b3o46bo2bo55b2ob2o718b2ob2o55bo2bo23b3o20b3o13b3o20b3o24bo2bo
752bo2bo24b3o20b3o13b3o20b3o23bo2bo55b2ob2o718b2ob2o55bo2bo23b3o20b3o
13b3o20b3o24bo2bo452bo2bo24b3o20b3o13b3o20b3o23bo2bo55b2ob2o718b2ob2o
55bo2bo23b3o20b3o13b3o20b3o24bo2bo$901bobo2b2obob2o3bo2bo5b2o18bo1590b
o46bo19bo45bo58bo2bo720bo2bo58bo45bo19bo46bo758bo46bo19bo45bo58bo2bo
720bo2bo58bo45bo19bo46bo458bo46bo19bo45bo58bo2bo720bo2bo58bo45bo19bo
46bo$891b2o7b3o8b2o3b4o24b3o1569bo16bo28bo20b2o17b2o48bo16bo41bo720bo
41bo16bo48b2o17b2o49bo16bo28bo660bo28bo16bo49b2o17b2o48bo16bo41bo720bo
41bo16bo48b2o17b2o49bo16bo28bo360bo28bo16bo49b2o17b2o48bo16bo41bo720bo
41bo16bo48b2o17b2o49bo16bo28bo$891b2o6b3o8b2o3b4o24bo3bo4bo28b2o1005b
3o59b3o462b3o16b2o27b2o85b2o16b3o37bo726bo37b3o16b2o114b2o16b3o25bobo
660bobo25b3o16b2o114b2o16b3o37bo726bo37b3o16b2o114b2o16b3o25bobo360bob
o25b3o16b2o114b2o16b3o37bo726bo37b3o16b2o114b2o16b3o25bobo$900b3o12bo
26bob3obo4bo26b3o969b2o33bo2bo59bo2bo34b2o425b3o44b2o104b3o38b2o722b2o
7bo30b3o150b3o26b2o660b2o26b3o150b3o30bo7b2o722b2o7bo30b3o150b3o26b2o
360b2o26b3o150b3o30bo7b2o722b2o38b3o150b3o26b2o$901bobo39b5o3b3o23bob
2o15bo993bo17bobo19bobo17bo1389b2o1090b2o736b2o790b2o$902b2o66b2o5bo2b
o8b3o4bobo991bo16bo25bo16bo427bo34b2o3b2o14b2o3b2o104b2o3b2o14b2o3b2o
768b2o28b2o3b2o14b2o3b2o104b2o3b2o14b2o3b2o34bo642bo34b2o3b2o14b2o3b2o
104b2o3b2o14b2o3b2o28b2o738b2o28b2o3b2o14b2o3b2o104b2o3b2o14b2o3b2o34b
o342bo34b2o3b2o14b2o3b2o104b2o3b2o14b2o3b2o28b2o768b2o3b2o14b2o3b2o
104b2o3b2o14b2o3b2o34bo$970b2o5bob2o16bobo987bobo17bo25bo17bobo422bobo
34b2o3b2o9bo5b5o106b5o5bo9b2o3b2o36b2o3b2o712b2o3b2o6bo29b2o3b2o9bo5b
5o106b5o5bo9b2o3b2o34bobo638bobo34b2o3b2o9bo5b5o106b5o5bo9b2o3b2o29bo
6b2o3b2o712b2o3b2o6bo29b2o3b2o9bo5b5o106b5o5bo9b2o3b2o34bobo338bobo34b
2o3b2o9bo5b5o106b5o5bo9b2o3b2o29bo6b2o3b2o712b2o3b2o36b2o3b2o9bo5b5o
106b5o5bo9b2o3b2o34bobo$980b3o2b2o2bo7bo2bo3b2o1001bo2bo19bo2bo443b2o
48b2o7b3o108b3o7b2o38b2o5bo5b5o714b5o5bo5b2o38b2o7b3o108b3o7b2o48b2o
640b2o48b2o7b3o108b3o7b2o38b2o5bo5b5o714b5o5bo5b2o38b2o7b3o108b3o7b2o
48b2o340b2o48b2o7b3o108b3o7b2o38b2o5bo5b5o714b5o5bo5b2o38b2o7b3o108b3o
7b2o48b2o$981b2o2bo3bo7bobo4b2o1001b3o21b3o494b2o7bo110bo7b2o39b2o3b2o
7b3o716b3o7b2o3b2o39b2o7bo41b3o21b3o42bo7b2o742b2o7bo42b3o21b3o41bo7b
2o39b2o3b2o7b3o716b3o7b2o3b2o39b2o7bo41b3o21b3o42bo7b2o442b2o7bo42b3o
21b3o41bo7b2o39b2o3b2o7b3o716b3o7b2o3b2o39b2o7bo110bo7b2o$986bo2bo6bob
o968bobo102bobo398bo13b2o26b2o152b2o32b2o7bo718bo7b2o32b2o61bo2bo21bo
2bo62b2o26b2o13bo632bo13b2o26b2o62bo2bo21bo2bo61b2o32b2o7bo718bo7b2o
32b2o61bo2bo21bo2bo62b2o26b2o13bo332bo13b2o26b2o62bo2bo21bo2bo61b2o32b
2o7bo718bo7b2o32b2o152b2o26b2o13bo$960bo25b2o8bo973bo100bo400b3o12b2o
26bobo150bobo802bobo43bobo17bo21bo17bobo44bobo26b2o12b3o630b3o12b2o26b
obo44bobo17bo21bo17bobo43bobo802bobo43bobo17bo21bo17bobo44bobo26b2o12b
3o330b3o12b2o26bobo44bobo17bo21bo17bobo43bobo802bobo150bobo26b2o12b3o$
482b2o474bobo1009bo100bo399b5o38bo2b2o148b2o2bo800bo2b2o41bo20bo21bo
20bo42b2o2bo38b5o628b5o38bo2b2o42bo20bo21bo20bo41b2o2bo800bo2b2o41bo
20bo21bo20bo42b2o2bo38b5o328b5o38bo2b2o42bo20bo21bo20bo41b2o2bo800bo2b
2o148b2o2bo38b5o$482bo470bo5b2o988b3o15bo2bo100bo2bo15b3o377b2o3b2o8bo
30b2o150b2o804b2o42bo17bobo23bobo17bo43b2o33bo5b2o3b2o626b2o3b2o5bo33b
2o43bo17bobo23bobo17bo42b2o804b2o42bo17bobo23bobo17bo43b2o33bo5b2o3b2o
326b2o3b2o5bo33b2o43bo17bobo23bobo17bo42b2o804b2o150b2o30bo8b2o3b2o$
475bo4bobo470b3o992bo2bo16b3o100b3o16bo2bo377b5o10bo29b2o150b2o804b2o
42bo2bo57bo2bo43b2o34b2o4b5o628b5o4b2o34b2o43bo2bo57bo2bo42b2o804b2o
42bo2bo57bo2bo43b2o34b2o4b5o328b5o4b2o34b2o43bo2bo57bo2bo42b2o804b2o
150b2o29bo10b5o$474bobo3b2o474bo21bo972bo138bo380bo3bo8b3o30bo150bo
766bo39bo42b3o59b3o43bo34b2o5bo3bo628bo3bo5b2o34bo43b3o59b3o42bo39bo
726bo39bo42b3o59b3o43bo34b2o5bo3bo328bo3bo5b2o34bo43b3o59b3o42bo39bo
766bo150bo30b3o8bo3bo$457b2o15b2obo467b2o8b2o21bobo970bo138bo381bobo
47bo140bo31bobo16b2o712b2o4bo45bo140bo47bobo630bobo47bo140bo45bo4b2o
712b2o4bo45bo140bo47bobo330bobo47bo140bo45bo4b2o712b2o16bobo31bo140bo
47bobo$457bobo14b2ob2o466b2o31b2o968bobo140bobo377b3o37bo5bo2bo2bo138b
o2bo2bo5bo20b2o17bo714bo4b3o32bo5bo2bo2bo138bo2bo2bo5bo37b3o628b3o37bo
5bo2bo2bo138bo2bo2bo5bo32b3o4bo714bo4b3o32bo5bo2bo2bo138bo2bo2bo5bo37b
3o328b3o37bo5bo2bo2bo138bo2bo2bo5bo32b3o4bo714bo17b2o20bo5bo2bo2bo138b
o2bo2bo5bo37b3o$336b2o110b2o2b2o6bo13b2obo489bo46b2o972b3o59b3o417b2o
39bo5bo5bo138bo5bo5bo21bo18b3o708b3o40bo5bo5bo138bo5bo5bo39b2o626b2o
39bo5bo5bo138bo5bo5bo40b3o708b3o40bo5bo5bo138bo5bo5bo39b2o326b2o39bo5b
o5bo138bo5bo5bo40b3o708b3o18bo21bo5bo5bo138bo5bo5bo39b2o$336b3o109b2ob
o2bo2bo2bo13bobo482b2o7bo44b3o972bo2bo57bo2bo418bo40bo3bo3bo2bo138bo2b
o3bo3bo37b2o4bo708bo4b2o37bo3bo3bo2bo138bo2bo3bo3bo40bo628bo40bo3bo3bo
2bo138bo2bo3bo3bo37b2o4bo708bo4b2o37bo3bo3bo2bo138bo2bo3bo3bo40bo328bo
40bo3bo3bo2bo138bo2bo3bo3bo37b2o4bo708bo4b2o37bo3bo3bo2bo138bo2bo3bo3b
o40bo$335bob2o113b2o6bo8bo5bo482b2o6b3o44b2obo971bo17bobo23bobo17bo
415b3o42b3o5b3o138b3o5b3o38bobo716bobo38b3o5b3o138b3o5b3o42b3o622b3o
42b3o5b3o138b3o5b3o38bobo716bobo38b3o5b3o138b3o5b3o42b3o322b3o42b3o5b
3o138b3o5b3o38bobo716bobo38b3o5b3o138b3o5b3o42b3o$335b3o119bobo7bobo
490bo11bo41b3o971bo20bo21bo20bo415bo4b2o18bo38b2o118b2o59bo716bo59b2o
118b2o57b2o4bo622bo4b2o57b2o118b2o59bo716bo59b2o118b2o57b2o4bo322bo4b
2o57b2o118b2o59bo716bo59b2o118b2o38bo18b2o4bo$336bo120b2o9b2o502bo42bo
973bobo17bo21bo17bobo420bobo16bobo37b2o120b2o58b2o714b2o58b2o120b2o56b
obo630bobo56b2o120b2o58b2o714b2o58b2o120b2o56bobo330bobo56b2o120b2o58b
2o714b2o58b2o120b2o37bobo16bobo$2006bo2bo21bo2bo437bo19b2o39bo4b5o100b
5o4bo36bo801bo4b5o100b5o4bo60bo630bo60bo4b5o100b5o4bo838bo4b5o100b5o4b
o60bo330bo60bo4b5o100b5o4bo801bo36bo4b5o100b5o4bo39b2o19bo$2007b3o21b
3o437b2o64bob3obo98bob3obo38b2o806bob3obo35b3o21b3o36bob3obo64b2o628b
2o64bob3obo36b3o21b3o35bob3obo846bob3obo35b3o21b3o36bob3obo64b2o328b2o
64bob3obo36b3o21b3o35bob3obo806b2o38bob3obo98bob3obo64b2o$1969bobo98bo
bo465bo3bo100bo3bo40b2o806bo3bo36bo2bo19bo2bo37bo3bo762bo3bo37bo2bo19b
o2bo36bo3bo848bo3bo36bo2bo19bo2bo37bo3bo462bo3bo37bo2bo19bo2bo36bo3bo
806b2o40bo3bo100bo3bo$967bo1000bo104bo465b3o102b3o850b3o17bobo17bo25bo
17bobo18b3o764b3o18bobo17bo25bo17bobo17b3o850b3o17bobo17bo25bo17bobo
18b3o464b3o18bobo17bo25bo17bobo17b3o850b3o102b3o$476bo489b2o1000bo104b
o466bo104bo852bo21bo16bo25bo16bo22bo766bo22bo16bo25bo16bo21bo852bo21bo
16bo25bo16bo22bo466bo22bo16bo25bo16bo21bo852bo104bo$477bo488bobo980b3o
16bo2bo98bo2bo16b3o407bo37b2o106b2o848b2o22bo17bobo19bobo17bo23b2o762b
2o23bo17bobo19bobo17bo22b2o848b2o22bo17bobo19bobo17bo23b2o462b2o23bo
17bobo19bobo17bo22b2o848b2o106b2o37bo$475b3o1471bo2bo15b3o100b3o15bo2b
o408bo12b2o21bobo106bobo21b2o800b2o21bobo19bo2bo59bo2bo20bobo21b2o714b
2o21bobo20bo2bo59bo2bo19bobo21b2o800b2o21bobo19bo2bo59bo2bo20bobo21b2o
414b2o21bobo20bo2bo59bo2bo19bobo21b2o800b2o21bobo106bobo21b2o12bo$
1949bo142bo406b3o12b2o21bobo106bobo21b2o800b2o21bobo20b3o59b3o21bobo
21b2o714b2o21bobo21b3o59b3o20bobo21b2o800b2o21bobo20b3o59b3o21bobo21b
2o414b2o21bobo21b3o59b3o20bobo21b2o800b2o21bobo106bobo21b2o12b3o$1949b
o142bo429bobo13bo108bo13bobo16bobo797bobo13bo108bo13bobo730bobo13bo
108bo13bobo816bobo13bo108bo13bobo430bobo13bo108bo13bobo797bobo16bobo
13bo108bo13bobo$1950bobo136bobo429bo142bo15b2o797bo142bo728bo142bo814b
o142bo428bo142bo797b2o15bo142bo$1988b3o59b3o468bo142bo16bo797bo142bo
728bo142bo814bo142bo428bo142bo797bo16bo142bo$454b2o518b2o1011bo2bo59bo
2bo467bo2bo10b2obob2o102b2obob2o10bo2bo814bo2bo10b2obob2o102b2obob2o
10bo2bo728bo2bo10b2obob2o102b2obob2o10bo2bo814bo2bo10b2obob2o102b2obob
2o10bo2bo428bo2bo10b2obob2o102b2obob2o10bo2bo814bo2bo10b2obob2o102b2ob
ob2o10bo2bo$452bo2bo28bo488b2o1015bo17bobo19bobo17bo470b3o11bo5bo102bo
5bo11b3o814b3o11bo5bo102bo5bo11b3o728b3o11bo5bo102bo5bo11b3o814b3o11bo
5bo102bo5bo11b3o428b3o11bo5bo102bo5bo11b3o814b3o11bo5bo102bo5bo11b3o$
451bo15bobo12bobo490bo8b2o1004bo16bo25bo16bo457bo27bo3bo104bo3bo844bo
3bo104bo3bo758bo3bo104bo3bo844bo3bo104bo3bo458bo3bo104bo3bo844bo3bo
104bo3bo27bo$439bo11bo10b3o2bo3bo11b2o499bobo1000bobo17bo25bo17bobo
452bobo28b3o106b3o846b3o106b3o760b3o106b3o846b3o106b3o460b3o106b3o846b
3o106b3o28bobo$439b4o8bo19bo514bo1020bo2bo19bo2bo473b2o165bo4154bo165b
2o$423bo16b4o8bo2bo2b2o7bo4bo513b2o1019b3o21b3o638b2o863b3o21b3o846b3o
21b3o930b3o21b3o546b3o21b3o863b2o$422bobo5b2o8bo2bo10b2o2bo2bobo7bo
1495bobo102bobo598b2o861bo2bo21bo2bo844bo2bo21bo2bo928bo2bo21bo2bo544b
o2bo21bo2bo861b2o$415b2o3b2o3bo14b4o15b3o5bo3bo3b2o505bo20b2o965bo100b
o1447bobo17bo21bo17bobo810bobo17bo21bo17bobo894bobo17bo21bo17bobo510bo
bo17bo21bo17bobo$415b2o3b2o3bo4bobob2o3b4o24bobo5bobo13bo489b2o20bo
966bo100bo1446bo20bo21bo20bo808bo20bo21bo20bo892bo20bo21bo20bo508bo20b
o21bo20bo$420b2o3bo5b2o3bo2bo37bo14bo476b2o10bobo8bobo6bobo945b3o15bo
2bo100bo2bo15b3o422bo1002bo17bobo23bobo17bo808bo17bobo23bobo17bo892bo
17bobo23bobo17bo508bo17bobo23bobo17bo1002bo$422bobo10bo41b2o11b3o477bo
19bo3bo6b2o945bo2bo16b3o100b3o16bo2bo422bo1001bo2bo57bo2bo808bo2bo57bo
2bo892bo2bo57bo2bo508bo2bo57bo2bo1001bo$423bo8bo2bo16bo517bobo5b2o10bo
960bo138bo423b3o20b2o108b2o846b2o21b3o59b3o22b2o760b2o22b3o59b3o21b2o
846b2o21b3o59b3o22b2o460b2o22b3o59b3o21b2o846b2o108b2o20b3o$451bo519b
2o5bo2bo7bo4bo956bo138bo431bo14b2o108b2o829bobo14b2o108b2o14bobo726bob
o14b2o108b2o14bobo812bobo14b2o108b2o14bobo426bobo14b2o108b2o14bobo829b
2o108b2o14bo$451b3o528bo7bo957bobo140bobo452bo92bo841bo22bo92bo22bo
732bo22bo92bo22bo818bo22bo92bo22bo432bo22bo92bo22bo841bo92bo$336b2o
644bo7bo3bo19b2o972b3o59b3o469bo21b3o92b3o839bo20b3o92b3o20bo732bo20b
3o92b3o20bo818bo20b3o92b3o20bo432bo20b3o92b3o20bo839b3o92b3o21bo$336b
3o103bo539bo9bobo18b3o972bo2bo57bo2bo469bo20bo98bo835bo2bo19bo98bo19bo
2bo726bo2bo19bo98bo19bo2bo812bo2bo19bo98bo19bo2bo426bo2bo19bo98bo19bo
2bo835bo98bo20bo$335bob2o104bo534bo2bo31b2obo971bo17bobo23bobo17bo470b
2o18b2o96b2o836b3o19b2o96b2o19b3o728b3o19b2o96b2o19b3o814b3o19b2o96b2o
19b3o428b3o19b2o96b2o19b3o836b2o96b2o18b2o$335b3o103b3o54b2o478b2o34b
3o971bo20bo21bo20bo470b2o4454b2o$336bo161b3o514bo973bobo17bo21bo17bobo
470b2o4456b2o$468b2o1536bo2bo21bo2bo487b2o4456b2o$454b2o11b4o13b2o
1521b3o21b3o1503b3o21b3o846b3o21b3o930b3o21b3o546b3o21b3o$452b2ob2o10b
2ob2o10b2ob2o1482bobo98bobo1464bo2bo19bo2bo846bo2bo19bo2bo930bo2bo19bo
2bo546bo2bo19bo2bo$452b4o13b2o11b4o13b2o1467bo104bo1443bobo17bo25bo17b
obo806bobo17bo25bo17bobo890bobo17bo25bo17bobo506bobo17bo25bo17bobo$
453b2o28b2o477b2o1004bo104bo1446bo16bo25bo16bo812bo16bo25bo16bo896bo
16bo25bo16bo512bo16bo25bo16bo$435bo9b2o515bobo984b3o16bo2bo98bo2bo16b
3o1427bo17bobo19bobo17bo812bo17bobo19bobo17bo896bo17bobo19bobo17bo512b
o17bobo19bobo17bo$434bobo7b4o516bo984bo2bo15b3o100b3o15bo2bo1424bo2bo
59bo2bo806bo2bo59bo2bo890bo2bo59bo2bo506bo2bo59bo2bo$427b2o4bob2o5b3o
2bo2bobo511b2o983bo142bo1425b3o59b3o808b3o59b3o892b3o59b3o508b3o59b3o$
427b2o3b2ob2o9b2o2bo2bo1495bo142bo1387bobo136bobo730bobo136bobo816bobo
136bobo430bobo136bobo$433bob2o6bo9b2o6b2o1487bobo136bobo1387bo142bo
728bo142bo814bo142bo428bo142bo$434bobo5bo8bo3b2o4b2o1525b3o59b3o1426bo
142bo728bo142bo814bo142bo428bo142bo$435bo6bo10b2o1532bo2bo59bo2bo1425b
o2bo15b3o100b3o15bo2bo728bo2bo15b3o100b3o15bo2bo814bo2bo15b3o100b3o15b
o2bo428bo2bo15b3o100b3o15bo2bo$450bo2bo1536bo17bobo19bobo17bo1428b3o
16bo2bo98bo2bo16b3o728b3o16bo2bo98bo2bo16b3o814b3o16bo2bo98bo2bo16b3o
428b3o16bo2bo98bo2bo16b3o$450bobo1537bo16bo25bo16bo1447bo104bo766bo
104bo852bo104bo466bo104bo$1987bobo17bo25bo17bobo1444bo104bo766bo104bo
852bo104bo466bo104bo$2007bo2bo19bo2bo1465bobo98bobo768bobo98bobo854bob
o98bobo468bobo98bobo$2007b3o21b3o1503b3o21b3o846b3o21b3o930b3o21b3o
546b3o21b3o$1967bobo102bobo1461bo2bo21bo2bo844bo2bo21bo2bo928bo2bo21bo
2bo544bo2bo21bo2bo$1017b2o951bo100bo1447bobo17bo21bo17bobo810bobo17bo
21bo17bobo894bobo17bo21bo17bobo510bobo17bo21bo17bobo$1017bo952bo100bo
1446bo20bo21bo20bo808bo20bo21bo20bo892bo20bo21bo20bo508bo20bo21bo20bo$
1018b3o928b3o15bo2bo100bo2bo15b3o1425bo17bobo23bobo17bo808bo17bobo23bo
bo17bo892bo17bobo23bobo17bo508bo17bobo23bobo17bo$1020bo927bo2bo16b3o
100b3o16bo2bo1424bo2bo57bo2bo808bo2bo57bo2bo892bo2bo57bo2bo508bo2bo57b
o2bo$1951bo138bo1427b3o59b3o808b3o59b3o892b3o59b3o508b3o59b3o$1951bo
138bo1387bobo140bobo726bobo140bobo812bobo140bobo426bobo140bobo$1948bob
o140bobo1387bo138bo732bo138bo818bo138bo432bo138bo$336b2o1650b3o59b3o
1428bo138bo732bo138bo818bo138bo432bo138bo$336b3o1649bo2bo57bo2bo1425bo
2bo16b3o100b3o16bo2bo726bo2bo16b3o100b3o16bo2bo812bo2bo16b3o100b3o16bo
2bo426bo2bo16b3o100b3o16bo2bo$335bob2o1649bo17bobo23bobo17bo1426b3o15b
o2bo100bo2bo15b3o728b3o15bo2bo100bo2bo15b3o814b3o15bo2bo100bo2bo15b3o
428b3o15bo2bo100bo2bo15b3o$335b3o1650bo20bo21bo20bo1447bo100bo770bo
100bo856bo100bo470bo100bo$336bo1652bobo17bo21bo17bobo1448bo100bo770bo
100bo856bo100bo470bo100bo$2006bo2bo21bo2bo1462bobo102bobo764bobo102bob
o850bobo102bobo464bobo102bobo$2007b3o21b3o1503b3o21b3o846b3o21b3o930b
3o21b3o546b3o21b3o$1969bobo98bobo1464bo2bo19bo2bo846bo2bo19bo2bo930bo
2bo19bo2bo546bo2bo19bo2bo$1025b2o941bo104bo1443bobo17bo25bo17bobo806bo
bo17bo25bo17bobo890bobo17bo25bo17bobo506bobo17bo25bo17bobo$1024bobo
941bo104bo1446bo16bo25bo16bo812bo16bo25bo16bo896bo16bo25bo16bo512bo16b
o25bo16bo$1023b3o12bo910b3o16bo2bo98bo2bo16b3o1427bo17bobo19bobo17bo
812bo17bobo19bobo17bo896bo17bobo19bobo17bo512bo17bobo19bobo17bo$1014b
2o6b3o8b2o3b4o907bo2bo15b3o100b3o15bo2bo1424bo2bo59bo2bo806bo2bo59bo2b
o890bo2bo59bo2bo506bo2bo59bo2bo$1014b2o7b3o8b2o3b4o906bo142bo1425b3o
59b3o808b3o59b3o892b3o59b3o508b3o59b3o$1024bobo2b2obob2o3bo2bo5b2o899b
o142bo1387bobo136bobo730bobo136bobo816bobo136bobo430bobo136bobo$1025b
2o2b2obobo4b4o5b2o900bobo136bobo1387bo142bo728bo142bo814bo142bo428bo
142bo$1031b2obo3b4o946b3o59b3o1426bo142bo728bo142bo814bo142bo428bo142b
o$1038bo948bo2bo59bo2bo1425bo2bo15b3o100b3o15bo2bo728bo2bo15b3o100b3o
15bo2bo814bo2bo15b3o100b3o15bo2bo428bo2bo15b3o100b3o15bo2bo1060bobo$
364b2o28b2o28b2o28b2o28b2o28b2o28b2o28b2o28b2o28b2o28b2o28b2o28b2o28b
2o28b2o28b2o28b2o28b2o28b2o28b2o28b2o28b2o28b2o964bo17bobo19bobo17bo
1428b3o16bo2bo98bo2bo16b3o728b3o16bo2bo98bo2bo16b3o814b3o16bo2bo98bo2b
o16b3o428b3o16bo2bo98bo2bo16b3o1063bo$363b4o26b4o26b4o26b4o26b4o26b4o
26b4o26b4o26b4o26b4o26b4o26b4o26b4o26b4o26b4o26b4o26b4o26b4o26b4o26b4o
26b4o26b4o11b2o13b4o963bo16bo25bo16bo1447bo104bo766bo104bo852bo104bo
466bo104bo1082bo$333b2o27b2ob2o25b2ob2o25b2ob2o25b2ob2o25b2ob2o25b2ob
2o25b2ob2o25b2ob2o25b2ob2o25b2ob2o25b2ob2o25b2ob2o25b2ob2o25b2ob2o25b
2ob2o25b2ob2o25b2ob2o25b2ob2o25b2ob2o25b2ob2o25b2ob2o25b2ob2o10b3o12b
2ob2o960bobo17bo25bo17bobo1444bo104bo766bo104bo852bo104bo466bo104bo
1079bo2bo$334bo28b2o28b2o28b2o28b2o28b2o28b2o28b2o28b2o28b2o28b2o28b2o
28b2o28b2o28b2o28b2o28b2o28b2o28b2o28b2o28b2o28b2o28b2o13bo14b2o982bo
2bo19bo2bo1465bobo98bobo768bobo98bobo854bobo98bobo468bobo98bobo1081b3o
$331b3o8b2o665bo997b3o21b3o1503b3o21b3o846b3o21b3o930b3o21b3o546b3o21b
3o$331bo9bobo1623bobo102bobo1461bo2bo21bo2bo844bo2bo21bo2bo928bo2bo21b
o2bo544bo2bo21bo2bo$341bo668bo959bo100bo1447bobo17bo21bo17bobo810bobo
17bo21bo17bobo894bobo17bo21bo17bobo510bobo17bo21bo17bobo$340b2o663b2ob
o3bob2o18b3o933bo100bo1446bo20bo21bo20bo808bo20bo21bo20bo892bo20bo21bo
20bo508bo20bo21bo20bo$1005bo9bo18bo914b3o15bo2bo100bo2bo15b3o1425bo17b
obo23bobo17bo808bo17bobo23bobo17bo892bo17bobo23bobo17bo508bo17bobo23bo
bo17bo$1006b2o5b2o20bo912bo2bo16b3o100b3o16bo2bo1424bo2bo57bo2bo808bo
2bo57bo2bo892bo2bo57bo2bo508bo2bo57bo2bo$1003b3o2b5o2b3o933bo138bo
1427b3o59b3o808b3o59b3o892b3o59b3o508b3o59b3o$1003bo2bo7bo2bo4b3o926bo
138bo1387bobo140bobo726bobo140bobo812bobo140bobo426bobo140bobo$1004b2o
9b2o7bo25bobo895bobo140bobo1387bo138bo732bo138bo818bo138bo432bo138bo$
1023bo18b3o5bo3bo933b3o59b3o1428bo138bo732bo138bo818bo138bo432bo138bo$
1037b2o2bo2bobo7bo5b2o926bo2bo57bo2bo1425bo2bo16b3o100b3o16bo2bo726bo
2bo16b3o100b3o16bo2bo812bo2bo16b3o100b3o16bo2bo426bo2bo16b3o100b3o16bo
2bo$1009b2o24bo2bo2b2o7bo4bo4b2o926bo17bobo23bobo17bo1426b3o15bo2bo
100bo2bo15b3o728b3o15bo2bo100bo2bo15b3o814b3o15bo2bo100bo2bo15b3o428b
3o15bo2bo100bo2bo15b3o$1009b2o4bo18bo19bo933bo20bo21bo20bo1447bo100bo
770bo100bo856bo100bo470bo100bo$998b2o6b2o6b5ob2o12bo10b3o2bo3bo934bobo
17bo21bo17bobo1448bo100bo770bo100bo856bo100bo470bo100bo$998b2o5b3o5bo
2b2o4bo11bo15bobo953bo2bo21bo2bo1462bobo102bobo764bobo102bobo850bobo
102bobo464bobo102bobo$1006b2o5b2o8bo11bo2bo968b3o21b3o1503b3o21b3o846b
3o21b3o930b3o21b3o546b3o21b3o$1009b2o4bo7bo13b2o930bobo98bobo1464bo2bo
19bo2bo846bo2bo19bo2bo930bo2bo19bo2bo546bo2bo19bo2bo$1009b2o12bo944bo
104bo1443bobo17bo25bo17bobo806bobo17bo25bo17bobo890bobo17bo25bo17bobo
506bobo17bo25bo17bobo$1022bo945bo104bo1446bo16bo25bo16bo812bo16bo25bo
16bo896bo16bo25bo16bo512bo16bo25bo16bo$1020b2o927b3o16bo2bo98bo2bo16b
3o1427bo17bobo19bobo17bo812bo17bobo19bobo17bo896bo17bobo19bobo17bo512b
o17bobo19bobo17bo$1949bo2bo15b3o100b3o15bo2bo1424bo2bo59bo2bo806bo2bo
59bo2bo890bo2bo59bo2bo506bo2bo59bo2bo$1949bo142bo1425b3o59b3o808b3o59b
3o892b3o59b3o508b3o59b3o$1949bo142bo1387bobo136bobo730bobo136bobo816bo
bo136bobo430bobo136bobo$1950bobo136bobo1387bo142bo728bo142bo814bo142bo
428bo142bo$1988b3o59b3o1426bo142bo728bo142bo814bo142bo428bo142bo$1987b
o2bo59bo2bo1425bo2bo15b3o100b3o15bo2bo728bo2bo15b3o100b3o15bo2bo814bo
2bo15b3o100b3o15bo2bo428bo2bo15b3o100b3o15bo2bo$1990bo17bobo19bobo17bo
1428b3o16bo2bo98bo2bo16b3o728b3o16bo2bo98bo2bo16b3o814b3o16bo2bo98bo2b
o16b3o428b3o16bo2bo98bo2bo16b3o$1990bo16bo25bo16bo1447bo104bo766bo104b
o852bo104bo466bo104bo$1987bobo17bo25bo17bobo1444bo104bo766bo104bo852bo
104bo466bo104bo$2007bo2bo19bo2bo1465bobo98bobo768bobo98bobo854bobo98bo
bo468bobo98bobo$2007b3o21b3o1503b3o21b3o846b3o21b3o930b3o21b3o546b3o
21b3o$1967bobo102bobo1461bo2bo21bo2bo844bo2bo21bo2bo928bo2bo21bo2bo
544bo2bo21bo2bo$1970bo100bo1447bobo17bo21bo17bobo810bobo17bo21bo17bobo
894bobo17bo21bo17bobo510bobo17bo21bo17bobo$1970bo100bo1446bo20bo21bo
20bo808bo20bo21bo20bo892bo20bo21bo20bo508bo20bo21bo20bo$1949b3o15bo2bo
100bo2bo15b3o1425bo17bobo23bobo17bo808bo17bobo23bobo17bo892bo17bobo23b
obo17bo508bo17bobo23bobo17bo$1948bo2bo16b3o100b3o16bo2bo1424bo2bo57bo
2bo808bo2bo57bo2bo892bo2bo57bo2bo508bo2bo57bo2bo$1951bo138bo1427b3o59b
3o808b3o59b3o892b3o59b3o508b3o59b3o$1951bo138bo1387bobo140bobo726bobo
140bobo812bobo140bobo426bobo140bobo$1948bobo140bobo1387bo138bo732bo
138bo818bo138bo432bo138bo$1988b3o59b3o1428bo138bo732bo138bo818bo138bo
432bo138bo$1988bo2bo57bo2bo1425bo2bo16b3o100b3o16bo2bo726bo2bo16b3o
100b3o16bo2bo812bo2bo16b3o100b3o16bo2bo426bo2bo16b3o100b3o16bo2bo$
1988bo17bobo23bobo17bo1426b3o15bo2bo100bo2bo15b3o728b3o15bo2bo100bo2bo
15b3o814b3o15bo2bo100bo2bo15b3o428b3o15bo2bo100bo2bo15b3o$1988bo20bo
21bo20bo1447bo100bo770bo100bo856bo100bo470bo100bo$1989bobo17bo21bo17bo
bo1448bo100bo770bo100bo856bo100bo470bo100bo$2006bo2bo21bo2bo1462bobo
102bobo764bobo102bobo850bobo102bobo464bobo102bobo$2007b3o21b3o1503b3o
21b3o846b3o21b3o930b3o21b3o546b3o21b3o$1969bobo98bobo1464bo2bo19bo2bo
846bo2bo19bo2bo930bo2bo19bo2bo546bo2bo19bo2bo$1968bo104bo1443bobo17bo
25bo17bobo806bobo17bo25bo17bobo890bobo17bo25bo17bobo506bobo17bo25bo17b
obo$1968bo104bo1446bo16bo25bo16bo812bo16bo25bo16bo896bo16bo25bo16bo
512bo16bo25bo16bo$1949b3o16bo2bo98bo2bo16b3o1427bo17bobo19bobo17bo812b
o17bobo19bobo17bo896bo17bobo19bobo17bo512bo17bobo19bobo17bo$1949bo2bo
15b3o100b3o15bo2bo1424bo2bo59bo2bo806bo2bo59bo2bo890bo2bo59bo2bo506bo
2bo59bo2bo$1949bo142bo1425b3o59b3o808b3o59b3o892b3o59b3o508b3o59b3o$
1949bo142bo1387bobo136bobo730bobo136bobo816bobo136bobo430bobo136bobo$
1950bobo136bobo1387bo142bo728bo142bo814bo142bo428bo142bo$1988b3o59b3o
1426bo142bo728bo142bo814bo142bo428bo142bo$1987bo2bo59bo2bo1425bo2bo15b
3o100b3o15bo2bo728bo2bo15b3o100b3o15bo2bo814bo2bo15b3o100b3o15bo2bo
428bo2bo15b3o100b3o15bo2bo$1990bo17bobo19bobo17bo1428b3o16bo2bo98bo2bo
16b3o728b3o16bo2bo98bo2bo16b3o814b3o16bo2bo98bo2bo16b3o428b3o16bo2bo
98bo2bo16b3o$1990bo16bo25bo16bo1447bo104bo766bo104bo852bo104bo466bo
104bo$1987bobo17bo25bo17bobo1444bo104bo766bo104bo852bo104bo466bo104bo$
2007bo2bo19bo2bo1465bobo98bobo768bobo98bobo854bobo98bobo468bobo98bobo$
2007b3o21b3o1503b3o21b3o846b3o21b3o930b3o21b3o546b3o21b3o$1967bobo102b
obo1461bo2bo21bo2bo844bo2bo21bo2bo928bo2bo21bo2bo544bo2bo21bo2bo$1970b
o100bo1447bobo17bo21bo17bobo810bobo17bo21bo17bobo894bobo17bo21bo17bobo
510bobo17bo21bo17bobo$1970bo100bo1446bo20bo21bo20bo808bo20bo21bo20bo
892bo20bo21bo20bo508bo20bo21bo20bo$1949b3o15bo2bo100bo2bo15b3o1425bo
17bobo23bobo17bo808bo17bobo23bobo17bo892bo17bobo23bobo17bo508bo17bobo
23bobo17bo$1948bo2bo16b3o100b3o16bo2bo1424bo2bo57bo2bo808bo2bo57bo2bo
892bo2bo57bo2bo508bo2bo57bo2bo$1951bo138bo1427b3o59b3o808b3o59b3o892b
3o59b3o508b3o59b3o$1951bo138bo1387bobo140bobo726bobo140bobo812bobo140b
obo426bobo140bobo$1948bobo140bobo1387bo138bo732bo138bo818bo138bo432bo
138bo$1988b3o59b3o1428bo138bo732bo138bo818bo138bo432bo138bo$1988bo2bo
57bo2bo1425bo2bo16b3o100b3o16bo2bo726bo2bo16b3o100b3o16bo2bo812bo2bo
16b3o100b3o16bo2bo426bo2bo16b3o100b3o16bo2bo$1988bo17bobo23bobo17bo
1426b3o15bo2bo100bo2bo15b3o728b3o15bo2bo100bo2bo15b3o814b3o15bo2bo100b
o2bo15b3o428b3o15bo2bo100bo2bo15b3o$1988bo20bo21bo20bo1447bo100bo770bo
100bo856bo100bo470bo100bo$1989bobo17bo21bo17bobo1448bo100bo770bo100bo
856bo100bo470bo100bo$2006bo2bo21bo2bo1462bobo102bobo764bobo102bobo850b
obo102bobo464bobo102bobo$2007b3o21b3o1503b3o21b3o846b3o21b3o930b3o21b
3o546b3o21b3o$1969bobo98bobo1464bo2bo19bo2bo846bo2bo19bo2bo930bo2bo19b
o2bo546bo2bo19bo2bo$1968bo104bo1443bobo17bo25bo17bobo806bobo17bo25bo
17bobo890bobo17bo25bo17bobo506bobo17bo25bo17bobo$1968bo104bo1446bo16bo
25bo16bo812bo16bo25bo16bo896bo16bo25bo16bo512bo16bo25bo16bo$1949b3o16b
o2bo98bo2bo16b3o1427bo17bobo19bobo17bo812bo17bobo19bobo17bo896bo17bobo
19bobo17bo512bo17bobo19bobo17bo$1949bo2bo15b3o100b3o15bo2bo1424bo2bo
59bo2bo806bo2bo59bo2bo890bo2bo59bo2bo506bo2bo59bo2bo$1949bo142bo1425b
3o59b3o808b3o59b3o892b3o59b3o508b3o59b3o$1949bo142bo1387bobo136bobo
730bobo136bobo816bobo136bobo430bobo136bobo$1950bobo136bobo1387bo142bo
728bo142bo814bo142bo428bo142bo$1988b3o59b3o1426bo142bo728bo142bo814bo
142bo428bo142bo$1987bo2bo59bo2bo1425bo2bo15b3o100b3o15bo2bo728bo2bo15b
3o100b3o15bo2bo814bo2bo15b3o100b3o15bo2bo428bo2bo15b3o100b3o15bo2bo$
1990bo17bobo19bobo17bo1428b3o16bo2bo98bo2bo16b3o728b3o16bo2bo98bo2bo
16b3o814b3o16bo2bo98bo2bo16b3o428b3o16bo2bo98bo2bo16b3o$1990bo16bo25bo
16bo1447bo104bo766bo104bo852bo104bo466bo104bo$1987bobo17bo25bo17bobo
1444bo104bo766bo104bo852bo104bo466bo104bo$2007bo2bo19bo2bo1465bobo98bo
bo768bobo98bobo854bobo98bobo468bobo98bobo$2007b3o21b3o1503b3o21b3o846b
3o21b3o930b3o21b3o546b3o21b3o$1967bobo102bobo1461bo2bo21bo2bo844bo2bo
21bo2bo928bo2bo21bo2bo544bo2bo21bo2bo$1970bo100bo1447bobo17bo21bo17bob
o810bobo17bo21bo17bobo894bobo17bo21bo17bobo510bobo17bo21bo17bobo$1970b
o100bo1446bo20bo21bo20bo808bo20bo21bo20bo892bo20bo21bo20bo508bo20bo21b
o20bo$1949b3o15bo2bo100bo2bo15b3o1425bo17bobo23bobo17bo808bo17bobo23bo
bo17bo892bo17bobo23bobo17bo508bo17bobo23bobo17bo$1948bo2bo16b3o100b3o
16bo2bo1424bo2bo57bo2bo808bo2bo57bo2bo892bo2bo57bo2bo508bo2bo57bo2bo$
1951bo138bo1427b3o59b3o808b3o59b3o892b3o59b3o508b3o59b3o$1951bo138bo
1387bobo140bobo726bobo140bobo812bobo140bobo426bobo140bobo$1948bobo140b
obo1387bo138bo732bo138bo818bo138bo432bo138bo$1988b3o59b3o1428bo138bo
732bo138bo818bo138bo432bo138bo$1988bo2bo57bo2bo1425bo2bo16b3o100b3o16b
o2bo726bo2bo16b3o100b3o16bo2bo812bo2bo16b3o100b3o16bo2bo426bo2bo16b3o
100b3o16bo2bo$1988bo17bobo23bobo17bo1426b3o15bo2bo100bo2bo15b3o728b3o
15bo2bo100bo2bo15b3o814b3o15bo2bo100bo2bo15b3o428b3o15bo2bo100bo2bo15b
3o$1988bo20bo21bo20bo1447bo100bo770bo100bo856bo100bo470bo100bo$1989bob
o17bo21bo17bobo1448bo100bo770bo100bo856bo100bo470bo100bo$2006bo2bo21bo
2bo1462bobo102bobo764bobo102bobo850bobo102bobo464bobo102bobo$2007b3o
21b3o1503b3o21b3o846b3o21b3o930b3o21b3o546b3o21b3o$1969bobo98bobo1464b
o2bo19bo2bo846bo2bo19bo2bo930bo2bo19bo2bo546bo2bo19bo2bo$1968bo104bo
1443bobo17bo25bo17bobo806bobo17bo25bo17bobo890bobo17bo25bo17bobo506bob
o17bo25bo17bobo$1968bo104bo1446bo16bo25bo16bo812bo16bo25bo16bo896bo16b
o25bo16bo512bo16bo25bo16bo$1949b3o16bo2bo98bo2bo16b3o1427bo17bobo19bob
o17bo812bo17bobo19bobo17bo896bo17bobo19bobo17bo512bo17bobo19bobo17bo$
1949bo2bo15b3o100b3o15bo2bo1424bo2bo59bo2bo806bo2bo59bo2bo890bo2bo59bo
2bo506bo2bo59bo2bo$1949bo142bo1425b3o59b3o808b3o59b3o892b3o59b3o508b3o
59b3o$1949bo142bo1387bobo136bobo730bobo136bobo816bobo136bobo430bobo
136bobo$1950bobo136bobo1387bo142bo728bo142bo814bo142bo428bo142bo$1988b
3o59b3o1426bo142bo728bo142bo814bo142bo428bo142bo$1987bo2bo59bo2bo1425b
o2bo15b3o100b3o15bo2bo728bo2bo15b3o100b3o15bo2bo814bo2bo15b3o100b3o15b
o2bo428bo2bo15b3o100b3o15bo2bo$1990bo17bobo19bobo17bo1428b3o16bo2bo98b
o2bo16b3o728b3o16bo2bo98bo2bo16b3o814b3o16bo2bo98bo2bo16b3o428b3o16bo
2bo98bo2bo16b3o$1990bo16bo25bo16bo1447bo104bo766bo104bo852bo104bo466bo
104bo$1987bobo17bo25bo17bobo1444bo104bo766bo104bo852bo104bo466bo104bo$
2007bo2bo19bo2bo1465bobo98bobo768bobo98bobo854bobo98bobo468bobo98bobo$
2007b3o21b3o1503b3o21b3o846b3o21b3o930b3o21b3o546b3o21b3o$1967bobo102b
obo1461bo2bo21bo2bo844bo2bo21bo2bo928bo2bo21bo2bo544bo2bo21bo2bo$1970b
o100bo1447bobo17bo21bo17bobo810bobo17bo21bo17bobo894bobo17bo21bo17bobo
510bobo17bo21bo17bobo$1970bo100bo1446bo20bo21bo20bo808bo20bo21bo20bo
892bo20bo21bo20bo508bo20bo21bo20bo$1949b3o15bo2bo100bo2bo15b3o1425bo
17bobo23bobo17bo808bo17bobo23bobo17bo892bo17bobo23bobo17bo508bo17bobo
23bobo17bo$1948bo2bo16b3o100b3o16bo2bo1424bo2bo57bo2bo808bo2bo57bo2bo
892bo2bo57bo2bo508bo2bo57bo2bo$1951bo138bo1427b3o59b3o808b3o59b3o892b
3o59b3o508b3o59b3o$1951bo138bo1387bobo140bobo726bobo140bobo812bobo140b
obo426bobo140bobo$1948bobo140bobo1387bo138bo732bo138bo818bo138bo432bo
138bo$1988b3o59b3o1428bo138bo732bo138bo818bo138bo432bo138bo$1988bo2bo
57bo2bo1425bo2bo16b3o100b3o16bo2bo726bo2bo16b3o100b3o16bo2bo812bo2bo
16b3o100b3o16bo2bo426bo2bo16b3o100b3o16bo2bo$1988bo17bobo23bobo17bo
1426b3o15bo2bo100bo2bo15b3o728b3o15bo2bo100bo2bo15b3o814b3o15bo2bo100b
o2bo15b3o428b3o15bo2bo100bo2bo15b3o$1988bo20bo21bo20bo1447bo100bo770bo
100bo856bo100bo470bo100bo$1989bobo17bo21bo17bobo1448bo100bo770bo100bo
856bo100bo470bo100bo$2006bo2bo21bo2bo1462bobo102bobo764bobo102bobo850b
obo102bobo464bobo102bobo$2007b3o21b3o1503b3o21b3o846b3o21b3o930b3o21b
3o546b3o21b3o$1969bobo98bobo1464bo2bo19bo2bo402b2o2b2o2b2o2b2o2b2o2b2o
2b2o2b2o2b2o2b2o406bo2bo19bo2bo930bo2bo19bo2bo546bo2bo19bo2bo$1968bo
104bo1443bobo17bo25bo17bobo382b2o2b2o2b2o2b2o2b2o2b2o2b2o2b2o2b2o2b2o
386bobo17bo25bo17bobo890bobo17bo25bo17bobo506bobo17bo25bo17bobo$1968bo
104bo1446bo16bo25bo16bo812bo16bo25bo16bo896bo16bo25bo16bo512bo16bo25bo
16bo$1949b3o16bo2bo98bo2bo16b3o1427bo17bobo19bobo17bo812bo17bobo19bobo
17bo896bo17bobo19bobo17bo512bo17bobo19bobo17bo$1949bo2bo15b3o100b3o15b
o2bo1424bo2bo59bo2bo370b2o2b2o2b2o2b2o2b2o2b2o2b2o2b2o2b2o2b2o2b2o2b2o
2b2o2b2o2b2o2b2o374bo2bo59bo2bo890bo2bo59bo2bo506bo2bo59bo2bo$1949bo
142bo1425b3o59b3o371b2o2b2o2b2o2b2o2b2o2b2o2b2o2b2o2b2o2b2o2b2o2b2o2b
2o2b2o2b2o2b2o375b3o59b3o892b3o59b3o508b3o59b3o$1949bo142bo1387bobo
136bobo730bobo136bobo816bobo136bobo430bobo136bobo$1950bobo136bobo1387b
o142bo728bo142bo814bo142bo428bo142bo$1988b3o59b3o1426bo142bo319b2o2b2o
2b2o2b2o2b2o2b2o2b2o2b2o2b2o2b2o2b2o2b2o2b2o2b2o2b2o2b2o2b2o2b2o2b2o2b
2o2b2o2b2o323bo142bo814bo142bo428bo142bo$1987bo2bo59bo2bo1425bo2bo15b
3o100b3o15bo2bo319b2o2b2o2b2o2b2o2b2o2b2o2b2o2b2o2b2o2b2o2b2o2b2o2b2o
2b2o2b2o2b2o2b2o2b2o2b2o2b2o2b2o2b2o323bo2bo15b3o100b3o15bo2bo814bo2bo
15b3o100b3o15bo2bo428bo2bo15b3o100b3o15bo2bo$1990bo17bobo19bobo17bo
1428b3o16bo2bo98bo2bo16b3o728b3o16bo2bo98bo2bo16b3o814b3o16bo2bo98bo2b
o16b3o428b3o16bo2bo98bo2bo16b3o$1990bo16bo25bo16bo1447bo104bo766bo104b
o852bo104bo466bo104bo$1987bobo17bo25bo17bobo1444bo104bo330b2o2b2o2b2o
2b2o2b2o2b2o2b2o2b2o2b2o2b2o2b2o2b2o2b2o2b2o2b2o2b2o2b2o2b2o2b2o2b2o2b
2o2b2o2b2o2b2o2b2o2b2o334bo104bo852bo104bo466bo104bo$2007bo2bo19bo2bo
1465bobo98bobo331b2o2b2o2b2o2b2o2b2o2b2o2b2o2b2o2b2o2b2o2b2o2b2o2b2o2b
2o2b2o2b2o2b2o2b2o2b2o2b2o2b2o2b2o2b2o2b2o2b2o2b2o335bobo98bobo854bobo
98bobo468bobo98bobo$2007b3o21b3o1503b3o21b3o846b3o21b3o930b3o21b3o546b
3o21b3o$1967bobo102bobo1461bo2bo21bo2bo844bo2bo21bo2bo928bo2bo21bo2bo
544bo2bo21bo2bo$1970bo100bo1447bobo17bo21bo17bobo344b2o2b2o2b2o2b2o2b
2o2b2o2b2o2b2o2b2o2b2o2b2o2b2o2b2o2b2o2b2o2b2o2b2o2b2o2b2o2b2o2b2o2b2o
2b2o2b2o2b2o2b2o2b2o2b2o2b2o2b2o348bobo17bo21bo17bobo894bobo17bo21bo
17bobo510bobo17bo21bo17bobo$1970bo100bo1446bo20bo21bo20bo343b2o2b2o2b
2o2b2o2b2o2b2o2b2o2b2o2b2o2b2o2b2o2b2o2b2o2b2o2b2o2b2o2b2o2b2o2b2o2b2o
2b2o2b2o2b2o2b2o2b2o2b2o2b2o2b2o2b2o2b2o347bo20bo21bo20bo892bo20bo21bo
20bo508bo20bo21bo20bo$1949b3o15bo2bo100bo2bo15b3o1425bo17bobo23bobo17b
o808bo17bobo23bobo17bo892bo17bobo23bobo17bo508bo17bobo23bobo17bo$1948b
o2bo16b3o100b3o16bo2bo1424bo2bo57bo2bo808bo2bo57bo2bo892bo2bo57bo2bo
508bo2bo57bo2bo$1951bo138bo1427b3o59b3o339b2o2b2o2b2o2b2o2b2o2b2o2b2o
2b2o2b2o2b2o2b2o2b2o2b2o2b2o2b2o2b2o2b2o2b2o2b2o2b2o2b2o2b2o2b2o2b2o2b
2o2b2o2b2o2b2o2b2o2b2o2b2o2b2o343b3o59b3o892b3o59b3o508b3o59b3o$1951bo
138bo1387bobo140bobo298b2o2b2o2b2o2b2o2b2o2b2o2b2o2b2o2b2o2b2o2b2o2b2o
2b2o2b2o2b2o2b2o2b2o2b2o2b2o2b2o2b2o2b2o2b2o2b2o2b2o2b2o2b2o2b2o2b2o2b
2o2b2o2b2o302bobo140bobo812bobo140bobo426bobo140bobo$1948bobo140bobo
1387bo138bo732bo138bo818bo138bo432bo138bo$1988b3o59b3o1428bo138bo732bo
138bo818bo138bo432bo138bo$1988bo2bo57bo2bo1425bo2bo16b3o100b3o16bo2bo
294b2o2b2o2b2o2b2o2b2o2b2o2b2o2b2o2b2o2b2o2b2o2b2o2b2o2b2o2b2o2b2o2b2o
2b2o2b2o2b2o2b2o2b2o2b2o2b2o2b2o2b2o2b2o2b2o2b2o2b2o2b2o2b2o2b2o2b2o
298bo2bo16b3o100b3o16bo2bo812bo2bo16b3o100b3o16bo2bo426bo2bo16b3o100b
3o16bo2bo$1988bo17bobo23bobo17bo1426b3o15bo2bo100bo2bo15b3o295b2o2b2o
2b2o2b2o2b2o2b2o2b2o2b2o2b2o2b2o2b2o2b2o2b2o2b2o2b2o2b2o2b2o2b2o2b2o2b
2o2b2o2b2o2b2o2b2o2b2o2b2o2b2o2b2o2b2o2b2o2b2o2b2o2b2o2b2o299b3o15bo2b
o100bo2bo15b3o814b3o15bo2bo100bo2bo15b3o428b3o15bo2bo100bo2bo15b3o$
1988bo20bo21bo20bo1447bo100bo770bo100bo856bo100bo470bo100bo$1989bobo
17bo21bo17bobo1448bo100bo770bo100bo856bo100bo470bo100bo$2006bo2bo21bo
2bo1462bobo102bobo309b2o2b2o2b2o2b2o2b2o2b2o2b2o2b2o2b2o2b2o2b2o2b2o2b
2o2b2o2b2o2b2o2b2o2b2o2b2o2b2o2b2o2b2o2b2o2b2o2b2o2b2o2b2o2b2o2b2o2b2o
2b2o2b2o2b2o2b2o2b2o2b2o313bobo102bobo850bobo102bobo464bobo102bobo$
2007b3o21b3o1503b3o21b3o350b2o2b2o2b2o2b2o2b2o2b2o2b2o2b2o2b2o2b2o2b2o
2b2o2b2o2b2o2b2o2b2o2b2o2b2o2b2o2b2o2b2o2b2o2b2o2b2o2b2o2b2o2b2o2b2o2b
2o2b2o2b2o2b2o2b2o2b2o2b2o2b2o354b3o21b3o930b3o21b3o546b3o21b3o$1969bo
bo98bobo1464bo2bo19bo2bo846bo2bo19bo2bo930bo2bo19bo2bo546bo2bo19bo2bo$
1968bo104bo1443bobo17bo25bo17bobo806bobo17bo25bo17bobo890bobo17bo25bo
17bobo506bobo17bo25bo17bobo$1968bo104bo1446bo16bo25bo16bo329b2o2b2o2b
2o2b2o2b2o2b2o2b2o2b2o2b2o2b2o2b2o2b2o2b2o2b2o2b2o2b2o2b2o2b2o2b2o2b2o
2b2o2b2o2b2o2b2o2b2o2b2o2b2o2b2o2b2o2b2o2b2o2b2o2b2o2b2o2b2o2b2o2b2o2b
2o333bo16bo25bo16bo896bo16bo25bo16bo512bo16bo25bo16bo$1949b3o16bo2bo
98bo2bo16b3o1427bo17bobo19bobo17bo329b2o2b2o2b2o2b2o2b2o2b2o2b2o2b2o2b
2o2b2o2b2o2b2o2b2o2b2o2b2o2b2o2b2o2b2o2b2o2b2o2b2o2b2o2b2o2b2o2b2o2b2o
2b2o2b2o2b2o2b2o2b2o2b2o2b2o2b2o2b2o2b2o2b2o2b2o333bo17bobo19bobo17bo
896bo17bobo19bobo17bo512bo17bobo19bobo17bo$1949bo2bo15b3o100b3o15bo2bo
1424bo2bo59bo2bo806bo2bo59bo2bo890bo2bo59bo2bo506bo2bo59bo2bo$1949bo
142bo1425b3o59b3o808b3o59b3o892b3o59b3o508b3o59b3o$1949bo142bo1387bobo
136bobo284b2o2b2o2b2o2b2o2b2o2b2o2b2o2b2o2b2o2b2o2b2o2b2o2b2o2b2o2b2o
2b2o2b2o2b2o2b2o2b2o2b2o2b2o2b2o2b2o2b2o2b2o2b2o2b2o2b2o2b2o2b2o2b2o2b
2o2b2o2b2o2b2o2b2o2b2o2b2o2b2o288bobo136bobo816bobo136bobo430bobo136bo
bo$1950bobo136bobo1387bo142bo283b2o2b2o2b2o2b2o2b2o2b2o2b2o2b2o2b2o2b
2o2b2o2b2o2b2o2b2o2b2o2b2o2b2o2b2o2b2o2b2o2b2o2b2o2b2o2b2o2b2o2b2o2b2o
2b2o2b2o2b2o2b2o2b2o2b2o2b2o2b2o2b2o2b2o2b2o2b2o2b2o287bo142bo814bo
142bo428bo142bo$1988b3o59b3o1426bo142bo728bo142bo814bo142bo428bo142bo$
1987bo2bo59bo2bo1425bo2bo15b3o100b3o15bo2bo728bo2bo15b3o100b3o15bo2bo
814bo2bo15b3o100b3o15bo2bo428bo2bo15b3o100b3o15bo2bo$1990bo17bobo19bob
o17bo1428b3o16bo2bo98bo2bo16b3o283b2o2b2o2b2o2b2o2b2o2b2o2b2o2b2o2b2o
2b2o2b2o2b2o2b2o2b2o2b2o2b2o2b2o2b2o2b2o2b2o2b2o2b2o2b2o2b2o2b2o2b2o2b
2o2b2o2b2o2b2o2b2o2b2o2b2o2b2o2b2o2b2o2b2o2b2o2b2o2b2o287b3o16bo2bo98b
o2bo16b3o814b3o16bo2bo98bo2bo16b3o428b3o16bo2bo98bo2bo16b3o$1990bo16bo
25bo16bo1447bo104bo302b2o2b2o2b2o2b2o2b2o2b2o2b2o2b2o2b2o2b2o2b2o2b2o
2b2o2b2o2b2o2b2o2b2o2b2o2b2o2b2o2b2o2b2o2b2o2b2o2b2o2b2o2b2o2b2o2b2o2b
2o2b2o2b2o2b2o2b2o2b2o2b2o2b2o2b2o2b2o2b2o306bo104bo852bo104bo466bo
104bo$1987bobo17bo25bo17bobo1444bo104bo766bo104bo852bo104bo466bo104bo$
2007bo2bo19bo2bo1465bobo98bobo768bobo98bobo854bobo98bobo468bobo98bobo$
2007b3o21b3o1503b3o21b3o338b2o2b2o2b2o2b2o2b2o2b2o2b2o2b2o2b2o2b2o2b2o
2b2o2b2o2b2o2b2o2b2o2b2o2b2o2b2o2b2o2b2o2b2o2b2o2b2o2b2o2b2o2b2o2b2o2b
2o2b2o2b2o2b2o2b2o2b2o2b2o2b2o2b2o2b2o2b2o2b2o2b2o2b2o342b3o21b3o930b
3o21b3o546b3o21b3o$1967bobo102bobo1461bo2bo21bo2bo337b2o2b2o2b2o2b2o2b
2o2b2o2b2o2b2o2b2o2b2o2b2o2b2o2b2o2b2o2b2o2b2o2b2o2b2o2b2o2b2o2b2o2b2o
2b2o2b2o2b2o2b2o2b2o2b2o2b2o2b2o2b2o2b2o2b2o2b2o2b2o2b2o2b2o2b2o2b2o2b
2o2b2o2b2o341bo2bo21bo2bo928bo2bo21bo2bo544bo2bo21bo2bo$1970bo100bo
1447bobo17bo21bo17bobo810bobo17bo21bo17bobo894bobo17bo21bo17bobo510bob
o17bo21bo17bobo$1970bo100bo1446bo20bo21bo20bo808bo20bo21bo20bo892bo20b
o21bo20bo508bo20bo21bo20bo$1949b3o15bo2bo100bo2bo15b3o1425bo17bobo23bo
bo17bo319b2o2b2o2b2o2b2o2b2o2b2o2b2o2b2o2b2o2b2o2b2o2b2o2b2o2b2o2b2o2b
2o2b2o2b2o2b2o2b2o2b2o2b2o2b2o2b2o2b2o2b2o2b2o2b2o2b2o2b2o2b2o2b2o2b2o
2b2o2b2o2b2o2b2o2b2o2b2o2b2o2b2o2b2o323bo17bobo23bobo17bo892bo17bobo
23bobo17bo508bo17bobo23bobo17bo$1948bo2bo16b3o100b3o16bo2bo1424bo2bo
57bo2bo319b2o2b2o2b2o2b2o2b2o2b2o2b2o2b2o2b2o2b2o2b2o2b2o2b2o2b2o2b2o
2b2o2b2o2b2o2b2o2b2o2b2o2b2o2b2o2b2o2b2o2b2o2b2o2b2o2b2o2b2o2b2o2b2o2b
2o2b2o2b2o2b2o2b2o2b2o2b2o2b2o2b2o2b2o323bo2bo57bo2bo892bo2bo57bo2bo
508bo2bo57bo2bo$1951bo138bo1427b3o59b3o808b3o59b3o892b3o59b3o508b3o59b
3o$1951bo138bo1387bobo140bobo726bobo140bobo812bobo140bobo426bobo140bob
o$1948bobo140bobo1387bo138bo277b2o2b2o2b2o2b2o2b2o2b2o2b2o2b2o2b2o2b2o
2b2o2b2o2b2o2b2o2b2o2b2o2b2o2b2o2b2o2b2o2b2o2b2o2b2o2b2o2b2o2b2o2b2o2b
2o2b2o2b2o2b2o2b2o2b2o2b2o2b2o2b2o2b2o2b2o2b2o2b2o2b2o2b2o2b2o2b2o281b
o138bo818bo138bo432bo138bo$1988b3o59b3o1428bo138bo277b2o2b2o2b2o2b2o2b
2o2b2o2b2o2b2o2b2o2b2o2b2o2b2o2b2o2b2o2b2o2b2o2b2o2b2o2b2o2b2o2b2o2b2o
2b2o2b2o2b2o2b2o2b2o2b2o2b2o2b2o2b2o2b2o2b2o2b2o2b2o2b2o2b2o2b2o2b2o2b
2o2b2o2b2o2b2o2b2o281bo138bo818bo138bo432bo138bo$1988bo2bo57bo2bo1425b
o2bo16b3o100b3o16bo2bo726bo2bo16b3o100b3o16bo2bo812bo2bo16b3o100b3o16b
o2bo426bo2bo16b3o100b3o16bo2bo$1988bo17bobo23bobo17bo1426b3o15bo2bo
100bo2bo15b3o728b3o15bo2bo100bo2bo15b3o814b3o15bo2bo100bo2bo15b3o428b
3o15bo2bo100bo2bo15b3o$1988bo20bo21bo20bo1447bo100bo296b2o2b2o2b2o2b2o
2b2o2b2o2b2o2b2o2b2o2b2o2b2o2b2o2b2o2b2o2b2o2b2o2b2o2b2o2b2o2b2o2b2o2b
2o2b2o2b2o2b2o2b2o2b2o2b2o2b2o2b2o2b2o2b2o2b2o2b2o2b2o2b2o2b2o2b2o2b2o
2b2o2b2o2b2o2b2o2b2o300bo100bo856bo100bo470bo100bo$1989bobo17bo21bo17b
obo1448bo100bo296b2o2b2o2b2o2b2o2b2o2b2o2b2o2b2o2b2o2b2o2b2o2b2o2b2o2b
2o2b2o2b2o2b2o2b2o2b2o2b2o2b2o2b2o2b2o2b2o2b2o2b2o2b2o2b2o2b2o2b2o2b2o
2b2o2b2o2b2o2b2o2b2o2b2o2b2o2b2o2b2o2b2o2b2o2b2o2b2o300bo100bo856bo
100bo470bo100bo$2006bo2bo21bo2bo1462bobo102bobo764bobo102bobo850bobo
102bobo464bobo102bobo$2007b3o21b3o1503b3o21b3o846b3o21b3o930b3o21b3o
546b3o21b3o$1969bobo98bobo1464bo2bo19bo2bo334b2o2b2o2b2o2b2o2b2o2b2o2b
2o2b2o2b2o2b2o2b2o2b2o2b2o2b2o2b2o2b2o2b2o2b2o2b2o2b2o2b2o2b2o2b2o2b2o
2b2o2b2o2b2o2b2o2b2o2b2o2b2o2b2o2b2o2b2o2b2o2b2o2b2o2b2o2b2o2b2o2b2o2b
2o2b2o2b2o338bo2bo19bo2bo930bo2bo19bo2bo546bo2bo19bo2bo$1968bo104bo
1443bobo17bo25bo17bobo314b2o2b2o2b2o2b2o2b2o2b2o2b2o2b2o2b2o2b2o2b2o2b
2o2b2o2b2o2b2o2b2o2b2o2b2o2b2o2b2o2b2o2b2o2b2o2b2o2b2o2b2o2b2o2b2o2b2o
2b2o2b2o2b2o2b2o2b2o2b2o2b2o2b2o2b2o2b2o2b2o2b2o2b2o2b2o2b2o318bobo17b
o25bo17bobo890bobo17bo25bo17bobo506bobo17bo25bo17bobo$1968bo104bo1446b
o16bo25bo16bo812bo16bo25bo16bo896bo16bo25bo16bo512bo16bo25bo16bo$1949b
3o16bo2bo98bo2bo16b3o1427bo17bobo19bobo17bo812bo17bobo19bobo17bo896bo
17bobo19bobo17bo512bo17bobo19bobo17bo$1949bo2bo15b3o100b3o15bo2bo1424b
o2bo59bo2bo310b2o2b2o2b2o2b2o2b2o2b2o2b2o2b2o2b2o2b2o2b2o2b2o2b2o2b2o
2b2o2b2o2b2o2b2o2b2o2b2o2b2o2b2o2b2o2b2o2b2o2b2o2b2o2b2o2b2o2b2o2b2o2b
2o2b2o2b2o2b2o2b2o2b2o2b2o2b2o2b2o2b2o2b2o2b2o2b2o2b2o2b2o314bo2bo59bo
2bo890bo2bo59bo2bo506bo2bo59bo2bo$1949bo142bo1425b3o59b3o311b2o2b2o2b
2o2b2o2b2o2b2o2b2o2b2o2b2o2b2o2b2o2b2o2b2o2b2o2b2o2b2o2b2o2b2o2b2o2b2o
2b2o2b2o2b2o2b2o2b2o2b2o2b2o2b2o2b2o2b2o2b2o2b2o2b2o2b2o2b2o2b2o2b2o2b
2o2b2o2b2o2b2o2b2o2b2o2b2o2b2o2b2o315b3o59b3o892b3o59b3o508b3o59b3o$
1949bo142bo1387bobo136bobo730bobo136bobo816bobo136bobo430bobo136bobo$
1950bobo136bobo1387bo142bo728bo142bo814bo142bo428bo142bo$1988b3o59b3o
1426bo142bo271b2o2b2o2b2o2b2o2b2o2b2o2b2o2b2o2b2o2b2o2b2o2b2o2b2o2b2o
2b2o2b2o2b2o2b2o2b2o2b2o2b2o2b2o2b2o2b2o2b2o2b2o2b2o2b2o2b2o2b2o2b2o2b
2o2b2o2b2o2b2o2b2o2b2o2b2o2b2o2b2o2b2o2b2o2b2o2b2o2b2o2b2o275bo142bo
814bo142bo428bo142bo$1987bo2bo59bo2bo1425bo2bo15b3o100b3o15bo2bo271b2o
2b2o2b2o2b2o2b2o2b2o2b2o2b2o2b2o2b2o2b2o2b2o2b2o2b2o2b2o2b2o2b2o2b2o2b
2o2b2o2b2o2b2o2b2o2b2o2b2o2b2o2b2o2b2o2b2o2b2o2b2o2b2o2b2o2b2o2b2o2b2o
2b2o2b2o2b2o2b2o2b2o2b2o2b2o2b2o2b2o2b2o275bo2bo15b3o100b3o15bo2bo814b
o2bo15b3o100b3o15bo2bo428bo2bo15b3o100b3o15bo2bo$1990bo17bobo19bobo17b
o1428b3o16bo2bo98bo2bo16b3o728b3o16bo2bo98bo2bo16b3o814b3o16bo2bo98bo
2bo16b3o428b3o16bo2bo98bo2bo16b3o$1990bo16bo25bo16bo1447bo104bo766bo
104bo852bo104bo466bo104bo$1987bobo17bo25bo17bobo1444bo104bo290b2o2b2o
2b2o2b2o2b2o2b2o2b2o2b2o2b2o2b2o2b2o2b2o2b2o2b2o2b2o2b2o2b2o2b2o2b2o2b
2o2b2o2b2o2b2o2b2o2b2o2b2o2b2o2b2o2b2o2b2o2b2o2b2o2b2o2b2o2b2o2b2o2b2o
2b2o2b2o2b2o2b2o2b2o2b2o2b2o2b2o2b2o294bo104bo852bo104bo466bo104bo$
2007bo2bo19bo2bo1465bobo98bobo291b2o2b2o2b2o2b2o2b2o2b2o2b2o2b2o2b2o2b
2o2b2o2b2o2b2o2b2o2b2o2b2o2b2o2b2o2b2o2b2o2b2o2b2o2b2o2b2o2b2o2b2o2b2o
2b2o2b2o2b2o2b2o2b2o2b2o2b2o2b2o2b2o2b2o2b2o2b2o2b2o2b2o2b2o2b2o2b2o2b
2o2b2o295bobo98bobo854bobo98bobo468bobo98bobo$2007b3o21b3o1503b3o21b3o
846b3o21b3o930b3o21b3o546b3o21b3o$1967bobo102bobo1461bo2bo21bo2bo844bo
2bo21bo2bo928bo2bo21bo2bo544bo2bo21bo2bo$1970bo100bo1447bobo17bo21bo
17bobo308b2o2b2o2b2o2b2o2b2o2b2o2b2o2b2o2b2o2b2o2b2o2b2o2b2o2b2o2b2o2b
2o2b2o2b2o2b2o2b2o2b2o2b2o2b2o2b2o2b2o2b2o2b2o2b2o2b2o2b2o2b2o2b2o2b2o
2b2o2b2o2b2o2b2o2b2o2b2o2b2o2b2o2b2o2b2o2b2o2b2o2b2o2b2o2b2o312bobo17b
o21bo17bobo894bobo17bo21bo17bobo510bobo17bo21bo17bobo$1970bo100bo1446b
o20bo21bo20bo307b2o2b2o2b2o2b2o2b2o2b2o2b2o2b2o2b2o2b2o2b2o2b2o2b2o2b
2o2b2o2b2o2b2o2b2o2b2o2b2o2b2o2b2o2b2o2b2o2b2o2b2o2b2o2b2o2b2o2b2o2b2o
2b2o2b2o2b2o2b2o2b2o2b2o2b2o2b2o2b2o2b2o2b2o2b2o2b2o2b2o2b2o2b2o2b2o
311bo20bo21bo20bo892bo20bo21bo20bo508bo20bo21bo20bo$1949b3o15bo2bo100b
o2bo15b3o1425bo17bobo23bobo17bo808bo17bobo23bobo17bo892bo17bobo23bobo
17bo508bo17bobo23bobo17bo$1948bo2bo16b3o100b3o16bo2bo1424bo2bo57bo2bo
808bo2bo57bo2bo892bo2bo57bo2bo508bo2bo57bo2bo$1951bo138bo1427b3o59b3o
307b2o2b2o2b2o2b2o2b2o2b2o2b2o2b2o2b2o2b2o2b2o2b2o2b2o2b2o2b2o2b2o2b2o
2b2o2b2o2b2o2b2o2b2o2b2o2b2o2b2o2b2o2b2o2b2o2b2o2b2o2b2o2b2o2b2o2b2o2b
2o2b2o2b2o2b2o2b2o2b2o2b2o2b2o2b2o2b2o2b2o2b2o2b2o2b2o311b3o59b3o892b
3o59b3o508b3o59b3o$1951bo138bo1387bobo140bobo266b2o2b2o2b2o2b2o2b2o2b
2o2b2o2b2o2b2o2b2o2b2o2b2o2b2o2b2o2b2o2b2o2b2o2b2o2b2o2b2o2b2o2b2o2b2o
2b2o2b2o2b2o2b2o2b2o2b2o2b2o2b2o2b2o2b2o2b2o2b2o2b2o2b2o2b2o2b2o2b2o2b
2o2b2o2b2o2b2o2b2o2b2o2b2o2b2o270bobo140bobo812bobo140bobo426bobo140bo
bo$1948bobo140bobo1387bo138bo732bo138bo818bo138bo432bo138bo$1988b3o59b
3o1428bo138bo732bo138bo818bo138bo432bo138bo$1988bo2bo57bo2bo1425bo2bo
16b3o100b3o16bo2bo266b2o2b2o2b2o2b2o2b2o2b2o2b2o2b2o2b2o2b2o2b2o2b2o2b
2o2b2o2b2o2b2o2b2o2b2o2b2o2b2o2b2o2b2o2b2o2b2o2b2o2b2o2b2o2b2o2b2o2b2o
2b2o2b2o2b2o2b2o2b2o2b2o2b2o2b2o2b2o2b2o2b2o2b2o2b2o2b2o2b2o2b2o2b2o2b
2o270bo2bo16b3o100b3o16bo2bo812bo2bo16b3o100b3o16bo2bo426bo2bo16b3o
100b3o16bo2bo$1988bo17bobo23bobo17bo1426b3o15bo2bo100bo2bo15b3o267b2o
2b2o2b2o2b2o2b2o2b2o2b2o2b2o2b2o2b2o2b2o2b2o2b2o2b2o2b2o2b2o2b2o2b2o2b
2o2b2o2b2o2b2o2b2o2b2o2b2o2b2o2b2o2b2o2b2o2b2o2b2o2b2o2b2o2b2o2b2o2b2o
2b2o2b2o2b2o2b2o2b2o2b2o2b2o2b2o2b2o2b2o2b2o2b2o271b3o15bo2bo100bo2bo
15b3o814b3o15bo2bo100bo2bo15b3o428b3o15bo2bo100bo2bo15b3o$1988bo20bo
21bo20bo1447bo100bo770bo100bo856bo100bo470bo100bo$1989bobo17bo21bo17bo
bo1448bo100bo770bo100bo856bo100bo470bo100bo$2006bo2bo21bo2bo1462bobo
102bobo285b2o2b2o2b2o2b2o2b2o2b2o2b2o2b2o2b2o2b2o2b2o2b2o2b2o2b2o2b2o
2b2o2b2o2b2o2b2o2b2o2b2o2b2o2b2o2b2o2b2o2b2o2b2o2b2o2b2o2b2o2b2o2b2o2b
2o2b2o2b2o2b2o2b2o2b2o2b2o2b2o2b2o2b2o2b2o2b2o2b2o2b2o2b2o2b2o289bobo
102bobo850bobo102bobo464bobo102bobo$2007b3o21b3o1503b3o21b3o326b2o2b2o
2b2o2b2o2b2o2b2o2b2o2b2o2b2o2b2o2b2o2b2o2b2o2b2o2b2o2b2o2b2o2b2o2b2o2b
2o2b2o2b2o2b2o2b2o2b2o2b2o2b2o2b2o2b2o2b2o2b2o2b2o2b2o2b2o2b2o2b2o2b2o
2b2o2b2o2b2o2b2o2b2o2b2o2b2o2b2o2b2o2b2o2b2o330b3o21b3o930b3o21b3o546b
3o21b3o$1969bobo98bobo1464bo2bo19bo2bo846bo2bo19bo2bo930bo2bo19bo2bo
546bo2bo19bo2bo$1968bo104bo1443bobo17bo25bo17bobo806bobo17bo25bo17bobo
890bobo17bo25bo17bobo506bobo17bo25bo17bobo$1968bo104bo1446bo16bo25bo
16bo309b2o2b2o2b2o2b2o2b2o2b2o2b2o2b2o2b2o2b2o2b2o2b2o2b2o2b2o2b2o2b2o
2b2o2b2o2b2o2b2o2b2o2b2o2b2o10b2o2b2o2b2o2b2o2b2o2b2o2b2o2b2o2b2o2b2o
2b2o2b2o2b2o2b2o2b2o2b2o2b2o2b2o2b2o2b2o2b2o2b2o2b2o313bo16bo25bo16bo
896bo16bo25bo16bo512bo16bo25bo16bo$1949b3o16bo2bo98bo2bo16b3o1427bo17b
obo19bobo17bo309b2o2b2o2b2o2b2o2b2o2b2o2b2o2b2o2b2o2b2o2b2o2b2o2b2o2b
2o2b2o2b2o2b2o2b2o2b2o2b2o2b2o2b2o2b2o10b2o2b2o2b2o2b2o2b2o2b2o2b2o2b
2o2b2o2b2o2b2o2b2o2b2o2b2o2b2o2b2o2b2o2b2o2b2o2b2o2b2o2b2o2b2o313bo17b
obo19bobo17bo896bo17bobo19bobo17bo512bo17bobo19bobo17bo$1949bo2bo15b3o
100b3o15bo2bo1424bo2bo59bo2bo806bo2bo59bo2bo890bo2bo59bo2bo506bo2bo59b
o2bo$1949bo142bo1425b3o59b3o808b3o59b3o892b3o59b3o508b3o59b3o$1949bo
142bo1387bobo136bobo268b2o2b2o2b2o2b2o2b2o2b2o2b2o2b2o2b2o2b2o2b2o2b2o
2b2o2b2o2b2o2b2o2b2o2b2o2b2o2b2o2b2o2b2o2b2o10b2o2b2o2b2o2b2o2b2o2b2o
2b2o2b2o2b2o2b2o2b2o2b2o2b2o2b2o2b2o2b2o2b2o2b2o2b2o2b2o2b2o2b2o2b2o
272bobo136bobo816bobo136bobo430bobo136bobo$1950bobo136bobo1387bo142bo
267b2o2b2o2b2o2b2o2b2o2b2o2b2o2b2o2b2o2b2o2b2o2b2o2b2o2b2o2b2o2b2o2b2o
2b2o2b2o2b2o2b2o2b2o2b2o10b2o2b2o2b2o2b2o2b2o2b2o2b2o2b2o2b2o2b2o2b2o
2b2o2b2o2b2o2b2o2b2o2b2o2b2o2b2o2b2o2b2o2b2o2b2o271bo142bo814bo142bo
428bo142bo$1988b3o59b3o1426bo142bo728bo142bo814bo142bo428bo142bo$1987b
o2bo59bo2bo1425bo2bo15b3o100b3o15bo2bo728bo2bo15b3o100b3o15bo2bo814bo
2bo15b3o100b3o15bo2bo428bo2bo15b3o100b3o15bo2bo$1990bo17bobo19bobo17bo
1428b3o16bo2bo98bo2bo16b3o267b2o2b2o2b2o2b2o2b2o2b2o2b2o2b2o2b2o2b2o2b
2o2b2o2b2o2b2o2b2o2b2o2b2o2b2o2b2o2b2o2b2o2b2o2b2o2b2o2b2o2b2o2b2o2b2o
2b2o2b2o2b2o2b2o2b2o2b2o2b2o2b2o2b2o2b2o2b2o2b2o2b2o2b2o2b2o2b2o2b2o2b
2o2b2o2b2o271b3o16bo2bo98bo2bo16b3o814b3o16bo2bo98bo2bo16b3o428b3o16bo
2bo98bo2bo16b3o$1990bo16bo25bo16bo1447bo104bo286b2o2b2o2b2o2b2o2b2o2b
2o2b2o2b2o2b2o2b2o2b2o2b2o2b2o2b2o2b2o2b2o2b2o2b2o2b2o2b2o2b2o2b2o2b2o
2b2o2b2o2b2o2b2o2b2o2b2o2b2o2b2o2b2o2b2o2b2o2b2o2b2o2b2o2b2o2b2o2b2o2b
2o2b2o2b2o2b2o2b2o2b2o2b2o2b2o290bo104bo852bo104bo466bo104bo$1987bobo
17bo25bo17bobo1444bo104bo766bo104bo852bo104bo466bo104bo$2007bo2bo19bo
2bo1465bobo98bobo768bobo98bobo854bobo98bobo468bobo98bobo$2007b3o21b3o
1503b3o21b3o326b2o2b2o2b2o2b2o2b2o2b2o2b2o2b2o2b2o2b2o2b2o2b2o2b2o2b2o
2b2o2b2o2b2o2b2o2b2o2b2o2b2o2b2o2b2o2b2o2b2o2b2o2b2o2b2o2b2o2b2o2b2o2b
2o2b2o2b2o2b2o2b2o2b2o2b2o2b2o2b2o2b2o2b2o2b2o2b2o2b2o2b2o2b2o2b2o330b
3o21b3o930b3o21b3o546b3o21b3o$1967bobo102bobo1461bo2bo21bo2bo325b2o2b
2o2b2o2b2o2b2o2b2o2b2o2b2o2b2o2b2o2b2o2b2o2b2o2b2o2b2o2b2o2b2o2b2o2b2o
2b2o2b2o2b2o2b2o2b2o2b2o2b2o2b2o2b2o2b2o2b2o2b2o2b2o2b2o2b2o2b2o2b2o2b
2o2b2o2b2o2b2o2b2o2b2o2b2o2b2o2b2o2b2o2b2o2b2o329bo2bo21bo2bo928bo2bo
21bo2bo544bo2bo21bo2bo$1970bo100bo1447bobo17bo21bo17bobo810bobo17bo21b
o17bobo894bobo17bo21bo17bobo510bobo17bo21bo17bobo$1970bo100bo1446bo20b
o21bo20bo808bo20bo21bo20bo892bo20bo21bo20bo508bo20bo21bo20bo$1949b3o
15bo2bo100bo2bo15b3o1425bo17bobo23bobo17bo307b2o2b2o2b2o2b2o2b2o2b2o2b
2o2b2o2b2o2b2o2b2o2b2o2b2o2b2o2b2o2b2o2b2o2b2o2b2o2b2o2b2o2b2o2b2o2b2o
2b2o2b2o2b2o2b2o2b2o2b2o2b2o2b2o2b2o2b2o2b2o2b2o2b2o2b2o2b2o2b2o2b2o2b
2o2b2o2b2o2b2o2b2o2b2o2b2o311bo17bobo23bobo17bo892bo17bobo23bobo17bo
508bo17bobo23bobo17bo$1948bo2bo16b3o100b3o16bo2bo1424bo2bo57bo2bo307b
2o2b2o2b2o2b2o2b2o2b2o2b2o2b2o2b2o2b2o2b2o2b2o2b2o2b2o2b2o2b2o2b2o2b2o
2b2o2b2o2b2o2b2o2b2o2b2o2b2o2b2o2b2o2b2o2b2o2b2o2b2o2b2o2b2o2b2o2b2o2b
2o2b2o2b2o2b2o2b2o2b2o2b2o2b2o2b2o2b2o2b2o2b2o2b2o311bo2bo57bo2bo892bo
2bo57bo2bo508bo2bo57bo2bo$1951bo138bo1427b3o59b3o808b3o59b3o892b3o59b
3o508b3o59b3o$1951bo138bo1387bobo140bobo726bobo140bobo812bobo140bobo
426bobo140bobo$1948bobo140bobo1387bo138bo269b2o2b2o2b2o2b2o2b2o2b2o2b
2o2b2o2b2o2b2o2b2o2b2o2b2o2b2o2b2o2b2o2b2o2b2o2b2o2b2o2b2o2b2o2b2o2b2o
2b2o2b2o2b2o2b2o2b2o2b2o2b2o2b2o2b2o2b2o2b2o2b2o2b2o2b2o2b2o2b2o2b2o2b
2o2b2o2b2o2b2o2b2o2b2o2b2o273bo138bo818bo138bo432bo138bo$1988b3o59b3o
1428bo138bo269b2o2b2o2b2o2b2o2b2o2b2o2b2o2b2o2b2o2b2o2b2o2b2o2b2o2b2o
2b2o2b2o2b2o2b2o2b2o2b2o2b2o2b2o2b2o2b2o2b2o2b2o2b2o2b2o2b2o2b2o2b2o2b
2o2b2o2b2o2b2o2b2o2b2o2b2o2b2o2b2o2b2o2b2o2b2o2b2o2b2o2b2o2b2o2b2o273b
o138bo818bo138bo432bo138bo$1988bo2bo57bo2bo1425bo2bo16b3o100b3o16bo2bo
726bo2bo16b3o100b3o16bo2bo812bo2bo16b3o100b3o16bo2bo426bo2bo16b3o100b
3o16bo2bo$1988bo17bobo23bobo17bo1426b3o15bo2bo100bo2bo15b3o728b3o15bo
2bo100bo2bo15b3o814b3o15bo2bo100bo2bo15b3o428b3o15bo2bo100bo2bo15b3o$
1988bo20bo21bo20bo1447bo100bo292b2o2b2o2b2o2b2o2b2o2b2o2b2o2b2o2b2o2b
2o2b2o2b2o2b2o2b2o2b2o2b2o2b2o2b2o2b2o2b2o2b2o2b2o2b2o2b2o2b2o2b2o2b2o
2b2o2b2o2b2o2b2o2b2o2b2o2b2o2b2o2b2o2b2o2b2o2b2o2b2o2b2o2b2o2b2o2b2o2b
2o2b2o296bo100bo856bo100bo470bo100bo$1989bobo17bo21bo17bobo1448bo100bo
292b2o2b2o2b2o2b2o2b2o2b2o2b2o2b2o2b2o2b2o2b2o2b2o2b2o2b2o2b2o2b2o2b2o
2b2o2b2o2b2o2b2o2b2o2b2o2b2o2b2o2b2o2b2o2b2o2b2o2b2o2b2o2b2o2b2o2b2o2b
2o2b2o2b2o2b2o2b2o2b2o2b2o2b2o2b2o2b2o2b2o2b2o296bo100bo856bo100bo470b
o100bo$2006bo2bo21bo2bo1462bobo102bobo764bobo102bobo850bobo102bobo464b
obo102bobo$2007b3o21b3o1503b3o21b3o846b3o21b3o930b3o21b3o546b3o21b3o$
1969bobo98bobo1464bo2bo19bo2bo330b2o2b2o2b2o2b2o2b2o2b2o2b2o2b2o2b2o2b
2o2b2o2b2o2b2o2b2o2b2o2b2o2b2o2b2o2b2o2b2o2b2o2b2o2b2o2b2o2b2o2b2o2b2o
2b2o2b2o2b2o2b2o2b2o2b2o2b2o2b2o2b2o2b2o2b2o2b2o2b2o2b2o2b2o2b2o2b2o2b
2o2b2o334bo2bo19bo2bo930bo2bo19bo2bo546bo2bo19bo2bo$1968bo104bo1443bob
o17bo25bo17bobo310b2o2b2o2b2o2b2o2b2o2b2o2b2o2b2o2b2o2b2o2b2o2b2o2b2o
2b2o2b2o2b2o2b2o2b2o2b2o2b2o2b2o2b2o2b2o2b2o2b2o2b2o2b2o2b2o2b2o2b2o2b
2o2b2o2b2o2b2o2b2o2b2o2b2o2b2o2b2o2b2o2b2o2b2o2b2o2b2o2b2o2b2o314bobo
17bo25bo17bobo890bobo17bo25bo17bobo506bobo17bo25bo17bobo$1968bo104bo
1446bo16bo25bo16bo812bo16bo25bo16bo896bo16bo25bo16bo512bo16bo25bo16bo$
1949b3o16bo2bo98bo2bo16b3o1427bo17bobo19bobo17bo812bo17bobo19bobo17bo
896bo17bobo19bobo17bo512bo17bobo19bobo17bo$1949bo2bo15b3o100b3o15bo2bo
1424bo2bo59bo2bo310b2o2b2o2b2o2b2o2b2o2b2o2b2o2b2o2b2o2b2o2b2o2b2o2b2o
2b2o2b2o2b2o2b2o2b2o2b2o2b2o2b2o2b2o2b2o2b2o2b2o2b2o2b2o2b2o2b2o2b2o2b
2o2b2o2b2o2b2o2b2o2b2o2b2o2b2o2b2o2b2o2b2o2b2o2b2o2b2o2b2o2b2o314bo2bo
59bo2bo890bo2bo59bo2bo506bo2bo59bo2bo$1949bo142bo1425b3o59b3o311b2o2b
2o2b2o2b2o2b2o2b2o2b2o2b2o2b2o2b2o2b2o2b2o2b2o2b2o2b2o2b2o2b2o2b2o2b2o
2b2o2b2o2b2o2b2o2b2o2b2o2b2o2b2o2b2o2b2o2b2o2b2o2b2o2b2o2b2o2b2o2b2o2b
2o2b2o2b2o2b2o2b2o2b2o2b2o2b2o2b2o2b2o315b3o59b3o892b3o59b3o508b3o59b
3o$1949bo142bo1387bobo136bobo730bobo136bobo816bobo136bobo430bobo136bob
o$1950bobo136bobo1387bo142bo728bo142bo814bo142bo428bo142bo$1988b3o59b
3o1426bo142bo275b2o2b2o2b2o2b2o2b2o2b2o2b2o2b2o2b2o2b2o2b2o2b2o2b2o2b
2o2b2o2b2o2b2o2b2o2b2o2b2o2b2o2b2o2b2o2b2o2b2o2b2o2b2o2b2o2b2o2b2o2b2o
2b2o2b2o2b2o2b2o2b2o2b2o2b2o2b2o2b2o2b2o2b2o2b2o2b2o279bo142bo814bo
142bo428bo142bo$1987bo2bo59bo2bo1425bo2bo15b3o100b3o15bo2bo275b2o2b2o
2b2o2b2o2b2o2b2o2b2o2b2o2b2o2b2o2b2o2b2o2b2o2b2o2b2o2b2o2b2o2b2o2b2o2b
2o2b2o2b2o2b2o2b2o2b2o2b2o2b2o2b2o2b2o2b2o2b2o2b2o2b2o2b2o2b2o2b2o2b2o
2b2o2b2o2b2o2b2o2b2o2b2o2b2o279bo2bo15b3o100b3o15bo2bo814bo2bo15b3o
100b3o15bo2bo428bo2bo15b3o100b3o15bo2bo$1990bo17bobo19bobo17bo1428b3o
16bo2bo98bo2bo16b3o728b3o16bo2bo98bo2bo16b3o814b3o16bo2bo98bo2bo16b3o
428b3o16bo2bo98bo2bo16b3o$1990bo16bo25bo16bo1447bo104bo766bo104bo852bo
104bo466bo104bo$1987bobo17bo25bo17bobo1444bo104bo294b2o2b2o2b2o2b2o2b
2o2b2o2b2o2b2o2b2o2b2o2b2o2b2o2b2o2b2o2b2o2b2o2b2o2b2o2b2o2b2o2b2o2b2o
2b2o2b2o2b2o2b2o2b2o2b2o2b2o2b2o2b2o2b2o2b2o2b2o2b2o2b2o2b2o2b2o2b2o2b
2o2b2o2b2o2b2o2b2o298bo104bo852bo104bo466bo104bo$2007bo2bo19bo2bo1465b
obo98bobo295b2o2b2o2b2o2b2o2b2o2b2o2b2o2b2o2b2o2b2o2b2o2b2o2b2o2b2o2b
2o2b2o2b2o2b2o2b2o2b2o2b2o2b2o2b2o2b2o2b2o2b2o2b2o2b2o2b2o2b2o2b2o2b2o
2b2o2b2o2b2o2b2o2b2o2b2o2b2o2b2o2b2o2b2o2b2o2b2o299bobo98bobo854bobo
98bobo468bobo98bobo$2007b3o21b3o1503b3o21b3o846b3o21b3o930b3o21b3o546b
3o21b3o$1967bobo102bobo1461bo2bo21bo2bo844bo2bo21bo2bo928bo2bo21bo2bo
544bo2bo21bo2bo$1970bo100bo1447bobo17bo21bo17bobo316b2o2b2o2b2o2b2o2b
2o2b2o2b2o2b2o2b2o2b2o2b2o2b2o2b2o2b2o2b2o2b2o2b2o2b2o2b2o2b2o2b2o2b2o
2b2o2b2o2b2o2b2o2b2o2b2o2b2o2b2o2b2o2b2o2b2o2b2o2b2o2b2o2b2o2b2o2b2o2b
2o2b2o2b2o2b2o2b2o320bobo17bo21bo17bobo894bobo17bo21bo17bobo510bobo17b
o21bo17bobo$1970bo100bo1446bo20bo21bo20bo315b2o2b2o2b2o2b2o2b2o2b2o2b
2o2b2o2b2o2b2o2b2o2b2o2b2o2b2o2b2o2b2o2b2o2b2o2b2o2b2o2b2o2b2o2b2o2b2o
2b2o2b2o2b2o2b2o2b2o2b2o2b2o2b2o2b2o2b2o2b2o2b2o2b2o2b2o2b2o2b2o2b2o2b
2o2b2o2b2o319bo20bo21bo20bo892bo20bo21bo20bo508bo20bo21bo20bo$1949b3o
15bo2bo100bo2bo15b3o1425bo17bobo23bobo17bo808bo17bobo23bobo17bo892bo
17bobo23bobo17bo508bo17bobo23bobo17bo$1948bo2bo16b3o100b3o16bo2bo1424b
o2bo57bo2bo808bo2bo57bo2bo892bo2bo57bo2bo508bo2bo57bo2bo$1951bo138bo
1427b3o59b3o319b2o2b2o2b2o2b2o2b2o2b2o2b2o2b2o2b2o2b2o2b2o2b2o2b2o2b2o
2b2o2b2o2b2o2b2o2b2o2b2o2b2o2b2o2b2o2b2o2b2o2b2o2b2o2b2o2b2o2b2o2b2o2b
2o2b2o2b2o2b2o2b2o2b2o2b2o2b2o2b2o2b2o2b2o323b3o59b3o892b3o59b3o508b3o
59b3o$1951bo138bo1387bobo140bobo278b2o2b2o2b2o2b2o2b2o2b2o2b2o2b2o2b2o
2b2o2b2o2b2o2b2o2b2o2b2o2b2o2b2o2b2o2b2o2b2o2b2o2b2o2b2o2b2o2b2o2b2o2b
2o2b2o2b2o2b2o2b2o2b2o2b2o2b2o2b2o2b2o2b2o2b2o2b2o2b2o2b2o2b2o282bobo
140bobo812bobo140bobo426bobo140bobo$1948bobo140bobo1387bo138bo732bo
138bo818bo138bo432bo138bo$1988b3o59b3o1428bo138bo732bo138bo818bo138bo
432bo138bo$1988bo2bo57bo2bo1425bo2bo16b3o100b3o16bo2bo278b2o2b2o2b2o2b
2o2b2o2b2o2b2o2b2o2b2o2b2o2b2o2b2o2b2o2b2o2b2o2b2o2b2o2b2o2b2o2b2o2b2o
2b2o2b2o2b2o2b2o2b2o2b2o2b2o2b2o2b2o2b2o2b2o2b2o2b2o2b2o2b2o2b2o2b2o2b
2o2b2o2b2o2b2o282bo2bo16b3o100b3o16bo2bo812bo2bo16b3o100b3o16bo2bo426b
o2bo16b3o100b3o16bo2bo$1988bo17bobo23bobo17bo1426b3o15bo2bo100bo2bo15b
3o279b2o2b2o2b2o2b2o2b2o2b2o2b2o2b2o2b2o2b2o2b2o2b2o2b2o2b2o2b2o2b2o2b
2o2b2o2b2o2b2o2b2o2b2o2b2o2b2o2b2o2b2o2b2o2b2o2b2o2b2o2b2o2b2o2b2o2b2o
2b2o2b2o2b2o2b2o2b2o2b2o2b2o2b2o283b3o15bo2bo100bo2bo15b3o814b3o15bo2b
o100bo2bo15b3o428b3o15bo2bo100bo2bo15b3o$1988bo20bo21bo20bo1447bo100bo
770bo100bo856bo100bo470bo100bo$1989bobo17bo21bo17bobo1448bo100bo770bo
100bo856bo100bo470bo100bo$2006bo2bo21bo2bo1462bobo102bobo301b2o2b2o2b
2o2b2o2b2o2b2o2b2o2b2o2b2o2b2o2b2o2b2o2b2o2b2o2b2o2b2o2b2o2b2o2b2o2b2o
2b2o2b2o2b2o2b2o2b2o2b2o2b2o2b2o2b2o2b2o2b2o2b2o2b2o2b2o2b2o2b2o2b2o2b
2o2b2o2b2o305bobo102bobo850bobo102bobo464bobo102bobo$2007b3o21b3o1503b
3o21b3o342b2o2b2o2b2o2b2o2b2o2b2o2b2o2b2o2b2o2b2o2b2o2b2o2b2o2b2o2b2o
2b2o2b2o2b2o2b2o2b2o2b2o2b2o2b2o2b2o2b2o2b2o2b2o2b2o2b2o2b2o2b2o2b2o2b
2o2b2o2b2o2b2o2b2o2b2o2b2o2b2o346b3o21b3o930b3o21b3o546b3o21b3o$1969bo
bo98bobo1464bo2bo19bo2bo846bo2bo19bo2bo930bo2bo19bo2bo546bo2bo19bo2bo$
1968bo104bo1443bobo17bo25bo17bobo806bobo17bo25bo17bobo890bobo17bo25bo
17bobo506bobo17bo25bo17bobo$1968bo104bo1446bo16bo25bo16bo325b2o2b2o2b
2o2b2o2b2o2b2o2b2o2b2o2b2o2b2o2b2o2b2o2b2o2b2o2b2o2b2o2b2o2b2o2b2o2b2o
2b2o2b2o2b2o2b2o2b2o2b2o2b2o2b2o2b2o2b2o2b2o2b2o2b2o2b2o2b2o2b2o2b2o2b
2o2b2o2b2o329bo16bo25bo16bo896bo16bo25bo16bo512bo16bo25bo16bo$1949b3o
16bo2bo98bo2bo16b3o1427bo17bobo19bobo17bo325b2o2b2o2b2o2b2o2b2o2b2o2b
2o2b2o2b2o2b2o2b2o2b2o2b2o2b2o2b2o2b2o2b2o2b2o2b2o2b2o2b2o2b2o2b2o2b2o
2b2o2b2o2b2o2b2o2b2o2b2o2b2o2b2o2b2o2b2o2b2o2b2o2b2o2b2o2b2o2b2o329bo
17bobo19bobo17bo896bo17bobo19bobo17bo512bo17bobo19bobo17bo$1949bo2bo
15b3o100b3o15bo2bo1424bo2bo59bo2bo806bo2bo59bo2bo890bo2bo59bo2bo506bo
2bo59bo2bo$1949bo142bo1425b3o59b3o808b3o59b3o892b3o59b3o508b3o59b3o$
1949bo142bo1387bobo136bobo288b2o2b2o2b2o2b2o2b2o2b2o2b2o2b2o2b2o2b2o2b
2o2b2o2b2o2b2o2b2o2b2o2b2o2b2o2b2o2b2o2b2o2b2o2b2o2b2o2b2o2b2o2b2o2b2o
2b2o2b2o2b2o2b2o2b2o2b2o2b2o2b2o2b2o2b2o292bobo136bobo816bobo136bobo
430bobo136bobo$1950bobo136bobo1387bo142bo287b2o2b2o2b2o2b2o2b2o2b2o2b
2o2b2o2b2o2b2o2b2o2b2o2b2o2b2o2b2o2b2o2b2o2b2o2b2o2b2o2b2o2b2o2b2o2b2o
2b2o2b2o2b2o2b2o2b2o2b2o2b2o2b2o2b2o2b2o2b2o2b2o2b2o2b2o291bo142bo814b
o142bo428bo142bo$1988b3o59b3o1426bo142bo728bo142bo814bo142bo428bo142bo
$1987bo2bo59bo2bo1425bo2bo15b3o100b3o15bo2bo728bo2bo15b3o100b3o15bo2bo
814bo2bo15b3o100b3o15bo2bo428bo2bo15b3o100b3o15bo2bo$1990bo17bobo19bob
o17bo1428b3o16bo2bo98bo2bo16b3o291b2o2b2o2b2o2b2o2b2o2b2o2b2o2b2o2b2o
2b2o2b2o2b2o2b2o2b2o2b2o2b2o2b2o2b2o2b2o2b2o2b2o2b2o2b2o2b2o2b2o2b2o2b
2o2b2o2b2o2b2o2b2o2b2o2b2o2b2o2b2o2b2o295b3o16bo2bo98bo2bo16b3o814b3o
16bo2bo98bo2bo16b3o428b3o16bo2bo98bo2bo16b3o$1990bo16bo25bo16bo1447bo
104bo310b2o2b2o2b2o2b2o2b2o2b2o2b2o2b2o2b2o2b2o2b2o2b2o2b2o2b2o2b2o2b
2o2b2o2b2o2b2o2b2o2b2o2b2o2b2o2b2o2b2o2b2o2b2o2b2o2b2o2b2o2b2o2b2o2b2o
2b2o2b2o2b2o314bo104bo852bo104bo466bo104bo$1987bobo17bo25bo17bobo1444b
o104bo766bo104bo852bo104bo466bo104bo$2007bo2bo19bo2bo1465bobo98bobo
768bobo98bobo854bobo98bobo468bobo98bobo$2007b3o21b3o1503b3o21b3o354b2o
2b2o2b2o2b2o2b2o2b2o2b2o2b2o2b2o2b2o2b2o2b2o2b2o2b2o2b2o2b2o2b2o2b2o2b
2o2b2o2b2o2b2o2b2o2b2o2b2o2b2o2b2o2b2o2b2o2b2o2b2o2b2o2b2o2b2o358b3o
21b3o930b3o21b3o546b3o21b3o$1967bobo102bobo1461bo2bo21bo2bo353b2o2b2o
2b2o2b2o2b2o2b2o2b2o2b2o2b2o2b2o2b2o2b2o2b2o2b2o2b2o2b2o2b2o2b2o2b2o2b
2o2b2o2b2o2b2o2b2o2b2o2b2o2b2o2b2o2b2o2b2o2b2o2b2o2b2o2b2o357bo2bo21bo
2bo928bo2bo21bo2bo544bo2bo21bo2bo$1970bo100bo1447bobo17bo21bo17bobo
810bobo17bo21bo17bobo894bobo17bo21bo17bobo510bobo17bo21bo17bobo$1970bo
100bo1446bo20bo21bo20bo808bo20bo21bo20bo892bo20bo21bo20bo508bo20bo21bo
20bo$1949b3o15bo2bo100bo2bo15b3o1425bo17bobo23bobo17bo339b2o2b2o2b2o2b
2o2b2o2b2o2b2o2b2o2b2o2b2o2b2o2b2o2b2o2b2o2b2o2b2o2b2o2b2o2b2o2b2o2b2o
2b2o2b2o2b2o2b2o2b2o2b2o2b2o2b2o2b2o2b2o2b2o343bo17bobo23bobo17bo892bo
17bobo23bobo17bo508bo17bobo23bobo17bo$1948bo2bo16b3o100b3o16bo2bo1424b
o2bo57bo2bo339b2o2b2o2b2o2b2o2b2o2b2o2b2o2b2o2b2o2b2o2b2o2b2o2b2o2b2o
2b2o2b2o2b2o2b2o2b2o2b2o2b2o2b2o2b2o2b2o2b2o2b2o2b2o2b2o2b2o2b2o2b2o2b
2o343bo2bo57bo2bo892bo2bo57bo2bo508bo2bo57bo2bo$1951bo138bo1427b3o59b
3o808b3o59b3o892b3o59b3o508b3o59b3o$1951bo138bo1387bobo140bobo726bobo
140bobo812bobo140bobo426bobo140bobo$1948bobo140bobo1387bo138bo305b2o2b
2o2b2o2b2o2b2o2b2o2b2o2b2o2b2o2b2o2b2o2b2o2b2o2b2o2b2o2b2o2b2o2b2o2b2o
2b2o2b2o2b2o2b2o2b2o2b2o2b2o2b2o2b2o2b2o2b2o309bo138bo818bo138bo432bo
138bo$1988b3o59b3o1428bo138bo305b2o2b2o2b2o2b2o2b2o2b2o2b2o2b2o2b2o2b
2o2b2o2b2o2b2o2b2o2b2o2b2o2b2o2b2o2b2o2b2o2b2o2b2o2b2o2b2o2b2o2b2o2b2o
2b2o2b2o2b2o309bo138bo818bo138bo432bo138bo$1988bo2bo57bo2bo1425bo2bo
16b3o100b3o16bo2bo726bo2bo16b3o100b3o16bo2bo812bo2bo16b3o100b3o16bo2bo
426bo2bo16b3o100b3o16bo2bo$1988bo17bobo23bobo17bo1426b3o15bo2bo100bo2b
o15b3o728b3o15bo2bo100bo2bo15b3o814b3o15bo2bo100bo2bo15b3o428b3o15bo2b
o100bo2bo15b3o$1988bo20bo21bo20bo1447bo100bo332b2o2b2o2b2o2b2o2b2o2b2o
2b2o2b2o2b2o2b2o2b2o2b2o2b2o2b2o2b2o2b2o2b2o2b2o2b2o2b2o2b2o2b2o2b2o2b
2o2b2o2b2o336bo100bo856bo100bo470bo100bo$1989bobo17bo21bo17bobo1448bo
100bo332b2o2b2o2b2o2b2o2b2o2b2o2b2o2b2o2b2o2b2o2b2o2b2o2b2o2b2o2b2o2b
2o2b2o2b2o2b2o2b2o2b2o2b2o2b2o2b2o2b2o2b2o336bo100bo856bo100bo470bo
100bo$2006bo2bo21bo2bo1462bobo102bobo764bobo102bobo850bobo102bobo464bo
bo102bobo$2007b3o21b3o1503b3o21b3o846b3o21b3o930b3o21b3o546b3o21b3o$
1969bobo98bobo1464bo2bo19bo2bo378b2o2b2o2b2o2b2o2b2o2b2o2b2o2b2o2b2o2b
2o2b2o2b2o2b2o2b2o2b2o2b2o2b2o2b2o2b2o2b2o2b2o2b2o382bo2bo19bo2bo930bo
2bo19bo2bo546bo2bo19bo2bo$1968bo104bo1443bobo17bo25bo17bobo358b2o2b2o
2b2o2b2o2b2o2b2o2b2o2b2o2b2o2b2o2b2o2b2o2b2o2b2o2b2o2b2o2b2o2b2o2b2o2b
2o2b2o2b2o362bobo17bo25bo17bobo890bobo17bo25bo17bobo506bobo17bo25bo17b
obo$1968bo104bo1446bo16bo25bo16bo812bo16bo25bo16bo896bo16bo25bo16bo
512bo16bo25bo16bo$1949b3o16bo2bo98bo2bo16b3o1427bo17bobo19bobo17bo812b
o17bobo19bobo17bo896bo17bobo19bobo17bo512bo17bobo19bobo17bo$1949bo2bo
15b3o100b3o15bo2bo1424bo2bo59bo2bo370b2o2b2o2b2o2b2o2b2o2b2o2b2o2b2o2b
2o2b2o2b2o2b2o2b2o2b2o2b2o2b2o374bo2bo59bo2bo890bo2bo59bo2bo506bo2bo
59bo2bo$1949bo142bo1425b3o59b3o371b2o2b2o2b2o2b2o2b2o2b2o2b2o2b2o2b2o
2b2o2b2o2b2o2b2o2b2o2b2o2b2o375b3o59b3o892b3o59b3o508b3o59b3o$1949bo
142bo1387bobo136bobo730bobo136bobo816bobo136bobo430bobo136bobo$1950bob
o136bobo1387bo142bo728bo142bo814bo142bo428bo142bo$1988b3o59b3o1426bo
142bo343b2o2b2o2b2o2b2o2b2o2b2o2b2o2b2o2b2o2b2o347bo142bo814bo142bo
428bo142bo$1987bo2bo59bo2bo1425bo2bo15b3o100b3o15bo2bo343b2o2b2o2b2o2b
2o2b2o2b2o2b2o2b2o2b2o2b2o347bo2bo15b3o100b3o15bo2bo814bo2bo15b3o100b
3o15bo2bo428bo2bo15b3o100b3o15bo2bo$1990bo17bobo19bobo17bo1428b3o16bo
2bo98bo2bo16b3o728b3o16bo2bo98bo2bo16b3o814b3o16bo2bo98bo2bo16b3o428b
3o16bo2bo98bo2bo16b3o$1990bo16bo25bo16bo1447bo104bo766bo104bo852bo104b
o466bo104bo$1987bobo17bo25bo17bobo1444bo104bo766bo104bo852bo104bo466bo
104bo$2007bo2bo19bo2bo1465bobo98bobo768bobo98bobo854bobo98bobo468bobo
98bobo$2007b3o21b3o1503b3o21b3o846b3o21b3o930b3o21b3o546b3o21b3o$1967b
obo102bobo1461bo2bo21bo2bo844bo2bo21bo2bo928bo2bo21bo2bo544bo2bo21bo2b
o$1970bo100bo1447bobo17bo21bo17bobo810bobo17bo21bo17bobo894bobo17bo21b
o17bobo510bobo17bo21bo17bobo$1970bo100bo1446bo20bo21bo20bo808bo20bo21b
o20bo892bo20bo21bo20bo508bo20bo21bo20bo$1949b3o15bo2bo100bo2bo15b3o
1425bo17bobo23bobo17bo808bo17bobo23bobo17bo892bo17bobo23bobo17bo508bo
17bobo23bobo17bo$1948bo2bo16b3o100b3o16bo2bo1424bo2bo57bo2bo808bo2bo
57bo2bo892bo2bo57bo2bo508bo2bo57bo2bo$1951bo138bo1427b3o59b3o808b3o59b
3o892b3o59b3o508b3o59b3o$1951bo138bo1387bobo140bobo726bobo140bobo812bo
bo140bobo426bobo140bobo$1948bobo140bobo1387bo138bo732bo138bo818bo138bo
432bo138bo$1988b3o59b3o1428bo138bo732bo138bo818bo138bo432bo138bo$1988b
o2bo57bo2bo1425bo2bo16b3o100b3o16bo2bo726bo2bo16b3o100b3o16bo2bo812bo
2bo16b3o100b3o16bo2bo426bo2bo16b3o100b3o16bo2bo$1988bo17bobo23bobo17bo
1426b3o15bo2bo100bo2bo15b3o728b3o15bo2bo100bo2bo15b3o814b3o15bo2bo100b
o2bo15b3o428b3o15bo2bo100bo2bo15b3o$1988bo20bo21bo20bo1447bo100bo770bo
100bo856bo100bo470bo100bo$1989bobo17bo21bo17bobo1448bo100bo770bo100bo
856bo100bo470bo100bo$2006bo2bo21bo2bo1462bobo102bobo764bobo102bobo850b
obo102bobo464bobo102bobo$2007b3o21b3o1503b3o21b3o846b3o21b3o930b3o21b
3o546b3o21b3o$1969bobo98bobo1464bo2bo19bo2bo846bo2bo19bo2bo930bo2bo19b
o2bo546bo2bo19bo2bo$1968bo104bo1443bobo17bo25bo17bobo806bobo17bo25bo
17bobo890bobo17bo25bo17bobo506bobo17bo25bo17bobo$1968bo104bo1446bo16bo
25bo16bo812bo16bo25bo16bo896bo16bo25bo16bo512bo16bo25bo16bo$1949b3o16b
o2bo98bo2bo16b3o1427bo17bobo19bobo17bo812bo17bobo19bobo17bo896bo17bobo
19bobo17bo512bo17bobo19bobo17bo$1949bo2bo15b3o100b3o15bo2bo1424bo2bo
59bo2bo806bo2bo59bo2bo890bo2bo59bo2bo506bo2bo59bo2bo$1949bo142bo1425b
3o59b3o808b3o59b3o892b3o59b3o508b3o59b3o$1949bo142bo1387bobo136bobo
730bobo136bobo816bobo136bobo430bobo136bobo$1950bobo136bobo1387bo142bo
728bo142bo814bo142bo428bo142bo$1988b3o59b3o1426bo142bo728bo142bo814bo
142bo428bo142bo$1987bo2bo59bo2bo1425bo2bo15b3o100b3o15bo2bo728bo2bo15b
3o100b3o15bo2bo814bo2bo15b3o100b3o15bo2bo428bo2bo15b3o100b3o15bo2bo$
1990bo17bobo19bobo17bo1428b3o16bo2bo98bo2bo16b3o728b3o16bo2bo98bo2bo
16b3o814b3o16bo2bo98bo2bo16b3o428b3o16bo2bo98bo2bo16b3o$1990bo16bo25bo
16bo1447bo104bo766bo104bo852bo104bo466bo104bo$1987bobo17bo25bo17bobo
1444bo104bo766bo104bo852bo104bo466bo104bo$2007bo2bo19bo2bo1465bobo98bo
bo768bobo98bobo854bobo98bobo468bobo98bobo$96b2o2b2o2b2o2b2o2b2o2b2o2b
2o2b2o2b2o2b2o2b2o2b2o2b2o2b2o2b2o2b2o2b2o2b2o2b2o2b2o2b2o2b2o2b2o2b2o
2b2o2b2o2b2o2b2o2b2o2b2o2b2o2b2o2b2o2b2o2b2o2b2o2b2o2b2o2b2o2b2o2b2o2b
2o2b2o2b2o2b2o2b2o2b2o2b2o2b2o2b2o2b2o2b2o2b2o2b2o2b2o2b2o2b2o2b2o2b2o
2b2o2b2o2b2o2b2o2b2o2b2o2b2o2b2o2b2o2b2o2b2o2b2o2b2o2b2o2b2o2b2o2b2o2b
2o2b2o2b2o2b2o2b2o2b2o2b2o2b2o2b2o2b2o2b2o2b2o2b2o2b2o2b2o2b2o2b2o2b2o
2b2o2b2o2b2o2b2o2b2o2b2o2b2o2b2o2b2o2b2o338b2o2b2o2b2o2b2o2b2o2b2o2b2o
2b2o2b2o2b2o2b2o2b2o2b2o370b2o2b2o2b2o2b2o2b2o2b2o2b2o2b2o2b2o2b2o2b2o
2b2o2b2o689b3o21b3o1503b3o21b3o846b3o21b3o930b3o21b3o546b3o21b3o$96b2o
2b2o2b2o2b2o2b2o2b2o2b2o2b2o2b2o2b2o2b2o2b2o2b2o2b2o2b2o2b2o2b2o2b2o2b
2o2b2o2b2o2b2o2b2o2b2o2b2o2b2o2b2o2b2o2b2o2b2o2b2o2b2o2b2o2b2o2b2o2b2o
2b2o2b2o2b2o2b2o2b2o2b2o2b2o2b2o2b2o2b2o2b2o2b2o2b2o2b2o2b2o2b2o2b2o2b
2o2b2o2b2o2b2o2b2o2b2o2b2o2b2o2b2o2b2o2b2o2b2o2b2o2b2o2b2o2b2o2b2o2b2o
2b2o2b2o2b2o2b2o2b2o2b2o2b2o2b2o2b2o2b2o2b2o2b2o2b2o2b2o2b2o2b2o2b2o2b
2o2b2o2b2o2b2o2b2o2b2o2b2o2b2o2b2o2b2o2b2o2b2o2b2o2b2o2b2o2b2o338b2o2b
2o2b2o2b2o2b2o2b2o2b2o2b2o2b2o2b2o2b2o2b2o2b2o370b2o2b2o2b2o2b2o2b2o2b
2o2b2o2b2o2b2o2b2o2b2o2b2o2b2o649bobo102bobo1461bo2bo21bo2bo844bo2bo
21bo2bo928bo2bo21bo2bo544bo2bo21bo2bo$1970bo100bo1447bobo17bo21bo17bob
o810bobo17bo21bo17bobo894bobo17bo21bo17bobo510bobo17bo21bo17bobo$1970b
o100bo1446bo20bo21bo20bo808bo20bo21bo20bo892bo20bo21bo20bo508bo20bo21b
o20bo$80b2o2b2o2b2o2b2o2b2o2b2o2b2o2b2o2b2o2b2o2b2o2b2o2b2o2b2o2b2o2b
2o2b2o2b2o2b2o2b2o2b2o2b2o2b2o2b2o2b2o2b2o2b2o2b2o2b2o2b2o2b2o2b2o2b2o
2b2o2b2o2b2o2b2o2b2o2b2o2b2o2b2o2b2o2b2o2b2o2b2o2b2o2b2o2b2o2b2o2b2o2b
2o2b2o2b2o2b2o2b2o2b2o2b2o2b2o2b2o2b2o2b2o2b2o2b2o2b2o2b2o2b2o2b2o2b2o
2b2o2b2o2b2o2b2o2b2o2b2o2b2o2b2o2b2o2b2o2b2o2b2o2b2o2b2o2b2o2b2o2b2o2b
2o2b2o2b2o2b2o2b2o2b2o2b2o2b2o2b2o2b2o2b2o2b2o2b2o2b2o2b2o2b2o2b2o2b2o
2b2o2b2o2b2o2b2o2b2o2b2o2b2o2b2o2b2o306b2o2b2o2b2o2b2o2b2o2b2o2b2o2b2o
2b2o2b2o2b2o2b2o2b2o2b2o2b2o2b2o2b2o2b2o2b2o2b2o2b2o338b2o2b2o2b2o2b2o
2b2o2b2o2b2o2b2o2b2o2b2o2b2o2b2o2b2o2b2o2b2o2b2o2b2o2b2o2b2o2b2o2b2o
615b3o15bo2bo100bo2bo15b3o1425bo17bobo23bobo17bo808bo17bobo23bobo17bo
892bo17bobo23bobo17bo508bo17bobo23bobo17bo$80b2o2b2o2b2o2b2o2b2o2b2o2b
2o2b2o2b2o2b2o2b2o2b2o2b2o2b2o2b2o2b2o2b2o2b2o2b2o2b2o2b2o2b2o2b2o2b2o
2b2o2b2o2b2o2b2o2b2o2b2o2b2o2b2o2b2o2b2o2b2o2b2o2b2o2b2o2b2o2b2o2b2o2b
2o2b2o2b2o2b2o2b2o2b2o2b2o2b2o2b2o2b2o2b2o2b2o2b2o2b2o2b2o2b2o2b2o2b2o
2b2o2b2o2b2o2b2o2b2o2b2o2b2o2b2o2b2o2b2o2b2o2b2o2b2o2b2o2b2o2b2o2b2o2b
2o2b2o2b2o2b2o2b2o2b2o2b2o2b2o2b2o2b2o2b2o2b2o2b2o2b2o2b2o2b2o2b2o2b2o
2b2o2b2o2b2o2b2o2b2o2b2o2b2o2b2o2b2o2b2o2b2o2b2o2b2o2b2o2b2o2b2o2b2o2b
2o306b2o2b2o2b2o2b2o2b2o2b2o2b2o2b2o2b2o2b2o2b2o2b2o2b2o2b2o2b2o2b2o2b
2o2b2o2b2o2b2o2b2o338b2o2b2o2b2o2b2o2b2o2b2o2b2o2b2o2b2o2b2o2b2o2b2o2b
2o2b2o2b2o2b2o2b2o2b2o2b2o2b2o2b2o614bo2bo16b3o100b3o16bo2bo1424bo2bo
57bo2bo808bo2bo57bo2bo892bo2bo57bo2bo508bo2bo57bo2bo$1951bo138bo1427b
3o59b3o808b3o59b3o892b3o59b3o508b3o59b3o$1951bo138bo1387bobo140bobo
726bobo140bobo812bobo140bobo426bobo140bobo$68b2o2b2o2b2o2b2o2b2o2b2o2b
2o2b2o2b2o2b2o2b2o2b2o2b2o2b2o2b2o2b2o2b2o2b2o2b2o2b2o2b2o2b2o2b2o2b2o
2b2o2b2o2b2o2b2o2b2o2b2o2b2o2b2o2b2o2b2o2b2o2b2o2b2o2b2o2b2o2b2o2b2o2b
2o2b2o2b2o2b2o2b2o2b2o2b2o2b2o2b2o2b2o2b2o2b2o2b2o2b2o2b2o2b2o2b2o2b2o
2b2o2b2o2b2o2b2o2b2o2b2o2b2o2b2o2b2o2b2o2b2o2b2o2b2o2b2o2b2o2b2o2b2o2b
2o2b2o2b2o2b2o2b2o2b2o2b2o2b2o2b2o2b2o2b2o2b2o2b2o2b2o2b2o2b2o2b2o2b2o
2b2o2b2o2b2o2b2o2b2o2b2o2b2o2b2o2b2o2b2o2b2o2b2o2b2o2b2o2b2o2b2o2b2o2b
2o2b2o2b2o2b2o2b2o2b2o2b2o282b2o2b2o2b2o2b2o2b2o2b2o2b2o2b2o2b2o2b2o2b
2o2b2o2b2o2b2o2b2o2b2o2b2o2b2o2b2o2b2o2b2o2b2o2b2o2b2o2b2o2b2o322b2o2b
2o2b2o2b2o2b2o2b2o2b2o2b2o2b2o2b2o2b2o2b2o2b2o2b2o2b2o2b2o2b2o2b2o2b2o
2b2o2b2o2b2o2b2o2b2o2b2o2b2o602bobo140bobo1387bo138bo732bo138bo818bo
138bo432bo138bo$68b2o2b2o2b2o2b2o2b2o2b2o2b2o2b2o2b2o2b2o2b2o2b2o2b2o
2b2o2b2o2b2o2b2o2b2o2b2o2b2o2b2o2b2o2b2o2b2o2b2o2b2o2b2o2b2o2b2o2b2o2b
2o2b2o2b2o2b2o2b2o2b2o2b2o2b2o2b2o2b2o2b2o2b2o2b2o2b2o2b2o2b2o2b2o2b2o
2b2o2b2o2b2o2b2o2b2o2b2o2b2o2b2o2b2o2b2o2b2o2b2o2b2o2b2o2b2o2b2o2b2o2b
2o2b2o2b2o2b2o2b2o2b2o2b2o2b2o2b2o2b2o2b2o2b2o2b2o2b2o2b2o2b2o2b2o2b2o
2b2o2b2o2b2o2b2o2b2o2b2o2b2o2b2o2b2o2b2o2b2o2b2o2b2o2b2o2b2o2b2o2b2o2b
2o2b2o2b2o2b2o2b2o2b2o2b2o2b2o2b2o2b2o2b2o2b2o2b2o2b2o2b2o2b2o2b2o2b2o
282b2o2b2o2b2o2b2o2b2o2b2o2b2o2b2o2b2o2b2o2b2o2b2o2b2o2b2o2b2o2b2o2b2o
2b2o2b2o2b2o2b2o2b2o2b2o2b2o2b2o2b2o322b2o2b2o2b2o2b2o2b2o2b2o2b2o2b2o
2b2o2b2o2b2o2b2o2b2o2b2o2b2o2b2o2b2o2b2o2b2o2b2o2b2o2b2o2b2o2b2o2b2o2b
2o642b3o59b3o1428bo138bo732bo138bo818bo138bo432bo138bo$1988bo2bo57bo2b
o1425bo2bo16b3o100b3o16bo2bo726bo2bo16b3o100b3o16bo2bo812bo2bo16b3o
100b3o16bo2bo426bo2bo16b3o100b3o16bo2bo$1988bo17bobo23bobo17bo1426b3o
15bo2bo100bo2bo15b3o728b3o15bo2bo100bo2bo15b3o814b3o15bo2bo100bo2bo15b
3o428b3o15bo2bo100bo2bo15b3o$56b2o2b2o2b2o2b2o2b2o2b2o2b2o2b2o2b2o2b2o
2b2o2b2o2b2o2b2o2b2o2b2o2b2o2b2o2b2o2b2o2b2o2b2o2b2o2b2o2b2o2b2o2b2o2b
2o2b2o2b2o2b2o2b2o2b2o2b2o2b2o2b2o2b2o2b2o2b2o2b2o2b2o2b2o2b2o2b2o2b2o
2b2o2b2o2b2o2b2o2b2o2b2o2b2o2b2o2b2o2b2o2b2o2b2o2b2o2b2o2b2o2b2o2b2o2b
2o2b2o2b2o2b2o2b2o2b2o2b2o2b2o2b2o2b2o2b2o2b2o2b2o2b2o2b2o2b2o2b2o2b2o
2b2o2b2o2b2o2b2o2b2o2b2o2b2o2b2o2b2o2b2o2b2o2b2o2b2o2b2o2b2o2b2o2b2o2b
2o2b2o2b2o2b2o2b2o2b2o2b2o2b2o2b2o2b2o2b2o2b2o2b2o2b2o2b2o2b2o2b2o2b2o
2b2o2b2o2b2o2b2o2b2o2b2o2b2o2b2o2b2o258b2o2b2o2b2o2b2o2b2o2b2o2b2o2b2o
2b2o2b2o2b2o2b2o2b2o2b2o2b2o2b2o2b2o2b2o2b2o2b2o2b2o2b2o2b2o2b2o2b2o2b
2o2b2o2b2o2b2o2b2o2b2o2b2o298b2o2b2o2b2o2b2o2b2o2b2o2b2o2b2o2b2o2b2o2b
2o2b2o2b2o2b2o2b2o2b2o2b2o2b2o2b2o2b2o2b2o2b2o2b2o2b2o2b2o2b2o2b2o2b2o
2b2o2b2o2b2o2b2o630bo20bo21bo20bo1447bo100bo770bo100bo856bo100bo470bo
100bo$56b2o2b2o2b2o2b2o2b2o2b2o2b2o2b2o2b2o2b2o2b2o2b2o2b2o2b2o2b2o2b
2o2b2o2b2o2b2o2b2o2b2o2b2o2b2o2b2o2b2o2b2o2b2o2b2o2b2o2b2o2b2o2b2o2b2o
2b2o2b2o2b2o2b2o2b2o2b2o2b2o2b2o2b2o2b2o2b2o2b2o2b2o2b2o2b2o2b2o2b2o2b
2o2b2o2b2o2b2o2b2o2b2o2b2o2b2o2b2o2b2o2b2o2b2o2b2o2b2o2b2o2b2o2b2o2b2o
2b2o2b2o2b2o2b2o2b2o2b2o2b2o2b2o2b2o2b2o2b2o2b2o2b2o2b2o2b2o2b2o2b2o2b
2o2b2o2b2o2b2o2b2o2b2o2b2o2b2o2b2o2b2o2b2o2b2o2b2o2b2o2b2o2b2o2b2o2b2o
2b2o2b2o2b2o2b2o2b2o2b2o2b2o2b2o2b2o2b2o2b2o2b2o2b2o2b2o2b2o2b2o2b2o2b
2o2b2o2b2o2b2o258b2o2b2o2b2o2b2o2b2o2b2o2b2o2b2o2b2o2b2o2b2o2b2o2b2o2b
2o2b2o2b2o2b2o2b2o2b2o2b2o2b2o2b2o2b2o2b2o2b2o2b2o2b2o2b2o2b2o2b2o2b2o
2b2o298b2o2b2o2b2o2b2o2b2o2b2o2b2o2b2o2b2o2b2o2b2o2b2o2b2o2b2o2b2o2b2o
2b2o2b2o2b2o2b2o2b2o2b2o2b2o2b2o2b2o2b2o2b2o2b2o2b2o2b2o2b2o2b2o631bob
o17bo21bo17bobo1448bo100bo770bo100bo856bo100bo470bo100bo$2006bo2bo21bo
2bo1462bobo102bobo764bobo102bobo850bobo102bobo464bobo102bobo$2007b3o
21b3o1503b3o21b3o846b3o21b3o930b3o21b3o546b3o21b3o$48b2o2b2o2b2o2b2o2b
2o2b2o2b2o2b2o2b2o2b2o2b2o2b2o2b2o2b2o2b2o2b2o2b2o2b2o2b2o2b2o2b2o2b2o
2b2o2b2o2b2o2b2o2b2o2b2o2b2o2b2o2b2o2b2o2b2o2b2o2b2o2b2o2b2o2b2o2b2o2b
2o2b2o2b2o2b2o2b2o2b2o2b2o2b2o2b2o2b2o2b2o2b2o2b2o2b2o2b2o2b2o2b2o2b2o
2b2o2b2o2b2o2b2o2b2o2b2o2b2o2b2o2b2o2b2o2b2o2b2o2b2o2b2o2b2o2b2o2b2o2b
2o2b2o2b2o2b2o2b2o2b2o2b2o2b2o2b2o2b2o2b2o2b2o2b2o2b2o2b2o2b2o2b2o2b2o
2b2o2b2o2b2o2b2o2b2o2b2o2b2o2b2o2b2o2b2o2b2o2b2o2b2o2b2o2b2o2b2o2b2o2b
2o2b2o2b2o2b2o2b2o2b2o2b2o2b2o2b2o2b2o2b2o2b2o2b2o2b2o2b2o2b2o2b2o2b2o
2b2o242b2o2b2o2b2o2b2o2b2o2b2o2b2o2b2o2b2o2b2o2b2o2b2o2b2o2b2o2b2o2b2o
2b2o2b2o2b2o2b2o2b2o2b2o2b2o2b2o2b2o2b2o2b2o2b2o2b2o2b2o2b2o2b2o2b2o2b
2o2b2o2b2o282b2o2b2o2b2o2b2o2b2o2b2o2b2o2b2o2b2o2b2o2b2o2b2o2b2o2b2o2b
2o2b2o2b2o2b2o2b2o2b2o2b2o2b2o2b2o2b2o2b2o2b2o2b2o2b2o2b2o2b2o2b2o2b2o
2b2o2b2o2b2o2b2o603bobo98bobo1464bo2bo19bo2bo846bo2bo19bo2bo930bo2bo
19bo2bo546bo2bo19bo2bo$48b2o2b2o2b2o2b2o2b2o2b2o2b2o2b2o2b2o2b2o2b2o2b
2o2b2o2b2o2b2o2b2o2b2o2b2o2b2o2b2o2b2o2b2o2b2o2b2o2b2o2b2o2b2o2b2o2b2o
2b2o2b2o2b2o2b2o2b2o2b2o2b2o2b2o2b2o2b2o2b2o2b2o2b2o2b2o2b2o2b2o2b2o2b
2o2b2o2b2o2b2o2b2o2b2o2b2o2b2o2b2o2b2o2b2o2b2o2b2o2b2o2b2o2b2o2b2o2b2o
2b2o2b2o2b2o2b2o2b2o2b2o2b2o2b2o2b2o2b2o2b2o2b2o2b2o2b2o2b2o2b2o2b2o2b
2o2b2o2b2o2b2o2b2o2b2o2b2o2b2o2b2o2b2o2b2o2b2o2b2o2b2o2b2o2b2o2b2o2b2o
2b2o2b2o2b2o2b2o2b2o2b2o2b2o2b2o2b2o2b2o2b2o2b2o2b2o2b2o2b2o2b2o2b2o2b
2o2b2o2b2o2b2o2b2o2b2o2b2o2b2o2b2o2b2o2b2o2b2o242b2o2b2o2b2o2b2o2b2o2b
2o2b2o2b2o2b2o2b2o2b2o2b2o2b2o2b2o2b2o2b2o2b2o2b2o2b2o2b2o2b2o2b2o2b2o
2b2o2b2o2b2o2b2o2b2o2b2o2b2o2b2o2b2o2b2o2b2o2b2o2b2o282b2o2b2o2b2o2b2o
2b2o2b2o2b2o2b2o2b2o2b2o2b2o2b2o2b2o2b2o2b2o2b2o2b2o2b2o2b2o2b2o2b2o2b
2o2b2o2b2o2b2o2b2o2b2o2b2o2b2o2b2o2b2o2b2o2b2o2b2o2b2o2b2o602bo104bo
1443bobo17bo25bo17bobo806bobo17bo25bo17bobo890bobo17bo25bo17bobo506bob
o17bo25bo17bobo$1968bo104bo1446bo16bo25bo16bo812bo16bo25bo16bo896bo16b
o25bo16bo512bo16bo25bo16bo$1949b3o16bo2bo98bo2bo16b3o1427bo17bobo19bob
o17bo812bo17bobo19bobo17bo896bo17bobo19bobo17bo512bo17bobo19bobo17bo$
40b2o2b2o2b2o2b2o2b2o2b2o2b2o2b2o2b2o2b2o2b2o2b2o2b2o2b2o2b2o2b2o2b2o
2b2o2b2o2b2o2b2o2b2o2b2o2b2o2b2o2b2o2b2o2b2o2b2o2b2o2b2o2b2o2b2o2b2o2b
2o2b2o2b2o2b2o2b2o2b2o2b2o2b2o2b2o2b2o2b2o2b2o2b2o2b2o2b2o2b2o2b2o2b2o
2b2o2b2o2b2o2b2o2b2o2b2o2b2o2b2o2b2o2b2o2b2o2b2o2b2o2b2o2b2o2b2o2b2o2b
2o2b2o2b2o2b2o2b2o2b2o2b2o2b2o2b2o2b2o2b2o2b2o2b2o2b2o2b2o2b2o2b2o2b2o
2b2o2b2o2b2o2b2o2b2o2b2o2b2o2b2o2b2o2b2o2b2o2b2o2b2o2b2o2b2o2b2o2b2o2b
2o2b2o2b2o2b2o2b2o2b2o2b2o2b2o2b2o2b2o2b2o2b2o2b2o2b2o2b2o2b2o2b2o2b2o
2b2o2b2o2b2o2b2o2b2o2b2o2b2o2b2o2b2o2b2o226b2o2b2o2b2o2b2o2b2o2b2o2b2o
2b2o2b2o2b2o2b2o2b2o2b2o2b2o2b2o2b2o2b2o2b2o2b2o2b2o2b2o2b2o2b2o2b2o2b
2o2b2o2b2o2b2o2b2o2b2o2b2o2b2o2b2o2b2o2b2o2b2o2b2o2b2o2b2o2b2o266b2o2b
2o2b2o2b2o2b2o2b2o2b2o2b2o2b2o2b2o2b2o2b2o2b2o2b2o2b2o2b2o2b2o2b2o2b2o
2b2o2b2o2b2o2b2o2b2o2b2o2b2o2b2o2b2o2b2o2b2o2b2o2b2o2b2o2b2o2b2o2b2o2b
2o2b2o2b2o2b2o575bo2bo15b3o100b3o15bo2bo1424bo2bo59bo2bo806bo2bo59bo2b
o890bo2bo59bo2bo506bo2bo59bo2bo$40b2o2b2o2b2o2b2o2b2o2b2o2b2o2b2o2b2o
2b2o2b2o2b2o2b2o2b2o2b2o2b2o2b2o2b2o2b2o2b2o2b2o2b2o2b2o2b2o2b2o2b2o2b
2o2b2o2b2o2b2o2b2o2b2o2b2o2b2o2b2o2b2o2b2o2b2o2b2o2b2o2b2o2b2o2b2o2b2o
2b2o2b2o2b2o2b2o2b2o2b2o2b2o2b2o2b2o2b2o2b2o2b2o2b2o2b2o2b2o2b2o2b2o2b
2o2b2o2b2o2b2o2b2o2b2o2b2o2b2o2b2o2b2o2b2o2b2o2b2o2b2o2b2o2b2o2b2o2b2o
2b2o2b2o2b2o2b2o2b2o2b2o2b2o2b2o2b2o2b2o2b2o2b2o2b2o2b2o2b2o2b2o2b2o2b
2o2b2o2b2o2b2o2b2o2b2o2b2o2b2o2b2o2b2o2b2o2b2o2b2o2b2o2b2o2b2o2b2o2b2o
2b2o2b2o2b2o2b2o2b2o2b2o2b2o2b2o2b2o2b2o2b2o2b2o2b2o2b2o2b2o2b2o2b2o2b
2o226b2o2b2o2b2o2b2o2b2o2b2o2b2o2b2o2b2o2b2o2b2o2b2o2b2o2b2o2b2o2b2o2b
2o2b2o2b2o2b2o2b2o2b2o2b2o2b2o2b2o2b2o2b2o2b2o2b2o2b2o2b2o2b2o2b2o2b2o
2b2o2b2o2b2o2b2o2b2o2b2o266b2o2b2o2b2o2b2o2b2o2b2o2b2o2b2o2b2o2b2o2b2o
2b2o2b2o2b2o2b2o2b2o2b2o2b2o2b2o2b2o2b2o2b2o2b2o2b2o2b2o2b2o2b2o2b2o2b
2o2b2o2b2o2b2o2b2o2b2o2b2o2b2o2b2o2b2o2b2o2b2o575bo142bo1425b3o59b3o
808b3o59b3o892b3o59b3o508b3o59b3o$1949bo142bo1387bobo136bobo730bobo
136bobo816bobo136bobo430bobo136bobo$1950bobo136bobo1387bo142bo728bo
142bo814bo142bo428bo142bo$36b2o2b2o2b2o2b2o2b2o2b2o2b2o2b2o2b2o2b2o2b
2o2b2o2b2o2b2o2b2o2b2o2b2o2b2o2b2o2b2o2b2o2b2o2b2o2b2o2b2o2b2o2b2o2b2o
2b2o2b2o2b2o2b2o2b2o2b2o2b2o2b2o2b2o2b2o2b2o2b2o2b2o2b2o2b2o2b2o2b2o2b
2o2b2o2b2o2b2o2b2o2b2o2b2o2b2o2b2o2b2o2b2o2b2o2b2o2b2o2b2o2b2o2b2o2b2o
2b2o2b2o2b2o2b2o2b2o2b2o2b2o2b2o2b2o2b2o2b2o2b2o2b2o2b2o2b2o2b2o2b2o2b
2o2b2o2b2o2b2o2b2o2b2o2b2o2b2o2b2o2b2o2b2o2b2o2b2o2b2o2b2o2b2o2b2o2b2o
2b2o2b2o2b2o2b2o2b2o2b2o2b2o2b2o2b2o2b2o2b2o2b2o2b2o2b2o2b2o2b2o2b2o2b
2o2b2o2b2o2b2o2b2o2b2o2b2o2b2o2b2o2b2o2b2o2b2o2b2o2b2o2b2o2b2o2b2o2b2o
2b2o218b2o2b2o2b2o2b2o2b2o2b2o2b2o2b2o2b2o2b2o2b2o2b2o2b2o2b2o2b2o2b2o
2b2o2b2o2b2o2b2o2b2o2b2o2b2o2b2o2b2o2b2o2b2o2b2o2b2o2b2o2b2o2b2o2b2o2b
2o2b2o2b2o2b2o2b2o2b2o2b2o2b2o2b2o258b2o2b2o2b2o2b2o2b2o2b2o2b2o2b2o2b
2o2b2o2b2o2b2o2b2o2b2o2b2o2b2o2b2o2b2o2b2o2b2o2b2o2b2o2b2o2b2o2b2o2b2o
2b2o2b2o2b2o2b2o2b2o2b2o2b2o2b2o2b2o2b2o2b2o2b2o2b2o2b2o2b2o2b2o610b3o
59b3o1426bo142bo728bo142bo814bo142bo428bo142bo$36b2o2b2o2b2o2b2o2b2o2b
2o2b2o2b2o2b2o2b2o2b2o2b2o2b2o2b2o2b2o2b2o2b2o2b2o2b2o2b2o2b2o2b2o2b2o
2b2o2b2o2b2o2b2o2b2o2b2o2b2o2b2o2b2o2b2o2b2o2b2o2b2o2b2o2b2o2b2o2b2o2b
2o2b2o2b2o2b2o2b2o2b2o2b2o2b2o2b2o2b2o2b2o2b2o2b2o2b2o2b2o2b2o2b2o2b2o
2b2o2b2o2b2o2b2o2b2o2b2o2b2o2b2o2b2o2b2o2b2o2b2o2b2o2b2o2b2o2b2o2b2o2b
2o2b2o2b2o2b2o2b2o2b2o2b2o2b2o2b2o2b2o2b2o2b2o2b2o2b2o2b2o2b2o2b2o2b2o
2b2o2b2o2b2o2b2o2b2o2b2o2b2o2b2o2b2o2b2o2b2o2b2o2b2o2b2o2b2o2b2o2b2o2b
2o2b2o2b2o2b2o2b2o2b2o2b2o2b2o2b2o2b2o2b2o2b2o2b2o2b2o2b2o2b2o2b2o2b2o
2b2o2b2o2b2o2b2o2b2o2b2o218b2o2b2o2b2o2b2o2b2o2b2o2b2o2b2o2b2o2b2o2b2o
2b2o2b2o2b2o2b2o2b2o2b2o2b2o2b2o2b2o2b2o2b2o2b2o2b2o2b2o2b2o2b2o2b2o2b
2o2b2o2b2o2b2o2b2o2b2o2b2o2b2o2b2o2b2o2b2o2b2o2b2o2b2o258b2o2b2o2b2o2b
2o2b2o2b2o2b2o2b2o2b2o2b2o2b2o2b2o2b2o2b2o2b2o2b2o2b2o2b2o2b2o2b2o2b2o
2b2o2b2o2b2o2b2o2b2o2b2o2b2o2b2o2b2o2b2o2b2o2b2o2b2o2b2o2b2o2b2o2b2o2b
2o2b2o2b2o2b2o609bo2bo59bo2bo1425bo2bo15b3o100b3o15bo2bo728bo2bo15b3o
100b3o15bo2bo814bo2bo15b3o100b3o15bo2bo428bo2bo15b3o100b3o15bo2bo$
1990bo17bobo19bobo17bo1428b3o16bo2bo98bo2bo16b3o728b3o16bo2bo98bo2bo
16b3o814b3o16bo2bo98bo2bo16b3o428b3o16bo2bo98bo2bo16b3o$1990bo16bo25bo
16bo1447bo104bo766bo104bo852bo104bo466bo104bo$32b2o2b2o2b2o2b2o2b2o2b
2o2b2o2b2o2b2o2b2o2b2o2b2o2b2o2b2o2b2o2b2o2b2o2b2o2b2o2b2o2b2o2b2o2b2o
2b2o2b2o2b2o2b2o2b2o2b2o2b2o2b2o2b2o2b2o2b2o2b2o2b2o2b2o2b2o2b2o2b2o2b
2o2b2o2b2o2b2o2b2o2b2o2b2o2b2o2b2o2b2o2b2o2b2o2b2o2b2o2b2o2b2o2b2o2b2o
2b2o2b2o2b2o2b2o2b2o2b2o2b2o2b2o2b2o2b2o2b2o2b2o2b2o2b2o2b2o2b2o2b2o2b
2o2b2o2b2o2b2o2b2o2b2o2b2o2b2o2b2o2b2o2b2o2b2o2b2o2b2o2b2o2b2o2b2o2b2o
2b2o2b2o2b2o2b2o2b2o2b2o2b2o2b2o2b2o2b2o2b2o2b2o2b2o2b2o2b2o2b2o2b2o2b
2o2b2o2b2o2b2o2b2o2b2o2b2o2b2o2b2o2b2o2b2o2b2o2b2o2b2o2b2o2b2o2b2o2b2o
2b2o2b2o2b2o2b2o2b2o2b2o2b2o2b2o210b2o2b2o2b2o2b2o2b2o2b2o2b2o2b2o2b2o
2b2o2b2o2b2o2b2o2b2o2b2o2b2o2b2o2b2o2b2o2b2o2b2o2b2o2b2o2b2o2b2o2b2o2b
2o2b2o2b2o2b2o2b2o2b2o2b2o2b2o2b2o2b2o2b2o2b2o2b2o2b2o2b2o2b2o2b2o2b2o
250b2o2b2o2b2o2b2o2b2o2b2o2b2o2b2o2b2o2b2o2b2o2b2o2b2o2b2o2b2o2b2o2b2o
2b2o2b2o2b2o2b2o2b2o2b2o2b2o2b2o2b2o2b2o2b2o2b2o2b2o2b2o2b2o2b2o2b2o2b
2o2b2o2b2o2b2o2b2o2b2o2b2o2b2o2b2o2b2o605bobo17bo25bo17bobo1444bo104bo
766bo104bo852bo104bo466bo104bo$32b2o2b2o2b2o2b2o2b2o2b2o2b2o2b2o2b2o2b
2o2b2o2b2o2b2o2b2o2b2o2b2o2b2o2b2o2b2o2b2o2b2o2b2o2b2o2b2o2b2o2b2o2b2o
2b2o2b2o2b2o2b2o2b2o2b2o2b2o2b2o2b2o2b2o2b2o2b2o2b2o2b2o2b2o2b2o2b2o2b
2o2b2o2b2o2b2o2b2o2b2o2b2o2b2o2b2o2b2o2b2o2b2o2b2o2b2o2b2o2b2o2b2o2b2o
2b2o2b2o2b2o2b2o2b2o2b2o2b2o2b2o2b2o2b2o2b2o2b2o2b2o2b2o2b2o2b2o2b2o2b
2o2b2o2b2o2b2o2b2o2b2o2b2o2b2o2b2o2b2o2b2o2b2o2b2o2b2o2b2o2b2o2b2o2b2o
2b2o2b2o2b2o2b2o2b2o2b2o2b2o2b2o2b2o2b2o2b2o2b2o2b2o2b2o2b2o2b2o2b2o2b
2o2b2o2b2o2b2o2b2o2b2o2b2o2b2o2b2o2b2o2b2o2b2o2b2o2b2o2b2o2b2o2b2o2b2o
2b2o2b2o2b2o2b2o210b2o2b2o2b2o2b2o2b2o2b2o2b2o2b2o2b2o2b2o2b2o2b2o2b2o
2b2o2b2o2b2o2b2o2b2o2b2o2b2o2b2o2b2o2b2o2b2o2b2o2b2o2b2o2b2o2b2o2b2o2b
2o2b2o2b2o2b2o2b2o2b2o2b2o2b2o2b2o2b2o2b2o2b2o2b2o2b2o250b2o2b2o2b2o2b
2o2b2o2b2o2b2o2b2o2b2o2b2o2b2o2b2o2b2o2b2o2b2o2b2o2b2o2b2o2b2o2b2o2b2o
2b2o2b2o2b2o2b2o2b2o2b2o2b2o2b2o2b2o2b2o2b2o2b2o2b2o2b2o2b2o2b2o2b2o2b
2o2b2o2b2o2b2o2b2o2b2o625bo2bo19bo2bo1465bobo98bobo768bobo98bobo854bob
o98bobo468bobo98bobo$2007b3o21b3o1503b3o21b3o846b3o21b3o930b3o21b3o
546b3o21b3o$1967bobo102bobo1461bo2bo21bo2bo844bo2bo21bo2bo928bo2bo21bo
2bo544bo2bo21bo2bo$28b2o2b2o2b2o2b2o2b2o2b2o2b2o2b2o2b2o2b2o2b2o2b2o2b
2o2b2o2b2o2b2o2b2o2b2o2b2o2b2o2b2o2b2o2b2o2b2o2b2o2b2o2b2o2b2o2b2o2b2o
2b2o2b2o2b2o2b2o2b2o2b2o2b2o2b2o2b2o2b2o2b2o2b2o2b2o2b2o2b2o2b2o2b2o2b
2o2b2o2b2o2b2o2b2o2b2o2b2o2b2o2b2o2b2o2b2o2b2o2b2o2b2o2b2o2b2o2b2o2b2o
2b2o2b2o2b2o2b2o2b2o2b2o2b2o2b2o2b2o2b2o2b2o2b2o2b2o2b2o2b2o2b2o2b2o2b
2o2b2o2b2o2b2o2b2o2b2o2b2o2b2o2b2o2b2o2b2o2b2o2b2o2b2o2b2o2b2o2b2o2b2o
2b2o2b2o2b2o2b2o2b2o2b2o2b2o2b2o2b2o2b2o2b2o2b2o2b2o2b2o2b2o2b2o2b2o2b
2o2b2o2b2o2b2o2b2o2b2o2b2o2b2o2b2o2b2o2b2o2b2o2b2o2b2o2b2o2b2o2b2o2b2o
2b2o2b2o2b2o202b2o2b2o2b2o2b2o2b2o2b2o2b2o2b2o2b2o2b2o2b2o2b2o2b2o2b2o
2b2o2b2o2b2o2b2o2b2o2b2o2b2o2b2o2b2o2b2o2b2o2b2o2b2o2b2o2b2o2b2o2b2o2b
2o2b2o2b2o2b2o2b2o2b2o2b2o2b2o2b2o2b2o2b2o2b2o2b2o2b2o2b2o242b2o2b2o2b
2o2b2o2b2o2b2o2b2o2b2o2b2o2b2o2b2o2b2o2b2o2b2o2b2o2b2o2b2o2b2o2b2o2b2o
2b2o2b2o2b2o2b2o2b2o2b2o2b2o2b2o2b2o2b2o2b2o2b2o2b2o2b2o2b2o2b2o2b2o2b
2o2b2o2b2o2b2o2b2o2b2o2b2o2b2o2b2o584bo100bo1447bobo17bo21bo17bobo810b
obo17bo21bo17bobo894bobo17bo21bo17bobo510bobo17bo21bo17bobo$28b2o2b2o
2b2o2b2o2b2o2b2o2b2o2b2o2b2o2b2o2b2o2b2o2b2o2b2o2b2o2b2o2b2o2b2o2b2o2b
2o2b2o2b2o2b2o2b2o2b2o2b2o2b2o2b2o2b2o2b2o2b2o2b2o2b2o2b2o2b2o2b2o2b2o
2b2o2b2o2b2o2b2o2b2o2b2o2b2o2b2o2b2o2b2o2b2o2b2o2b2o2b2o2b2o2b2o2b2o2b
2o2b2o2b2o2b2o2b2o2b2o2b2o2b2o2b2o2b2o2b2o2b2o2b2o2b2o2b2o2b2o2b2o2b2o
2b2o2b2o2b2o2b2o2b2o2b2o2b2o2b2o2b2o2b2o2b2o2b2o2b2o2b2o2b2o2b2o2b2o2b
2o2b2o2b2o2b2o2b2o2b2o2b2o2b2o2b2o2b2o2b2o2b2o2b2o2b2o2b2o2b2o2b2o2b2o
2b2o2b2o2b2o2b2o2b2o2b2o2b2o2b2o2b2o2b2o2b2o2b2o2b2o2b2o2b2o2b2o2b2o2b
2o2b2o2b2o2b2o2b2o2b2o2b2o2b2o2b2o2b2o2b2o2b2o2b2o2b2o202b2o2b2o2b2o2b
2o2b2o2b2o2b2o2b2o2b2o2b2o2b2o2b2o2b2o2b2o2b2o2b2o2b2o2b2o2b2o2b2o2b2o
2b2o2b2o2b2o2b2o2b2o2b2o2b2o2b2o2b2o2b2o2b2o2b2o2b2o2b2o2b2o2b2o2b2o2b
2o2b2o2b2o2b2o2b2o2b2o2b2o2b2o242b2o2b2o2b2o2b2o2b2o2b2o2b2o2b2o2b2o2b
2o2b2o2b2o2b2o2b2o2b2o2b2o2b2o2b2o2b2o2b2o2b2o2b2o2b2o2b2o2b2o2b2o2b2o
2b2o2b2o2b2o2b2o2b2o2b2o2b2o2b2o2b2o2b2o2b2o2b2o2b2o2b2o2b2o2b2o2b2o2b
2o2b2o584bo100bo1446bo20bo21bo20bo808bo20bo21bo20bo892bo20bo21bo20bo
508bo20bo21bo20bo$1949b3o15bo2bo100bo2bo15b3o1425bo17bobo23bobo17bo
808bo17bobo23bobo17bo892bo17bobo23bobo17bo508bo17bobo23bobo17bo$1948bo
2bo16b3o100b3o16bo2bo1424bo2bo57bo2bo808bo2bo57bo2bo892bo2bo57bo2bo
508bo2bo57bo2bo$24b2o2b2o2b2o2b2o2b2o2b2o2b2o2b2o2b2o2b2o2b2o2b2o2b2o
2b2o2b2o2b2o2b2o2b2o2b2o2b2o2b2o2b2o2b2o2b2o2b2o2b2o2b2o2b2o2b2o2b2o2b
2o2b2o2b2o2b2o2b2o2b2o2b2o2b2o2b2o2b2o2b2o2b2o2b2o2b2o2b2o2b2o2b2o2b2o
2b2o2b2o2b2o2b2o2b2o2b2o2b2o2b2o2b2o2b2o2b2o2b2o2b2o2b2o2b2o2b2o2b2o2b
2o2b2o2b2o2b2o2b2o2b2o2b2o2b2o2b2o2b2o2b2o2b2o2b2o2b2o2b2o2b2o2b2o2b2o
2b2o2b2o2b2o2b2o2b2o2b2o2b2o2b2o2b2o2b2o2b2o2b2o2b2o2b2o2b2o2b2o2b2o2b
2o2b2o2b2o2b2o2b2o2b2o2b2o2b2o2b2o2b2o2b2o2b2o2b2o2b2o2b2o2b2o2b2o2b2o
2b2o2b2o2b2o2b2o2b2o2b2o2b2o2b2o2b2o2b2o2b2o2b2o2b2o2b2o2b2o2b2o2b2o2b
2o2b2o2b2o2b2o2b2o194b2o2b2o2b2o2b2o2b2o2b2o2b2o2b2o2b2o2b2o2b2o2b2o2b
2o2b2o2b2o2b2o2b2o2b2o2b2o2b2o2b2o2b2o2b2o2b2o2b2o2b2o2b2o2b2o2b2o2b2o
2b2o2b2o2b2o2b2o2b2o2b2o2b2o2b2o2b2o2b2o2b2o2b2o2b2o2b2o2b2o2b2o2b2o2b
2o234b2o2b2o2b2o2b2o2b2o2b2o2b2o2b2o2b2o2b2o2b2o2b2o2b2o2b2o2b2o2b2o2b
2o2b2o2b2o2b2o2b2o2b2o2b2o2b2o2b2o2b2o2b2o2b2o2b2o2b2o2b2o2b2o2b2o2b2o
2b2o2b2o2b2o2b2o2b2o2b2o2b2o2b2o2b2o2b2o2b2o2b2o2b2o2b2o561bo138bo
1427b3o59b3o808b3o59b3o892b3o59b3o508b3o59b3o$24b2o2b2o2b2o2b2o2b2o2b
2o2b2o2b2o2b2o2b2o2b2o2b2o2b2o2b2o2b2o2b2o2b2o2b2o2b2o2b2o2b2o2b2o2b2o
2b2o2b2o2b2o2b2o2b2o2b2o2b2o2b2o2b2o2b2o2b2o2b2o2b2o2b2o2b2o2b2o2b2o2b
2o2b2o2b2o2b2o2b2o2b2o2b2o2b2o2b2o2b2o2b2o2b2o2b2o2b2o2b2o2b2o2b2o2b2o
2b2o2b2o2b2o2b2o2b2o2b2o2b2o2b2o2b2o2b2o2b2o2b2o2b2o2b2o2b2o2b2o2b2o2b
2o2b2o2b2o2b2o2b2o2b2o2b2o2b2o2b2o2b2o2b2o2b2o2b2o2b2o2b2o2b2o2b2o2b2o
2b2o2b2o2b2o2b2o2b2o2b2o2b2o2b2o2b2o2b2o2b2o2b2o2b2o2b2o2b2o2b2o2b2o2b
2o2b2o2b2o2b2o2b2o2b2o2b2o2b2o2b2o2b2o2b2o2b2o2b2o2b2o2b2o2b2o2b2o2b2o
2b2o2b2o2b2o2b2o2b2o2b2o2b2o2b2o2b2o2b2o2b2o2b2o194b2o2b2o2b2o2b2o2b2o
2b2o2b2o2b2o2b2o2b2o2b2o2b2o2b2o2b2o2b2o2b2o2b2o2b2o2b2o2b2o2b2o2b2o2b
2o2b2o2b2o2b2o2b2o2b2o2b2o2b2o2b2o2b2o2b2o2b2o2b2o2b2o2b2o2b2o2b2o2b2o
2b2o2b2o2b2o2b2o2b2o2b2o2b2o2b2o234b2o2b2o2b2o2b2o2b2o2b2o2b2o2b2o2b2o
2b2o2b2o2b2o2b2o2b2o2b2o2b2o2b2o2b2o2b2o2b2o2b2o2b2o2b2o2b2o2b2o2b2o2b
2o2b2o2b2o2b2o2b2o2b2o2b2o2b2o2b2o2b2o2b2o2b2o2b2o2b2o2b2o2b2o2b2o2b2o
2b2o2b2o2b2o2b2o561bo138bo1387bobo140bobo726bobo140bobo812bobo140bobo
426bobo140bobo$1948bobo140bobo1387bo138bo732bo138bo818bo138bo432bo138b
o$1988b3o59b3o1428bo138bo732bo138bo818bo138bo432bo138bo$20b2o2b2o2b2o
2b2o2b2o2b2o2b2o2b2o2b2o2b2o2b2o2b2o2b2o2b2o2b2o2b2o2b2o2b2o2b2o2b2o2b
2o2b2o2b2o2b2o2b2o2b2o2b2o2b2o2b2o2b2o2b2o2b2o2b2o2b2o2b2o2b2o2b2o2b2o
2b2o2b2o2b2o2b2o2b2o2b2o2b2o2b2o2b2o2b2o2b2o2b2o2b2o2b2o2b2o2b2o2b2o2b
2o2b2o2b2o2b2o2b2o2b2o2b2o2b2o2b2o2b2o2b2o2b2o2b2o2b2o2b2o2b2o2b2o2b2o
2b2o2b2o2b2o2b2o2b2o2b2o2b2o2b2o2b2o2b2o2b2o2b2o2b2o2b2o2b2o2b2o2b2o2b
2o2b2o2b2o2b2o2b2o2b2o2b2o2b2o2b2o2b2o2b2o2b2o2b2o2b2o2b2o2b2o2b2o2b2o
2b2o2b2o2b2o2b2o2b2o2b2o2b2o2b2o2b2o2b2o2b2o2b2o2b2o2b2o2b2o2b2o2b2o2b
2o2b2o2b2o2b2o2b2o2b2o2b2o2b2o2b2o2b2o2b2o2b2o2b2o2b2o2b2o2b2o2b2o186b
2o2b2o2b2o2b2o2b2o2b2o2b2o2b2o2b2o2b2o2b2o2b2o2b2o2b2o2b2o2b2o2b2o2b2o
2b2o2b2o2b2o2b2o2b2o2b2o2b2o2b2o2b2o2b2o2b2o2b2o2b2o2b2o2b2o2b2o2b2o2b
2o2b2o2b2o2b2o2b2o2b2o2b2o2b2o2b2o2b2o2b2o2b2o2b2o2b2o2b2o226b2o2b2o2b
2o2b2o2b2o2b2o2b2o2b2o2b2o2b2o2b2o2b2o2b2o2b2o2b2o2b2o2b2o2b2o2b2o2b2o
2b2o2b2o2b2o2b2o2b2o2b2o2b2o2b2o2b2o2b2o2b2o2b2o2b2o2b2o2b2o2b2o2b2o2b
2o2b2o2b2o2b2o2b2o2b2o2b2o2b2o2b2o2b2o2b2o2b2o2b2o594bo2bo57bo2bo1425b
o2bo16b3o100b3o16bo2bo726bo2bo16b3o100b3o16bo2bo812bo2bo16b3o100b3o16b
o2bo426bo2bo16b3o100b3o16bo2bo$20b2o2b2o2b2o2b2o2b2o2b2o2b2o2b2o2b2o2b
2o2b2o2b2o2b2o2b2o2b2o2b2o2b2o2b2o2b2o2b2o2b2o2b2o2b2o2b2o2b2o2b2o2b2o
2b2o2b2o2b2o2b2o2b2o2b2o2b2o2b2o2b2o2b2o2b2o2b2o2b2o2b2o2b2o2b2o2b2o2b
2o2b2o2b2o2b2o2b2o2b2o2b2o2b2o2b2o2b2o2b2o2b2o2b2o2b2o2b2o2b2o2b2o2b2o
2b2o2b2o2b2o2b2o2b2o2b2o2b2o2b2o2b2o2b2o2b2o2b2o2b2o2b2o2b2o2b2o2b2o2b
2o2b2o2b2o2b2o2b2o2b2o2b2o2b2o2b2o2b2o2b2o2b2o2b2o2b2o2b2o2b2o2b2o2b2o
2b2o2b2o2b2o2b2o2b2o2b2o2b2o2b2o2b2o2b2o2b2o2b2o2b2o2b2o2b2o2b2o2b2o2b
2o2b2o2b2o2b2o2b2o2b2o2b2o2b2o2b2o2b2o2b2o2b2o2b2o2b2o2b2o2b2o2b2o2b2o
2b2o2b2o2b2o2b2o2b2o2b2o2b2o2b2o2b2o2b2o186b2o2b2o2b2o2b2o2b2o2b2o2b2o
2b2o2b2o2b2o2b2o2b2o2b2o2b2o2b2o2b2o2b2o2b2o2b2o2b2o2b2o2b2o2b2o2b2o2b
2o2b2o2b2o2b2o2b2o2b2o2b2o2b2o2b2o2b2o2b2o2b2o2b2o2b2o2b2o2b2o2b2o2b2o
2b2o2b2o2b2o2b2o2b2o2b2o2b2o2b2o226b2o2b2o2b2o2b2o2b2o2b2o2b2o2b2o2b2o
2b2o2b2o2b2o2b2o2b2o2b2o2b2o2b2o2b2o2b2o2b2o2b2o2b2o2b2o2b2o2b2o2b2o2b
2o2b2o2b2o2b2o2b2o2b2o2b2o2b2o2b2o2b2o2b2o2b2o2b2o2b2o2b2o2b2o2b2o2b2o
2b2o2b2o2b2o2b2o2b2o2b2o594bo17bobo23bobo17bo1426b3o15bo2bo100bo2bo15b
3o728b3o15bo2bo100bo2bo15b3o814b3o15bo2bo100bo2bo15b3o428b3o15bo2bo
100bo2bo15b3o$1988bo20bo21bo20bo1447bo100bo770bo100bo856bo100bo470bo
100bo$1989bobo17bo21bo17bobo1448bo100bo770bo100bo856bo100bo470bo100bo$
20b2o2b2o2b2o2b2o2b2o2b2o2b2o2b2o2b2o2b2o2b2o2b2o2b2o2b2o2b2o2b2o2b2o
2b2o2b2o2b2o2b2o2b2o2b2o2b2o2b2o2b2o2b2o2b2o2b2o2b2o2b2o2b2o2b2o2b2o2b
2o2b2o2b2o2b2o2b2o2b2o2b2o2b2o2b2o2b2o2b2o2b2o2b2o2b2o2b2o2b2o2b2o2b2o
2b2o2b2o2b2o2b2o2b2o2b2o2b2o2b2o2b2o2b2o2b2o2b2o2b2o2b2o2b2o2b2o2b2o2b
2o2b2o2b2o2b2o2b2o2b2o2b2o2b2o2b2o2b2o2b2o2b2o2b2o2b2o2b2o2b2o2b2o2b2o
2b2o2b2o2b2o2b2o2b2o2b2o2b2o2b2o2b2o2b2o2b2o2b2o2b2o2b2o2b2o2b2o2b2o2b
2o2b2o2b2o2b2o2b2o2b2o2b2o2b2o2b2o2b2o2b2o2b2o2b2o2b2o2b2o2b2o2b2o2b2o
2b2o2b2o2b2o2b2o2b2o2b2o2b2o2b2o2b2o2b2o2b2o2b2o2b2o2b2o2b2o2b2o2b2o2b
2o2b2o2b2o186b2o2b2o2b2o2b2o2b2o2b2o2b2o2b2o2b2o2b2o2b2o2b2o2b2o2b2o2b
2o2b2o2b2o2b2o2b2o2b2o2b2o2b2o2b2o2b2o2b2o2b2o2b2o2b2o2b2o2b2o2b2o2b2o
2b2o2b2o2b2o2b2o2b2o2b2o2b2o2b2o2b2o2b2o2b2o2b2o2b2o2b2o2b2o2b2o2b2o2b
2o2b2o218b2o2b2o2b2o2b2o2b2o2b2o2b2o2b2o2b2o2b2o2b2o2b2o2b2o2b2o2b2o2b
2o2b2o2b2o2b2o2b2o2b2o2b2o2b2o2b2o2b2o2b2o2b2o2b2o2b2o2b2o2b2o2b2o2b2o
2b2o2b2o2b2o2b2o2b2o2b2o2b2o2b2o2b2o2b2o2b2o2b2o2b2o2b2o2b2o2b2o2b2o2b
2o612bo2bo21bo2bo1462bobo102bobo764bobo102bobo850bobo102bobo464bobo
102bobo$20b2o2b2o2b2o2b2o2b2o2b2o2b2o2b2o2b2o2b2o2b2o2b2o2b2o2b2o2b2o
2b2o2b2o2b2o2b2o2b2o2b2o2b2o2b2o2b2o2b2o2b2o2b2o2b2o2b2o2b2o2b2o2b2o2b
2o2b2o2b2o2b2o2b2o2b2o2b2o2b2o2b2o2b2o2b2o2b2o2b2o2b2o2b2o2b2o2b2o2b2o
2b2o2b2o2b2o2b2o2b2o2b2o2b2o2b2o2b2o2b2o2b2o2b2o2b2o2b2o2b2o2b2o2b2o2b
2o2b2o2b2o2b2o2b2o2b2o2b2o2b2o2b2o2b2o2b2o2b2o2b2o2b2o2b2o2b2o2b2o2b2o
2b2o2b2o2b2o2b2o2b2o2b2o2b2o2b2o2b2o2b2o2b2o2b2o2b2o2b2o2b2o2b2o2b2o2b
2o2b2o2b2o2b2o2b2o2b2o2b2o2b2o2b2o2b2o2b2o2b2o2b2o2b2o2b2o2b2o2b2o2b2o
2b2o2b2o2b2o2b2o2b2o2b2o2b2o2b2o2b2o2b2o2b2o2b2o2b2o2b2o2b2o2b2o2b2o2b
2o2b2o2b2o2b2o2b2o186b2o2b2o2b2o2b2o2b2o2b2o2b2o2b2o2b2o2b2o2b2o2b2o2b
2o2b2o2b2o2b2o2b2o2b2o2b2o2b2o2b2o2b2o2b2o2b2o2b2o2b2o2b2o2b2o2b2o2b2o
2b2o2b2o2b2o2b2o2b2o2b2o2b2o2b2o2b2o2b2o2b2o2b2o2b2o2b2o2b2o2b2o2b2o2b
2o2b2o2b2o2b2o218b2o2b2o2b2o2b2o2b2o2b2o2b2o2b2o2b2o2b2o2b2o2b2o2b2o2b
2o2b2o2b2o2b2o2b2o2b2o2b2o2b2o2b2o2b2o2b2o2b2o2b2o2b2o2b2o2b2o2b2o2b2o
2b2o2b2o2b2o2b2o2b2o2b2o2b2o2b2o2b2o2b2o2b2o2b2o2b2o2b2o2b2o2b2o2b2o2b
2o2b2o2b2o613b3o21b3o1503b3o21b3o846b3o21b3o930b3o21b3o546b3o21b3o$
1969bobo98bobo1464bo2bo19bo2bo846bo2bo19bo2bo930bo2bo19bo2bo546bo2bo
19bo2bo$1968bo104bo1443bobo17bo25bo17bobo806bobo17bo25bo17bobo890bobo
17bo25bo17bobo506bobo17bo25bo17bobo$16b2o2b2o2b2o2b2o2b2o2b2o2b2o2b2o
2b2o2b2o2b2o2b2o2b2o2b2o2b2o2b2o2b2o2b2o2b2o2b2o2b2o2b2o2b2o2b2o2b2o2b
2o2b2o2b2o2b2o2b2o2b2o2b2o2b2o2b2o2b2o2b2o2b2o2b2o2b2o2b2o2b2o2b2o2b2o
2b2o2b2o2b2o2b2o2b2o2b2o2b2o2b2o2b2o2b2o2b2o2b2o2b2o2b2o2b2o2b2o2b2o2b
2o2b2o2b2o2b2o2b2o2b2o2b2o2b2o2b2o2b2o2b2o2b2o2b2o2b2o2b2o2b2o2b2o2b2o
2b2o2b2o2b2o2b2o2b2o2b2o2b2o2b2o2b2o2b2o2b2o2b2o2b2o2b2o2b2o2b2o2b2o2b
2o2b2o2b2o2b2o2b2o2b2o2b2o2b2o2b2o2b2o2b2o2b2o2b2o2b2o2b2o2b2o2b2o2b2o
2b2o2b2o2b2o2b2o2b2o2b2o2b2o2b2o2b2o2b2o2b2o2b2o2b2o2b2o2b2o2b2o2b2o2b
2o2b2o2b2o2b2o2b2o2b2o2b2o2b2o2b2o2b2o2b2o2b2o2b2o2b2o178b2o2b2o2b2o2b
2o2b2o2b2o2b2o2b2o2b2o2b2o2b2o2b2o2b2o2b2o2b2o2b2o2b2o2b2o2b2o2b2o2b2o
2b2o2b2o2b2o2b2o2b2o2b2o2b2o2b2o2b2o2b2o2b2o2b2o2b2o2b2o2b2o2b2o2b2o2b
2o2b2o2b2o2b2o2b2o2b2o2b2o2b2o2b2o2b2o2b2o2b2o2b2o2b2o2b2o210b2o2b2o2b
2o2b2o2b2o2b2o2b2o2b2o2b2o2b2o2b2o2b2o2b2o2b2o2b2o2b2o2b2o2b2o2b2o2b2o
2b2o2b2o2b2o2b2o2b2o2b2o2b2o2b2o2b2o2b2o2b2o2b2o2b2o2b2o2b2o2b2o2b2o2b
2o2b2o2b2o2b2o2b2o2b2o2b2o2b2o2b2o2b2o2b2o2b2o2b2o2b2o2b2o2b2o570bo
104bo1446bo16bo25bo16bo812bo16bo25bo16bo896bo16bo25bo16bo512bo16bo25bo
16bo$16b2o2b2o2b2o2b2o2b2o2b2o2b2o2b2o2b2o2b2o2b2o2b2o2b2o2b2o2b2o2b2o
2b2o2b2o2b2o2b2o2b2o2b2o2b2o2b2o2b2o2b2o2b2o2b2o2b2o2b2o2b2o2b2o2b2o2b
2o2b2o2b2o2b2o2b2o2b2o2b2o2b2o2b2o2b2o2b2o2b2o2b2o2b2o2b2o2b2o2b2o2b2o
2b2o2b2o2b2o2b2o2b2o2b2o2b2o2b2o2b2o2b2o2b2o2b2o2b2o2b2o2b2o2b2o2b2o2b
2o2b2o2b2o2b2o2b2o2b2o2b2o2b2o2b2o2b2o2b2o2b2o2b2o2b2o2b2o2b2o2b2o2b2o
2b2o2b2o2b2o2b2o2b2o2b2o2b2o2b2o2b2o2b2o2b2o2b2o2b2o2b2o2b2o2b2o2b2o2b
2o2b2o2b2o2b2o2b2o2b2o2b2o2b2o2b2o2b2o2b2o2b2o2b2o2b2o2b2o2b2o2b2o2b2o
2b2o2b2o2b2o2b2o2b2o2b2o2b2o2b2o2b2o2b2o2b2o2b2o2b2o2b2o2b2o2b2o2b2o2b
2o2b2o2b2o2b2o2b2o2b2o178b2o2b2o2b2o2b2o2b2o2b2o2b2o2b2o2b2o2b2o2b2o2b
2o2b2o2b2o2b2o2b2o2b2o2b2o2b2o2b2o2b2o2b2o2b2o2b2o2b2o2b2o2b2o2b2o2b2o
2b2o2b2o2b2o2b2o2b2o2b2o2b2o2b2o2b2o2b2o2b2o2b2o2b2o2b2o2b2o2b2o2b2o2b
2o2b2o2b2o2b2o2b2o2b2o2b2o210b2o2b2o2b2o2b2o2b2o2b2o2b2o2b2o2b2o2b2o2b
2o2b2o2b2o2b2o2b2o2b2o2b2o2b2o2b2o2b2o2b2o2b2o2b2o2b2o2b2o2b2o2b2o2b2o
2b2o2b2o2b2o2b2o2b2o2b2o2b2o2b2o2b2o2b2o2b2o2b2o2b2o2b2o2b2o2b2o2b2o2b
2o2b2o2b2o2b2o2b2o2b2o2b2o2b2o551b3o16bo2bo98bo2bo16b3o1427bo17bobo19b
obo17bo812bo17bobo19bobo17bo896bo17bobo19bobo17bo512bo17bobo19bobo17bo
$1949bo2bo15b3o100b3o15bo2bo1424bo2bo59bo2bo806bo2bo59bo2bo890bo2bo59b
o2bo506bo2bo59bo2bo$1949bo142bo1425b3o59b3o808b3o59b3o892b3o59b3o508b
3o59b3o$16b2o2b2o2b2o2b2o2b2o2b2o2b2o2b2o2b2o2b2o2b2o2b2o2b2o2b2o2b2o
2b2o2b2o2b2o2b2o2b2o2b2o2b2o2b2o2b2o2b2o2b2o2b2o2b2o2b2o2b2o2b2o2b2o2b
2o2b2o2b2o2b2o2b2o2b2o2b2o2b2o2b2o2b2o2b2o2b2o2b2o2b2o2b2o2b2o2b2o2b2o
2b2o2b2o2b2o2b2o2b2o2b2o2b2o2b2o2b2o2b2o2b2o2b2o2b2o2b2o2b2o2b2o2b2o2b
2o2b2o2b2o2b2o2b2o2b2o2b2o2b2o2b2o2b2o2b2o2b2o2b2o2b2o2b2o2b2o2b2o2b2o
2b2o2b2o2b2o2b2o2b2o2b2o2b2o2b2o2b2o2b2o2b2o2b2o2b2o2b2o2b2o2b2o2b2o2b
2o2b2o2b2o2b2o2b2o2b2o2b2o2b2o2b2o2b2o2b2o2b2o2b2o2b2o2b2o2b2o2b2o2b2o
2b2o2b2o2b2o2b2o2b2o2b2o2b2o2b2o2b2o2b2o2b2o2b2o2b2o2b2o2b2o2b2o2b2o2b
2o2b2o2b2o2b2o2b2o2b2o2b2o178b2o2b2o2b2o2b2o2b2o2b2o2b2o2b2o2b2o2b2o2b
2o2b2o2b2o2b2o2b2o2b2o2b2o2b2o2b2o2b2o2b2o2b2o2b2o2b2o2b2o2b2o2b2o2b2o
2b2o2b2o2b2o2b2o2b2o2b2o2b2o2b2o2b2o2b2o2b2o2b2o2b2o2b2o2b2o2b2o2b2o2b
2o2b2o2b2o2b2o2b2o2b2o2b2o2b2o2b2o202b2o2b2o2b2o2b2o2b2o2b2o2b2o2b2o2b
2o2b2o2b2o2b2o2b2o2b2o2b2o2b2o2b2o2b2o2b2o2b2o2b2o2b2o2b2o2b2o2b2o2b2o
2b2o2b2o2b2o2b2o2b2o2b2o2b2o2b2o2b2o2b2o2b2o2b2o2b2o2b2o2b2o2b2o2b2o2b
2o2b2o2b2o2b2o2b2o2b2o2b2o2b2o2b2o2b2o2b2o551bo142bo1387bobo136bobo
730bobo136bobo816bobo136bobo430bobo136bobo$16b2o2b2o2b2o2b2o2b2o2b2o2b
2o2b2o2b2o2b2o2b2o2b2o2b2o2b2o2b2o2b2o2b2o2b2o2b2o2b2o2b2o2b2o2b2o2b2o
2b2o2b2o2b2o2b2o2b2o2b2o2b2o2b2o2b2o2b2o2b2o2b2o2b2o2b2o2b2o2b2o2b2o2b
2o2b2o2b2o2b2o2b2o2b2o2b2o2b2o2b2o2b2o2b2o2b2o2b2o2b2o2b2o2b2o2b2o2b2o
2b2o2b2o2b2o2b2o2b2o2b2o2b2o2b2o2b2o2b2o2b2o2b2o2b2o2b2o2b2o2b2o2b2o2b
2o2b2o2b2o2b2o2b2o2b2o2b2o2b2o2b2o2b2o2b2o2b2o2b2o2b2o2b2o2b2o2b2o2b2o
2b2o2b2o2b2o2b2o2b2o2b2o2b2o2b2o2b2o2b2o2b2o2b2o2b2o2b2o2b2o2b2o2b2o2b
2o2b2o2b2o2b2o2b2o2b2o2b2o2b2o2b2o2b2o2b2o2b2o2b2o2b2o2b2o2b2o2b2o2b2o
2b2o2b2o2b2o2b2o2b2o2b2o2b2o2b2o2b2o2b2o2b2o2b2o2b2o2b2o2b2o178b2o2b2o
2b2o2b2o2b2o2b2o2b2o2b2o2b2o2b2o2b2o2b2o2b2o2b2o2b2o2b2o2b2o2b2o2b2o2b
2o2b2o2b2o2b2o2b2o2b2o2b2o2b2o2b2o2b2o2b2o2b2o2b2o2b2o2b2o2b2o2b2o2b2o
2b2o2b2o2b2o2b2o2b2o2b2o2b2o2b2o2b2o2b2o2b2o2b2o2b2o2b2o2b2o2b2o2b2o
202b2o2b2o2b2o2b2o2b2o2b2o2b2o2b2o2b2o2b2o2b2o2b2o2b2o2b2o2b2o2b2o2b2o
2b2o2b2o2b2o2b2o2b2o2b2o2b2o2b2o2b2o2b2o2b2o2b2o2b2o2b2o2b2o2b2o2b2o2b
2o2b2o2b2o2b2o2b2o2b2o2b2o2b2o2b2o2b2o2b2o2b2o2b2o2b2o2b2o2b2o2b2o2b2o
2b2o2b2o552bobo136bobo1387bo142bo728bo142bo814bo142bo428bo142bo$1988b
3o59b3o1426bo142bo728bo142bo814bo142bo428bo142bo$1987bo2bo59bo2bo1425b
o2bo15b3o100b3o15bo2bo728bo2bo15b3o100b3o15bo2bo814bo2bo15b3o100b3o15b
o2bo428bo2bo15b3o100b3o15bo2bo$12b2o2b2o2b2o2b2o2b2o2b2o2b2o2b2o2b2o2b
2o2b2o2b2o2b2o2b2o2b2o2b2o2b2o2b2o2b2o2b2o2b2o2b2o2b2o2b2o2b2o2b2o2b2o
2b2o2b2o2b2o2b2o2b2o2b2o2b2o2b2o2b2o2b2o2b2o2b2o2b2o2b2o2b2o2b2o2b2o2b
2o2b2o2b2o2b2o2b2o2b2o2b2o2b2o2b2o2b2o2b2o2b2o2b2o2b2o2b2o2b2o2b2o2b2o
2b2o2b2o2b2o2b2o2b2o2b2o2b2o2b2o2b2o2b2o2b2o2b2o2b2o2b2o2b2o2b2o2b2o2b
2o2b2o2b2o2b2o2b2o2b2o2b2o2b2o2b2o2b2o2b2o2b2o2b2o2b2o2b2o2b2o2b2o2b2o
2b2o2b2o2b2o2b2o2b2o2b2o2b2o2b2o2b2o2b2o2b2o2b2o2b2o2b2o2b2o2b2o2b2o2b
2o2b2o2b2o2b2o2b2o2b2o2b2o2b2o2b2o2b2o2b2o2b2o2b2o2b2o2b2o2b2o2b2o2b2o
2b2o2b2o2b2o2b2o2b2o2b2o2b2o2b2o2b2o2b2o2b2o2b2o2b2o2b2o170b2o2b2o2b2o
2b2o2b2o2b2o2b2o2b2o2b2o2b2o2b2o2b2o2b2o2b2o2b2o2b2o2b2o2b2o2b2o2b2o2b
2o2b2o2b2o2b2o2b2o2b2o2b2o2b2o2b2o2b2o2b2o2b2o2b2o2b2o2b2o2b2o2b2o2b2o
2b2o2b2o2b2o2b2o2b2o2b2o2b2o2b2o2b2o2b2o2b2o2b2o2b2o2b2o2b2o2b2o2b2o2b
2o194b2o2b2o2b2o2b2o2b2o2b2o2b2o2b2o2b2o2b2o2b2o2b2o2b2o2b2o2b2o2b2o2b
2o2b2o2b2o2b2o2b2o2b2o2b2o2b2o2b2o2b2o2b2o2b2o2b2o2b2o2b2o2b2o2b2o2b2o
2b2o2b2o2b2o2b2o2b2o2b2o2b2o2b2o2b2o2b2o2b2o2b2o2b2o2b2o2b2o2b2o2b2o2b
2o2b2o2b2o2b2o2b2o588bo17bobo19bobo17bo1428b3o16bo2bo98bo2bo16b3o728b
3o16bo2bo98bo2bo16b3o814b3o16bo2bo98bo2bo16b3o428b3o16bo2bo98bo2bo16b
3o$12b2o2b2o2b2o2b2o2b2o2b2o2b2o2b2o2b2o2b2o2b2o2b2o2b2o2b2o2b2o2b2o2b
2o2b2o2b2o2b2o2b2o2b2o2b2o2b2o2b2o2b2o2b2o2b2o2b2o2b2o2b2o2b2o2b2o2b2o
2b2o2b2o2b2o2b2o2b2o2b2o2b2o2b2o2b2o2b2o2b2o2b2o2b2o2b2o2b2o2b2o2b2o2b
2o2b2o2b2o2b2o2b2o2b2o2b2o2b2o2b2o2b2o2b2o2b2o2b2o2b2o2b2o2b2o2b2o2b2o
2b2o2b2o2b2o2b2o2b2o2b2o2b2o2b2o2b2o2b2o2b2o2b2o2b2o2b2o2b2o2b2o2b2o2b
2o2b2o2b2o2b2o2b2o2b2o2b2o2b2o2b2o2b2o2b2o2b2o2b2o2b2o2b2o2b2o2b2o2b2o
2b2o2b2o2b2o2b2o2b2o2b2o2b2o2b2o2b2o2b2o2b2o2b2o2b2o2b2o2b2o2b2o2b2o2b
2o2b2o2b2o2b2o2b2o2b2o2b2o2b2o2b2o2b2o2b2o2b2o2b2o2b2o2b2o2b2o2b2o2b2o
2b2o2b2o2b2o2b2o2b2o2b2o2b2o170b2o2b2o2b2o2b2o2b2o2b2o2b2o2b2o2b2o2b2o
2b2o2b2o2b2o2b2o2b2o2b2o2b2o2b2o2b2o2b2o2b2o2b2o2b2o2b2o2b2o2b2o2b2o2b
2o2b2o2b2o2b2o2b2o2b2o2b2o2b2o2b2o2b2o2b2o2b2o2b2o2b2o2b2o2b2o2b2o2b2o
2b2o2b2o2b2o2b2o2b2o2b2o2b2o2b2o2b2o2b2o2b2o194b2o2b2o2b2o2b2o2b2o2b2o
2b2o2b2o2b2o2b2o2b2o2b2o2b2o2b2o2b2o2b2o2b2o2b2o2b2o2b2o2b2o2b2o2b2o2b
2o2b2o2b2o2b2o2b2o2b2o2b2o2b2o2b2o2b2o2b2o2b2o2b2o2b2o2b2o2b2o2b2o2b2o
2b2o2b2o2b2o2b2o2b2o2b2o2b2o2b2o2b2o2b2o2b2o2b2o2b2o2b2o2b2o588bo16bo
25bo16bo1447bo104bo766bo104bo852bo104bo466bo104bo$1987bobo17bo25bo17bo
bo1444bo104bo766bo104bo852bo104bo466bo104bo$2007bo2bo19bo2bo1465bobo
98bobo768bobo98bobo854bobo98bobo468bobo98bobo$12b2o2b2o2b2o2b2o2b2o2b
2o2b2o2b2o2b2o2b2o2b2o2b2o2b2o2b2o2b2o2b2o2b2o2b2o2b2o2b2o2b2o2b2o2b2o
2b2o2b2o2b2o2b2o2b2o2b2o2b2o2b2o2b2o2b2o2b2o2b2o2b2o2b2o2b2o2b2o2b2o2b
2o2b2o2b2o2b2o2b2o2b2o2b2o2b2o2b2o2b2o2b2o2b2o2b2o2b2o2b2o2b2o2b2o2b2o
2b2o2b2o2b2o2b2o2b2o2b2o2b2o2b2o2b2o2b2o2b2o2b2o2b2o2b2o2b2o2b2o2b2o2b
2o2b2o2b2o2b2o2b2o2b2o2b2o2b2o2b2o2b2o2b2o2b2o2b2o2b2o2b2o2b2o2b2o2b2o
2b2o2b2o2b2o2b2o2b2o2b2o2b2o2b2o2b2o2b2o2b2o2b2o2b2o2b2o2b2o2b2o2b2o2b
2o2b2o2b2o2b2o2b2o2b2o2b2o2b2o2b2o2b2o2b2o2b2o2b2o2b2o2b2o2b2o2b2o2b2o
2b2o2b2o2b2o2b2o2b2o2b2o2b2o2b2o2b2o2b2o2b2o2b2o2b2o2b2o2b2o2b2o2b2o2b
2o170b2o2b2o2b2o2b2o2b2o2b2o2b2o2b2o2b2o2b2o2b2o2b2o2b2o2b2o2b2o2b2o2b
2o2b2o2b2o2b2o2b2o2b2o2b2o2b2o2b2o2b2o2b2o2b2o2b2o2b2o2b2o2b2o2b2o2b2o
2b2o2b2o2b2o2b2o2b2o2b2o2b2o2b2o2b2o2b2o2b2o2b2o2b2o2b2o2b2o2b2o2b2o2b
2o2b2o2b2o2b2o2b2o2b2o186b2o2b2o2b2o2b2o2b2o2b2o2b2o2b2o2b2o2b2o2b2o2b
2o2b2o2b2o2b2o2b2o2b2o2b2o2b2o2b2o2b2o2b2o2b2o2b2o2b2o2b2o2b2o2b2o2b2o
2b2o2b2o2b2o2b2o2b2o2b2o2b2o2b2o2b2o2b2o2b2o2b2o2b2o2b2o2b2o2b2o2b2o2b
2o2b2o2b2o2b2o2b2o2b2o2b2o2b2o2b2o2b2o2b2o605b3o21b3o1503b3o21b3o846b
3o21b3o930b3o21b3o546b3o21b3o$12b2o2b2o2b2o2b2o2b2o2b2o2b2o2b2o2b2o2b
2o2b2o2b2o2b2o2b2o2b2o2b2o2b2o2b2o2b2o2b2o2b2o2b2o2b2o2b2o2b2o2b2o2b2o
2b2o2b2o2b2o2b2o2b2o2b2o2b2o2b2o2b2o2b2o2b2o2b2o2b2o2b2o2b2o2b2o2b2o2b
2o2b2o2b2o2b2o2b2o2b2o2b2o2b2o2b2o2b2o2b2o2b2o2b2o2b2o2b2o2b2o2b2o2b2o
2b2o2b2o2b2o2b2o2b2o2b2o2b2o2b2o2b2o2b2o2b2o2b2o2b2o2b2o2b2o2b2o2b2o2b
2o2b2o2b2o2b2o2b2o2b2o2b2o2b2o2b2o2b2o2b2o2b2o2b2o2b2o2b2o2b2o2b2o2b2o
2b2o2b2o2b2o2b2o2b2o2b2o2b2o2b2o2b2o2b2o2b2o2b2o2b2o2b2o2b2o2b2o2b2o2b
2o2b2o2b2o2b2o2b2o2b2o2b2o2b2o2b2o2b2o2b2o2b2o2b2o2b2o2b2o2b2o2b2o2b2o
2b2o2b2o2b2o2b2o2b2o2b2o2b2o2b2o2b2o2b2o2b2o2b2o2b2o2b2o170b2o2b2o2b2o
2b2o2b2o2b2o2b2o2b2o2b2o2b2o2b2o2b2o2b2o2b2o2b2o2b2o2b2o2b2o2b2o2b2o2b
2o2b2o2b2o2b2o2b2o2b2o2b2o2b2o2b2o2b2o2b2o2b2o2b2o2b2o2b2o2b2o2b2o2b2o
2b2o2b2o2b2o2b2o2b2o2b2o2b2o2b2o2b2o2b2o2b2o2b2o2b2o2b2o2b2o2b2o2b2o2b
2o2b2o186b2o2b2o2b2o2b2o2b2o2b2o2b2o2b2o2b2o2b2o2b2o2b2o2b2o2b2o2b2o2b
2o2b2o2b2o2b2o2b2o2b2o2b2o2b2o2b2o2b2o2b2o2b2o2b2o2b2o2b2o2b2o2b2o2b2o
2b2o2b2o2b2o2b2o2b2o2b2o2b2o2b2o2b2o2b2o2b2o2b2o2b2o2b2o2b2o2b2o2b2o2b
2o2b2o2b2o2b2o2b2o2b2o2b2o565bobo102bobo1461bo2bo21bo2bo844bo2bo21bo2b
o928bo2bo21bo2bo544bo2bo21bo2bo$1970bo100bo1447bobo17bo21bo17bobo810bo
bo17bo21bo17bobo894bobo17bo21bo17bobo510bobo17bo21bo17bobo$1970bo100bo
1446bo20bo21bo20bo808bo20bo21bo20bo892bo20bo21bo20bo508bo20bo21bo20bo$
12b2o2b2o2b2o2b2o2b2o2b2o2b2o2b2o2b2o2b2o2b2o2b2o2b2o2b2o2b2o2b2o2b2o
2b2o2b2o2b2o2b2o2b2o2b2o2b2o2b2o2b2o2b2o2b2o2b2o2b2o2b2o2b2o2b2o2b2o2b
2o2b2o2b2o2b2o2b2o2b2o2b2o2b2o2b2o2b2o2b2o2b2o2b2o2b2o2b2o2b2o2b2o2b2o
2b2o2b2o2b2o2b2o2b2o2b2o2b2o2b2o2b2o2b2o2b2o2b2o2b2o2b2o2b2o2b2o2b2o2b
2o2b2o2b2o2b2o2b2o2b2o2b2o2b2o2b2o2b2o2b2o2b2o2b2o2b2o2b2o2b2o2b2o2b2o
2b2o2b2o2b2o2b2o2b2o2b2o2b2o2b2o2b2o2b2o2b2o2b2o2b2o2b2o2b2o2b2o2b2o2b
2o2b2o2b2o2b2o2b2o2b2o2b2o2b2o2b2o2b2o2b2o2b2o2b2o2b2o2b2o2b2o2b2o2b2o
2b2o2b2o2b2o2b2o2b2o2b2o2b2o2b2o2b2o2b2o2b2o2b2o2b2o2b2o2b2o2b2o2b2o2b
2o2b2o2b2o2b2o2b2o2b2o2b2o170b2o2b2o2b2o2b2o2b2o2b2o2b2o2b2o2b2o2b2o2b
2o2b2o2b2o2b2o2b2o2b2o2b2o2b2o2b2o2b2o2b2o2b2o2b2o2b2o2b2o2b2o2b2o2b2o
2b2o2b2o2b2o2b2o2b2o2b2o2b2o2b2o2b2o2b2o2b2o2b2o2b2o2b2o2b2o2b2o2b2o2b
2o2b2o2b2o2b2o2b2o2b2o2b2o2b2o2b2o2b2o2b2o2b2o2b2o178b2o2b2o2b2o2b2o2b
2o2b2o2b2o2b2o2b2o2b2o2b2o2b2o2b2o2b2o2b2o2b2o2b2o2b2o2b2o2b2o2b2o2b2o
2b2o2b2o2b2o2b2o2b2o2b2o2b2o2b2o2b2o2b2o2b2o2b2o2b2o2b2o2b2o2b2o2b2o2b
2o2b2o2b2o2b2o2b2o2b2o2b2o2b2o2b2o2b2o2b2o2b2o2b2o2b2o2b2o2b2o2b2o2b2o
2b2o547b3o15bo2bo100bo2bo15b3o1425bo17bobo23bobo17bo808bo17bobo23bobo
17bo892bo17bobo23bobo17bo508bo17bobo23bobo17bo$12b2o2b2o2b2o2b2o2b2o2b
2o2b2o2b2o2b2o2b2o2b2o2b2o2b2o2b2o2b2o2b2o2b2o2b2o2b2o2b2o2b2o2b2o2b2o
2b2o2b2o2b2o2b2o2b2o2b2o2b2o2b2o2b2o2b2o2b2o2b2o2b2o2b2o2b2o2b2o2b2o2b
2o2b2o2b2o2b2o2b2o2b2o2b2o2b2o2b2o2b2o2b2o2b2o2b2o2b2o2b2o2b2o2b2o2b2o
2b2o2b2o2b2o2b2o2b2o2b2o2b2o2b2o2b2o2b2o2b2o2b2o2b2o2b2o2b2o2b2o2b2o2b
2o2b2o2b2o2b2o2b2o2b2o2b2o2b2o2b2o2b2o2b2o2b2o2b2o2b2o2b2o2b2o2b2o2b2o
2b2o2b2o2b2o2b2o2b2o2b2o2b2o2b2o2b2o2b2o2b2o2b2o2b2o2b2o2b2o2b2o2b2o2b
2o2b2o2b2o2b2o2b2o2b2o2b2o2b2o2b2o2b2o2b2o2b2o2b2o2b2o2b2o2b2o2b2o2b2o
2b2o2b2o2b2o2b2o2b2o2b2o2b2o2b2o2b2o2b2o2b2o2b2o2b2o2b2o2b2o2b2o2b2o2b
2o170b2o2b2o2b2o2b2o2b2o2b2o2b2o2b2o2b2o2b2o2b2o2b2o2b2o2b2o2b2o2b2o2b
2o2b2o2b2o2b2o2b2o2b2o2b2o2b2o2b2o2b2o2b2o2b2o2b2o2b2o2b2o2b2o2b2o2b2o
2b2o2b2o2b2o2b2o2b2o2b2o2b2o2b2o2b2o2b2o2b2o2b2o2b2o2b2o2b2o2b2o2b2o2b
2o2b2o2b2o2b2o2b2o2b2o2b2o178b2o2b2o2b2o2b2o2b2o2b2o2b2o2b2o2b2o2b2o2b
2o2b2o2b2o2b2o2b2o2b2o2b2o2b2o2b2o2b2o2b2o2b2o2b2o2b2o2b2o2b2o2b2o2b2o
2b2o2b2o2b2o2b2o2b2o2b2o2b2o2b2o2b2o2b2o2b2o2b2o2b2o2b2o2b2o2b2o2b2o2b
2o2b2o2b2o2b2o2b2o2b2o2b2o2b2o2b2o2b2o2b2o2b2o2b2o546bo2bo16b3o100b3o
16bo2bo1424bo2bo57bo2bo808bo2bo57bo2bo892bo2bo57bo2bo508bo2bo57bo2bo$
1951bo138bo1427b3o59b3o808b3o59b3o892b3o59b3o508b3o59b3o$1951bo138bo
1387bobo140bobo726bobo140bobo812bobo140bobo426bobo140bobo$8b2o2b2o2b2o
2b2o2b2o2b2o2b2o2b2o2b2o2b2o2b2o2b2o2b2o2b2o2b2o2b2o2b2o2b2o2b2o2b2o2b
2o2b2o2b2o2b2o2b2o2b2o2b2o2b2o2b2o2b2o2b2o2b2o2b2o2b2o2b2o2b2o2b2o2b2o
2b2o2b2o2b2o2b2o2b2o2b2o2b2o2b2o2b2o2b2o2b2o2b2o2b2o2b2o2b2o2b2o2b2o2b
2o2b2o2b2o2b2o2b2o2b2o2b2o2b2o2b2o2b2o2b2o2b2o2b2o2b2o2b2o2b2o2b2o2b2o
2b2o2b2o2b2o2b2o2b2o2b2o2b2o2b2o2b2o2b2o2b2o2b2o2b2o2b2o2b2o2b2o2b2o2b
2o2b2o2b2o2b2o2b2o2b2o2b2o2b2o2b2o2b2o2b2o2b2o2b2o2b2o2b2o2b2o2b2o2b2o
2b2o2b2o2b2o2b2o2b2o2b2o2b2o2b2o2b2o2b2o2b2o2b2o2b2o2b2o2b2o2b2o2b2o2b
2o2b2o2b2o2b2o2b2o2b2o2b2o2b2o2b2o2b2o2b2o2b2o2b2o2b2o2b2o2b2o2b2o2b2o
2b2o2b2o2b2o2b2o2b2o162b2o2b2o2b2o2b2o2b2o2b2o2b2o2b2o2b2o2b2o2b2o2b2o
2b2o2b2o2b2o2b2o2b2o2b2o2b2o2b2o2b2o2b2o2b2o2b2o2b2o2b2o2b2o2b2o2b2o2b
2o2b2o2b2o2b2o2b2o2b2o2b2o2b2o2b2o2b2o2b2o2b2o2b2o2b2o2b2o2b2o2b2o2b2o
2b2o2b2o2b2o2b2o2b2o2b2o2b2o2b2o2b2o2b2o2b2o2b2o2b2o170b2o2b2o2b2o2b2o
2b2o2b2o2b2o2b2o2b2o2b2o2b2o2b2o2b2o2b2o2b2o2b2o2b2o2b2o2b2o2b2o2b2o2b
2o2b2o2b2o2b2o2b2o2b2o2b2o2b2o2b2o2b2o2b2o2b2o2b2o2b2o2b2o2b2o2b2o2b2o
2b2o2b2o2b2o2b2o2b2o2b2o2b2o2b2o2b2o2b2o2b2o2b2o2b2o2b2o2b2o2b2o2b2o2b
2o2b2o2b2o2b2o542bobo140bobo1387bo138bo732bo138bo818bo138bo432bo138bo$
8b2o2b2o2b2o2b2o2b2o2b2o2b2o2b2o2b2o2b2o2b2o2b2o2b2o2b2o2b2o2b2o2b2o2b
2o2b2o2b2o2b2o2b2o2b2o2b2o2b2o2b2o2b2o2b2o2b2o2b2o2b2o2b2o2b2o2b2o2b2o
2b2o2b2o2b2o2b2o2b2o2b2o2b2o2b2o2b2o2b2o2b2o2b2o2b2o2b2o2b2o2b2o2b2o2b
2o2b2o2b2o2b2o2b2o2b2o2b2o2b2o2b2o2b2o2b2o2b2o2b2o2b2o2b2o2b2o2b2o2b2o
2b2o2b2o2b2o2b2o2b2o2b2o2b2o2b2o2b2o2b2o2b2o2b2o2b2o2b2o2b2o2b2o2b2o2b
2o2b2o2b2o2b2o2b2o2b2o2b2o2b2o2b2o2b2o2b2o2b2o2b2o2b2o2b2o2b2o2b2o2b2o
2b2o2b2o2b2o2b2o2b2o2b2o2b2o2b2o2b2o2b2o2b2o2b2o2b2o2b2o2b2o2b2o2b2o2b
2o2b2o2b2o2b2o2b2o2b2o2b2o2b2o2b2o2b2o2b2o2b2o2b2o2b2o2b2o2b2o2b2o2b2o
2b2o2b2o2b2o2b2o2b2o2b2o2b2o2b2o162b2o2b2o2b2o2b2o2b2o2b2o2b2o2b2o2b2o
2b2o2b2o2b2o2b2o2b2o2b2o2b2o2b2o2b2o2b2o2b2o2b2o2b2o2b2o2b2o2b2o2b2o2b
2o2b2o2b2o2b2o2b2o2b2o2b2o2b2o2b2o2b2o2b2o2b2o2b2o2b2o2b2o2b2o2b2o2b2o
2b2o2b2o2b2o2b2o2b2o2b2o2b2o2b2o2b2o2b2o2b2o2b2o2b2o2b2o2b2o2b2o170b2o
2b2o2b2o2b2o2b2o2b2o2b2o2b2o2b2o2b2o2b2o2b2o2b2o2b2o2b2o2b2o2b2o2b2o2b
2o2b2o2b2o2b2o2b2o2b2o2b2o2b2o2b2o2b2o2b2o2b2o2b2o2b2o2b2o2b2o2b2o2b2o
2b2o2b2o2b2o2b2o2b2o2b2o2b2o2b2o2b2o2b2o2b2o2b2o2b2o2b2o2b2o2b2o2b2o2b
2o2b2o2b2o2b2o2b2o2b2o2b2o582b3o59b3o1428bo138bo732bo138bo818bo138bo
432bo138bo$1988bo2bo57bo2bo1425bo2bo16b3o100b3o16bo2bo726bo2bo16b3o
100b3o16bo2bo812bo2bo16b3o100b3o16bo2bo426bo2bo16b3o100b3o16bo2bo$
1988bo17bobo23bobo17bo1426b3o15bo2bo100bo2bo15b3o728b3o15bo2bo100bo2bo
15b3o814b3o15bo2bo100bo2bo15b3o428b3o15bo2bo100bo2bo15b3o$8b2o2b2o2b2o
2b2o2b2o2b2o2b2o2b2o2b2o2b2o2b2o2b2o2b2o2b2o2b2o2b2o2b2o2b2o2b2o2b2o2b
2o2b2o2b2o2b2o2b2o2b2o2b2o2b2o2b2o2b2o2b2o2b2o2b2o2b2o2b2o2b2o2b2o2b2o
2b2o2b2o2b2o2b2o2b2o2b2o2b2o2b2o2b2o2b2o2b2o2b2o2b2o2b2o2b2o2b2o2b2o2b
2o2b2o2b2o2b2o2b2o2b2o2b2o2b2o2b2o2b2o2b2o2b2o2b2o2b2o2b2o2b2o2b2o2b2o
2b2o2b2o2b2o2b2o2b2o2b2o2b2o2b2o2b2o2b2o2b2o2b2o2b2o2b2o2b2o2b2o2b2o2b
2o2b2o2b2o2b2o2b2o2b2o2b2o2b2o2b2o2b2o2b2o2b2o2b2o2b2o2b2o2b2o2b2o2b2o
2b2o2b2o2b2o2b2o2b2o2b2o2b2o2b2o2b2o2b2o2b2o2b2o2b2o2b2o2b2o2b2o2b2o2b
2o2b2o2b2o2b2o2b2o2b2o2b2o2b2o2b2o2b2o2b2o2b2o2b2o2b2o2b2o2b2o2b2o2b2o
2b2o2b2o2b2o2b2o2b2o162b2o2b2o2b2o2b2o2b2o2b2o2b2o2b2o2b2o2b2o2b2o2b2o
2b2o2b2o2b2o2b2o2b2o2b2o2b2o2b2o2b2o2b2o2b2o2b2o2b2o2b2o2b2o2b2o2b2o2b
2o2b2o2b2o2b2o2b2o2b2o2b2o2b2o2b2o2b2o2b2o2b2o2b2o2b2o2b2o2b2o2b2o2b2o
2b2o2b2o2b2o2b2o2b2o2b2o2b2o2b2o2b2o2b2o2b2o2b2o2b2o2b2o162b2o2b2o2b2o
2b2o2b2o2b2o2b2o2b2o2b2o2b2o2b2o2b2o2b2o2b2o2b2o2b2o2b2o2b2o2b2o2b2o2b
2o2b2o2b2o2b2o2b2o2b2o2b2o2b2o2b2o2b2o2b2o2b2o2b2o2b2o2b2o2b2o2b2o2b2o
2b2o2b2o2b2o2b2o2b2o2b2o2b2o2b2o2b2o2b2o2b2o2b2o2b2o2b2o2b2o2b2o2b2o2b
2o2b2o2b2o2b2o2b2o2b2o582bo20bo21bo20bo1447bo100bo770bo100bo856bo100bo
470bo100bo$8b2o2b2o2b2o2b2o2b2o2b2o2b2o2b2o2b2o2b2o2b2o2b2o2b2o2b2o2b
2o2b2o2b2o2b2o2b2o2b2o2b2o2b2o2b2o2b2o2b2o2b2o2b2o2b2o2b2o2b2o2b2o2b2o
2b2o2b2o2b2o2b2o2b2o2b2o2b2o2b2o2b2o2b2o2b2o2b2o2b2o2b2o2b2o2b2o2b2o2b
2o2b2o2b2o2b2o2b2o2b2o2b2o2b2o2b2o2b2o2b2o2b2o2b2o2b2o2b2o2b2o2b2o2b2o
2b2o2b2o2b2o2b2o2b2o2b2o2b2o2b2o2b2o2b2o2b2o2b2o2b2o2b2o2b2o2b2o2b2o2b
2o2b2o2b2o2b2o2b2o2b2o2b2o2b2o2b2o2b2o2b2o2b2o2b2o2b2o2b2o2b2o2b2o2b2o
2b2o2b2o2b2o2b2o2b2o2b2o2b2o2b2o2b2o2b2o2b2o2b2o2b2o2b2o2b2o2b2o2b2o2b
2o2b2o2b2o2b2o2b2o2b2o2b2o2b2o2b2o2b2o2b2o2b2o2b2o2b2o2b2o2b2o2b2o2b2o
2b2o2b2o2b2o2b2o2b2o2b2o2b2o2b2o2b2o2b2o2b2o162b2o2b2o2b2o2b2o2b2o2b2o
2b2o2b2o2b2o2b2o2b2o2b2o2b2o2b2o2b2o2b2o2b2o2b2o2b2o2b2o2b2o2b2o2b2o2b
2o2b2o2b2o2b2o2b2o2b2o2b2o2b2o2b2o2b2o2b2o2b2o2b2o2b2o2b2o2b2o2b2o2b2o
2b2o2b2o2b2o2b2o2b2o2b2o2b2o2b2o2b2o2b2o2b2o2b2o2b2o2b2o2b2o2b2o2b2o2b
2o2b2o2b2o162b2o2b2o2b2o2b2o2b2o2b2o2b2o2b2o2b2o2b2o2b2o2b2o2b2o2b2o2b
2o2b2o2b2o2b2o2b2o2b2o2b2o2b2o2b2o2b2o2b2o2b2o2b2o2b2o2b2o2b2o2b2o2b2o
2b2o2b2o2b2o2b2o2b2o2b2o2b2o2b2o2b2o2b2o2b2o2b2o2b2o2b2o2b2o2b2o2b2o2b
2o2b2o2b2o2b2o2b2o2b2o2b2o2b2o2b2o2b2o2b2o2b2o583bobo17bo21bo17bobo
1448bo100bo770bo100bo856bo100bo470bo100bo$2006bo2bo21bo2bo1462bobo102b
obo764bobo102bobo850bobo102bobo464bobo102bobo$2007b3o21b3o1503b3o21b3o
846b3o21b3o930b3o21b3o546b3o21b3o$8b2o2b2o2b2o2b2o2b2o2b2o2b2o2b2o2b2o
2b2o2b2o2b2o2b2o2b2o2b2o2b2o2b2o2b2o2b2o2b2o2b2o2b2o2b2o2b2o2b2o2b2o2b
2o2b2o2b2o2b2o2b2o2b2o2b2o2b2o2b2o2b2o2b2o2b2o2b2o2b2o2b2o2b2o2b2o2b2o
2b2o2b2o2b2o2b2o2b2o2b2o2b2o2b2o2b2o2b2o2b2o2b2o2b2o2b2o2b2o2b2o2b2o2b
2o2b2o2b2o2b2o2b2o2b2o2b2o2b2o2b2o2b2o2b2o2b2o2b2o2b2o2b2o2b2o2b2o2b2o
2b2o2b2o2b2o2b2o2b2o2b2o2b2o2b2o2b2o2b2o2b2o2b2o2b2o2b2o2b2o2b2o2b2o2b
2o2b2o2b2o2b2o2b2o2b2o2b2o2b2o2b2o2b2o2b2o2b2o2b2o2b2o2b2o2b2o2b2o2b2o
2b2o2b2o2b2o2b2o2b2o2b2o2b2o2b2o2b2o2b2o2b2o2b2o2b2o2b2o2b2o2b2o2b2o2b
2o2b2o2b2o2b2o2b2o2b2o2b2o2b2o2b2o2b2o2b2o2b2o2b2o2b2o2b2o2b2o2b2o162b
2o2b2o2b2o2b2o2b2o2b2o2b2o2b2o2b2o2b2o2b2o2b2o2b2o2b2o2b2o2b2o2b2o2b2o
2b2o2b2o2b2o2b2o2b2o2b2o2b2o2b2o2b2o2b2o2b2o2b2o2b2o2b2o2b2o2b2o2b2o2b
2o2b2o2b2o2b2o2b2o2b2o2b2o2b2o2b2o2b2o2b2o2b2o2b2o2b2o2b2o2b2o2b2o2b2o
2b2o2b2o2b2o2b2o2b2o2b2o2b2o2b2o2b2o154b2o2b2o2b2o2b2o2b2o2b2o2b2o2b2o
2b2o2b2o2b2o2b2o2b2o2b2o2b2o2b2o2b2o2b2o2b2o2b2o2b2o2b2o2b2o2b2o2b2o2b
2o2b2o2b2o2b2o2b2o2b2o2b2o2b2o2b2o2b2o2b2o2b2o2b2o2b2o2b2o2b2o2b2o2b2o
2b2o2b2o2b2o2b2o2b2o2b2o2b2o2b2o2b2o2b2o2b2o2b2o2b2o2b2o2b2o2b2o2b2o2b
2o2b2o563bobo98bobo1464bo2bo19bo2bo846bo2bo19bo2bo930bo2bo19bo2bo546bo
2bo19bo2bo$8b2o2b2o2b2o2b2o2b2o2b2o2b2o2b2o2b2o2b2o2b2o2b2o2b2o2b2o2b
2o2b2o2b2o2b2o2b2o2b2o2b2o2b2o2b2o2b2o2b2o2b2o2b2o2b2o2b2o2b2o2b2o2b2o
2b2o2b2o2b2o2b2o2b2o2b2o2b2o2b2o2b2o2b2o2b2o2b2o2b2o2b2o2b2o2b2o2b2o2b
2o2b2o2b2o2b2o2b2o2b2o2b2o2b2o2b2o2b2o2b2o2b2o2b2o2b2o2b2o2b2o2b2o2b2o
2b2o2b2o2b2o2b2o2b2o2b2o2b2o2b2o2b2o2b2o2b2o2b2o2b2o2b2o2b2o2b2o2b2o2b
2o2b2o2b2o2b2o2b2o2b2o2b2o2b2o2b2o2b2o2b2o2b2o2b2o2b2o2b2o2b2o2b2o2b2o
2b2o2b2o2b2o2b2o2b2o2b2o2b2o2b2o2b2o2b2o2b2o2b2o2b2o2b2o2b2o2b2o2b2o2b
2o2b2o2b2o2b2o2b2o2b2o2b2o2b2o2b2o2b2o2b2o2b2o2b2o2b2o2b2o2b2o2b2o2b2o
2b2o2b2o2b2o2b2o2b2o2b2o2b2o2b2o2b2o2b2o2b2o162b2o2b2o2b2o2b2o2b2o2b2o
2b2o2b2o2b2o2b2o2b2o2b2o2b2o2b2o2b2o2b2o2b2o2b2o2b2o2b2o2b2o2b2o2b2o2b
2o2b2o2b2o2b2o2b2o2b2o2b2o2b2o2b2o2b2o2b2o2b2o2b2o2b2o2b2o2b2o2b2o2b2o
2b2o2b2o2b2o2b2o2b2o2b2o2b2o2b2o2b2o2b2o2b2o2b2o2b2o2b2o2b2o2b2o2b2o2b
2o2b2o2b2o2b2o154b2o2b2o2b2o2b2o2b2o2b2o2b2o2b2o2b2o2b2o2b2o2b2o2b2o2b
2o2b2o2b2o2b2o2b2o2b2o2b2o2b2o2b2o2b2o2b2o2b2o2b2o2b2o2b2o2b2o2b2o2b2o
2b2o2b2o2b2o2b2o2b2o2b2o2b2o2b2o2b2o2b2o2b2o2b2o2b2o2b2o2b2o2b2o2b2o2b
2o2b2o2b2o2b2o2b2o2b2o2b2o2b2o2b2o2b2o2b2o2b2o2b2o2b2o562bo104bo1443bo
bo17bo25bo17bobo806bobo17bo25bo17bobo890bobo17bo25bo17bobo506bobo17bo
25bo17bobo$1968bo104bo1446bo16bo25bo16bo812bo16bo25bo16bo896bo16bo25bo
16bo512bo16bo25bo16bo$1949b3o16bo2bo98bo2bo16b3o1427bo17bobo19bobo17bo
812bo17bobo19bobo17bo896bo17bobo19bobo17bo512bo17bobo19bobo17bo$4b2o2b
2o2b2o2b2o2b2o2b2o2b2o2b2o2b2o2b2o2b2o2b2o2b2o2b2o2b2o2b2o2b2o2b2o2b2o
2b2o2b2o2b2o2b2o2b2o2b2o2b2o2b2o2b2o2b2o2b2o2b2o2b2o2b2o2b2o2b2o2b2o2b
2o2b2o2b2o2b2o2b2o2b2o2b2o2b2o2b2o2b2o2b2o2b2o2b2o2b2o2b2o2b2o2b2o2b2o
2b2o2b2o2b2o2b2o2b2o2b2o2b2o2b2o2b2o2b2o2b2o2b2o2b2o2b2o2b2o2b2o2b2o2b
2o2b2o2b2o2b2o2b2o2b2o2b2o2b2o2b2o2b2o2b2o2b2o2b2o2b2o2b2o2b2o2b2o2b2o
2b2o2b2o2b2o2b2o2b2o2b2o2b2o2b2o2b2o2b2o2b2o2b2o2b2o2b2o2b2o2b2o2b2o2b
2o2b2o2b2o2b2o2b2o2b2o2b2o2b2o2b2o2b2o2b2o2b2o2b2o2b2o2b2o2b2o2b2o2b2o
2b2o2b2o2b2o2b2o2b2o2b2o2b2o2b2o2b2o2b2o2b2o2b2o2b2o2b2o2b2o2b2o2b2o2b
2o2b2o2b2o2b2o2b2o2b2o2b2o2b2o2b2o154b2o2b2o2b2o2b2o2b2o2b2o2b2o2b2o2b
2o2b2o2b2o2b2o2b2o2b2o2b2o2b2o2b2o2b2o2b2o2b2o2b2o2b2o2b2o2b2o2b2o2b2o
2b2o2b2o2b2o2b2o2b2o2b2o2b2o2b2o2b2o2b2o2b2o2b2o2b2o2b2o2b2o2b2o2b2o2b
2o2b2o2b2o2b2o2b2o2b2o2b2o2b2o2b2o2b2o2b2o2b2o2b2o2b2o2b2o2b2o2b2o2b2o
2b2o2b2o2b2o146b2o2b2o2b2o2b2o2b2o2b2o2b2o2b2o2b2o2b2o2b2o2b2o2b2o2b2o
2b2o2b2o2b2o2b2o2b2o2b2o2b2o2b2o2b2o2b2o2b2o2b2o2b2o2b2o2b2o2b2o2b2o2b
2o2b2o2b2o2b2o2b2o2b2o2b2o2b2o2b2o2b2o2b2o2b2o2b2o2b2o2b2o2b2o2b2o2b2o
2b2o2b2o2b2o2b2o2b2o2b2o2b2o2b2o2b2o2b2o2b2o2b2o2b2o2b2o2b2o539bo2bo
15b3o100b3o15bo2bo1424bo2bo59bo2bo806bo2bo59bo2bo890bo2bo59bo2bo506bo
2bo59bo2bo$4b2o2b2o2b2o2b2o2b2o2b2o2b2o2b2o2b2o2b2o2b2o2b2o2b2o2b2o2b
2o2b2o2b2o2b2o2b2o2b2o2b2o2b2o2b2o2b2o2b2o2b2o2b2o2b2o2b2o2b2o2b2o2b2o
2b2o2b2o2b2o2b2o2b2o2b2o2b2o2b2o2b2o2b2o2b2o2b2o2b2o2b2o2b2o2b2o2b2o2b
2o2b2o2b2o2b2o2b2o2b2o2b2o2b2o2b2o2b2o2b2o2b2o2b2o2b2o2b2o2b2o2b2o2b2o
2b2o2b2o2b2o2b2o2b2o2b2o2b2o2b2o2b2o2b2o2b2o2b2o2b2o2b2o2b2o2b2o2b2o2b
2o2b2o2b2o2b2o2b2o2b2o2b2o2b2o2b2o2b2o2b2o2b2o2b2o2b2o2b2o2b2o2b2o2b2o
2b2o2b2o2b2o2b2o2b2o2b2o2b2o2b2o2b2o2b2o2b2o2b2o2b2o2b2o2b2o2b2o2b2o2b
2o2b2o2b2o2b2o2b2o2b2o2b2o2b2o2b2o2b2o2b2o2b2o2b2o2b2o2b2o2b2o2b2o2b2o
2b2o2b2o2b2o2b2o2b2o2b2o2b2o2b2o2b2o2b2o2b2o2b2o2b2o154b2o2b2o2b2o2b2o
2b2o2b2o2b2o2b2o2b2o2b2o2b2o2b2o2b2o2b2o2b2o2b2o2b2o2b2o2b2o2b2o2b2o2b
2o2b2o2b2o2b2o2b2o2b2o2b2o2b2o2b2o2b2o2b2o2b2o2b2o2b2o2b2o2b2o2b2o2b2o
2b2o2b2o2b2o2b2o2b2o2b2o2b2o2b2o2b2o2b2o2b2o2b2o2b2o2b2o2b2o2b2o2b2o2b
2o2b2o2b2o2b2o2b2o2b2o2b2o2b2o146b2o2b2o2b2o2b2o2b2o2b2o2b2o2b2o2b2o2b
2o2b2o2b2o2b2o2b2o2b2o2b2o2b2o2b2o2b2o2b2o2b2o2b2o2b2o2b2o2b2o2b2o2b2o
2b2o2b2o2b2o2b2o2b2o2b2o2b2o2b2o2b2o2b2o2b2o2b2o2b2o2b2o2b2o2b2o2b2o2b
2o2b2o2b2o2b2o2b2o2b2o2b2o2b2o2b2o2b2o2b2o2b2o2b2o2b2o2b2o2b2o2b2o2b2o
2b2o2b2o539bo142bo1425b3o59b3o808b3o59b3o892b3o59b3o508b3o59b3o$1949bo
142bo1387bobo136bobo730bobo136bobo816bobo136bobo430bobo136bobo$1950bob
o136bobo1387bo142bo728bo142bo814bo142bo428bo142bo$4b2o2b2o2b2o2b2o2b2o
2b2o2b2o2b2o2b2o2b2o2b2o2b2o2b2o2b2o2b2o2b2o2b2o2b2o2b2o2b2o2b2o2b2o2b
2o2b2o2b2o2b2o2b2o2b2o2b2o2b2o2b2o2b2o2b2o2b2o2b2o2b2o2b2o2b2o2b2o2b2o
2b2o2b2o2b2o2b2o2b2o2b2o2b2o2b2o2b2o2b2o2b2o2b2o2b2o2b2o2b2o2b2o2b2o2b
2o2b2o2b2o2b2o2b2o2b2o2b2o2b2o2b2o2b2o2b2o2b2o2b2o2b2o2b2o2b2o2b2o2b2o
2b2o2b2o2b2o2b2o2b2o2b2o2b2o2b2o2b2o2b2o2b2o2b2o2b2o2b2o2b2o2b2o2b2o2b
2o2b2o2b2o2b2o2b2o2b2o2b2o2b2o2b2o2b2o2b2o2b2o2b2o2b2o2b2o2b2o2b2o2b2o
2b2o2b2o2b2o2b2o2b2o2b2o2b2o2b2o2b2o2b2o2b2o2b2o2b2o2b2o2b2o2b2o2b2o2b
2o2b2o2b2o2b2o2b2o2b2o2b2o2b2o2b2o2b2o2b2o2b2o2b2o2b2o2b2o2b2o2b2o2b2o
2b2o2b2o2b2o2b2o2b2o154b2o2b2o2b2o2b2o2b2o2b2o2b2o2b2o2b2o2b2o2b2o2b2o
2b2o2b2o2b2o2b2o2b2o2b2o2b2o2b2o2b2o2b2o2b2o2b2o2b2o2b2o2b2o2b2o2b2o2b
2o2b2o2b2o2b2o2b2o2b2o2b2o2b2o2b2o2b2o2b2o2b2o2b2o2b2o2b2o2b2o2b2o2b2o
2b2o2b2o2b2o2b2o2b2o2b2o2b2o2b2o2b2o2b2o2b2o2b2o2b2o2b2o2b2o2b2o2b2o2b
2o138b2o2b2o2b2o2b2o2b2o2b2o2b2o2b2o2b2o2b2o2b2o2b2o2b2o2b2o2b2o2b2o2b
2o2b2o2b2o2b2o2b2o2b2o2b2o2b2o2b2o2b2o2b2o2b2o2b2o2b2o2b2o2b2o2b2o2b2o
2b2o2b2o2b2o2b2o2b2o2b2o2b2o2b2o2b2o2b2o2b2o2b2o2b2o2b2o2b2o2b2o2b2o2b
2o2b2o2b2o2b2o2b2o2b2o2b2o2b2o2b2o2b2o2b2o2b2o2b2o2b2o578b3o59b3o1426b
o142bo728bo142bo814bo142bo428bo142bo$4b2o2b2o2b2o2b2o2b2o2b2o2b2o2b2o
2b2o2b2o2b2o2b2o2b2o2b2o2b2o2b2o2b2o2b2o2b2o2b2o2b2o2b2o2b2o2b2o2b2o2b
2o2b2o2b2o2b2o2b2o2b2o2b2o2b2o2b2o2b2o2b2o2b2o2b2o2b2o2b2o2b2o2b2o2b2o
2b2o2b2o2b2o2b2o2b2o2b2o2b2o2b2o2b2o2b2o2b2o2b2o2b2o2b2o2b2o2b2o2b2o2b
2o2b2o2b2o2b2o2b2o2b2o2b2o2b2o2b2o2b2o2b2o2b2o2b2o2b2o2b2o2b2o2b2o2b2o
2b2o2b2o2b2o2b2o2b2o2b2o2b2o2b2o2b2o2b2o2b2o2b2o2b2o2b2o2b2o2b2o2b2o2b
2o2b2o2b2o2b2o2b2o2b2o2b2o2b2o2b2o2b2o2b2o2b2o2b2o2b2o2b2o2b2o2b2o2b2o
2b2o2b2o2b2o2b2o2b2o2b2o2b2o2b2o2b2o2b2o2b2o2b2o2b2o2b2o2b2o2b2o2b2o2b
2o2b2o2b2o2b2o2b2o2b2o2b2o2b2o2b2o2b2o2b2o2b2o2b2o2b2o2b2o2b2o2b2o2b2o
2b2o2b2o154b2o2b2o2b2o2b2o2b2o2b2o2b2o2b2o2b2o2b2o2b2o2b2o2b2o2b2o2b2o
2b2o2b2o2b2o2b2o2b2o2b2o2b2o2b2o2b2o2b2o2b2o2b2o2b2o2b2o2b2o2b2o2b2o2b
2o2b2o2b2o2b2o2b2o2b2o2b2o2b2o2b2o2b2o2b2o2b2o2b2o2b2o2b2o2b2o2b2o2b2o
2b2o2b2o2b2o2b2o2b2o2b2o2b2o2b2o2b2o2b2o2b2o2b2o2b2o2b2o2b2o138b2o2b2o
2b2o2b2o2b2o2b2o2b2o2b2o2b2o2b2o2b2o2b2o2b2o2b2o2b2o2b2o2b2o2b2o2b2o2b
2o2b2o2b2o2b2o2b2o2b2o2b2o2b2o2b2o2b2o2b2o2b2o2b2o2b2o2b2o2b2o2b2o2b2o
2b2o2b2o2b2o2b2o2b2o2b2o2b2o2b2o2b2o2b2o2b2o2b2o2b2o2b2o2b2o2b2o2b2o2b
2o2b2o2b2o2b2o2b2o2b2o2b2o2b2o2b2o2b2o2b2o577bo2bo59bo2bo1425bo2bo15b
3o100b3o15bo2bo728bo2bo15b3o100b3o15bo2bo814bo2bo15b3o100b3o15bo2bo
428bo2bo15b3o100b3o15bo2bo$1990bo17bobo19bobo17bo1428b3o16bo2bo98bo2bo
16b3o728b3o16bo2bo98bo2bo16b3o814b3o16bo2bo98bo2bo16b3o428b3o16bo2bo
98bo2bo16b3o$1990bo16bo25bo16bo1447bo104bo766bo104bo852bo104bo466bo
104bo$4b2o2b2o2b2o2b2o2b2o2b2o2b2o2b2o2b2o2b2o2b2o2b2o2b2o2b2o2b2o2b2o
2b2o2b2o2b2o2b2o2b2o2b2o2b2o2b2o2b2o2b2o2b2o2b2o2b2o2b2o2b2o2b2o2b2o2b
2o2b2o2b2o2b2o2b2o2b2o2b2o2b2o2b2o2b2o2b2o2b2o2b2o2b2o2b2o2b2o2b2o2b2o
2b2o2b2o2b2o2b2o2b2o2b2o2b2o2b2o2b2o2b2o2b2o2b2o2b2o2b2o2b2o2b2o2b2o2b
2o2b2o2b2o2b2o2b2o2b2o2b2o2b2o2b2o2b2o2b2o2b2o2b2o2b2o2b2o2b2o2b2o2b2o
2b2o2b2o2b2o2b2o2b2o2b2o2b2o2b2o2b2o2b2o2b2o2b2o2b2o2b2o2b2o2b2o2b2o2b
2o2b2o2b2o2b2o2b2o2b2o2b2o2b2o2b2o2b2o2b2o2b2o2b2o2b2o2b2o2b2o2b2o2b2o
2b2o2b2o2b2o2b2o2b2o2b2o2b2o2b2o2b2o2b2o2b2o2b2o2b2o2b2o2b2o2b2o2b2o2b
2o2b2o2b2o2b2o2b2o2b2o2b2o2b2o2b2o2b2o2b2o2b2o154b2o2b2o2b2o2b2o2b2o2b
2o2b2o2b2o2b2o2b2o2b2o2b2o2b2o2b2o2b2o2b2o2b2o2b2o2b2o2b2o2b2o2b2o2b2o
2b2o2b2o2b2o2b2o2b2o2b2o2b2o2b2o2b2o2b2o2b2o2b2o2b2o2b2o2b2o2b2o2b2o2b
2o2b2o2b2o2b2o2b2o2b2o2b2o2b2o2b2o2b2o2b2o2b2o2b2o2b2o2b2o2b2o2b2o2b2o
2b2o2b2o2b2o2b2o2b2o2b2o2b2o2b2o130b2o2b2o2b2o2b2o2b2o2b2o2b2o2b2o2b2o
2b2o2b2o2b2o2b2o2b2o2b2o2b2o2b2o2b2o2b2o2b2o2b2o2b2o2b2o2b2o2b2o2b2o2b
2o2b2o2b2o2b2o2b2o2b2o2b2o2b2o2b2o2b2o2b2o2b2o2b2o2b2o2b2o2b2o2b2o2b2o
2b2o2b2o2b2o2b2o2b2o2b2o2b2o2b2o2b2o2b2o2b2o2b2o2b2o2b2o2b2o2b2o2b2o2b
2o2b2o2b2o2b2o2b2o577bobo17bo25bo17bobo1444bo104bo766bo104bo852bo104bo
466bo104bo$4b2o2b2o2b2o2b2o2b2o2b2o2b2o2b2o2b2o2b2o2b2o2b2o2b2o2b2o2b
2o2b2o2b2o2b2o2b2o2b2o2b2o2b2o2b2o2b2o2b2o2b2o2b2o2b2o2b2o2b2o2b2o2b2o
2b2o2b2o2b2o2b2o2b2o2b2o2b2o2b2o2b2o2b2o2b2o2b2o2b2o2b2o2b2o2b2o2b2o2b
2o2b2o2b2o2b2o2b2o2b2o2b2o2b2o2b2o2b2o2b2o2b2o2b2o2b2o2b2o2b2o2b2o2b2o
2b2o2b2o2b2o2b2o2b2o2b2o2b2o2b2o2b2o2b2o2b2o2b2o2b2o2b2o2b2o2b2o2b2o2b
2o2b2o2b2o2b2o2b2o2b2o2b2o2b2o2b2o2b2o2b2o2b2o2b2o2b2o2b2o2b2o2b2o2b2o
2b2o2b2o2b2o2b2o2b2o2b2o2b2o2b2o2b2o2b2o2b2o2b2o2b2o2b2o2b2o2b2o2b2o2b
2o2b2o2b2o2b2o2b2o2b2o2b2o2b2o2b2o2b2o2b2o2b2o2b2o2b2o2b2o2b2o2b2o2b2o
2b2o2b2o2b2o2b2o2b2o2b2o2b2o2b2o2b2o2b2o2b2o2b2o2b2o154b2o2b2o2b2o2b2o
2b2o2b2o2b2o2b2o2b2o2b2o2b2o2b2o2b2o2b2o2b2o2b2o2b2o2b2o2b2o2b2o2b2o2b
2o2b2o2b2o2b2o2b2o2b2o2b2o2b2o2b2o2b2o2b2o2b2o2b2o2b2o2b2o2b2o2b2o2b2o
2b2o2b2o2b2o2b2o2b2o2b2o2b2o2b2o2b2o2b2o2b2o2b2o2b2o2b2o2b2o2b2o2b2o2b
2o2b2o2b2o2b2o2b2o2b2o2b2o2b2o2b2o2b2o130b2o2b2o2b2o2b2o2b2o2b2o2b2o2b
2o2b2o2b2o2b2o2b2o2b2o2b2o2b2o2b2o2b2o2b2o2b2o2b2o2b2o2b2o2b2o2b2o2b2o
2b2o2b2o2b2o2b2o2b2o2b2o2b2o2b2o2b2o2b2o2b2o2b2o2b2o2b2o2b2o2b2o2b2o2b
2o2b2o2b2o2b2o2b2o2b2o2b2o2b2o2b2o2b2o2b2o2b2o2b2o2b2o2b2o2b2o2b2o2b2o
2b2o2b2o2b2o2b2o2b2o2b2o597bo2bo19bo2bo1465bobo98bobo768bobo98bobo854b
obo98bobo468bobo98bobo$2007b3o21b3o1503b3o21b3o846b3o21b3o930b3o21b3o
546b3o21b3o$1967bobo102bobo1461bo2bo21bo2bo844bo2bo21bo2bo928bo2bo21bo
2bo544bo2bo21bo2bo$4b2o2b2o2b2o2b2o2b2o2b2o2b2o2b2o2b2o2b2o2b2o2b2o2b
2o2b2o2b2o2b2o2b2o2b2o2b2o2b2o2b2o2b2o2b2o2b2o2b2o2b2o2b2o2b2o2b2o2b2o
2b2o2b2o2b2o2b2o2b2o2b2o2b2o2b2o2b2o2b2o2b2o2b2o2b2o2b2o2b2o2b2o2b2o2b
2o2b2o2b2o2b2o2b2o2b2o2b2o2b2o2b2o2b2o2b2o2b2o2b2o2b2o2b2o2b2o2b2o2b2o
2b2o2b2o2b2o2b2o2b2o2b2o2b2o2b2o2b2o2b2o2b2o2b2o2b2o2b2o2b2o2b2o2b2o2b
2o2b2o2b2o2b2o2b2o2b2o2b2o2b2o2b2o2b2o2b2o2b2o2b2o2b2o2b2o2b2o2b2o2b2o
2b2o2b2o2b2o2b2o2b2o2b2o2b2o2b2o2b2o2b2o2b2o2b2o2b2o2b2o2b2o2b2o2b2o2b
2o2b2o2b2o2b2o2b2o2b2o2b2o2b2o2b2o2b2o2b2o2b2o2b2o2b2o2b2o2b2o2b2o2b2o
2b2o2b2o2b2o2b2o2b2o2b2o2b2o2b2o2b2o2b2o2b2o2b2o2b2o2b2o2b2o154b2o2b2o
2b2o2b2o2b2o2b2o2b2o2b2o2b2o2b2o2b2o2b2o2b2o2b2o2b2o2b2o2b2o2b2o2b2o2b
2o2b2o2b2o2b2o2b2o2b2o2b2o2b2o2b2o2b2o2b2o2b2o2b2o2b2o2b2o2b2o2b2o2b2o
2b2o2b2o2b2o2b2o2b2o2b2o2b2o2b2o2b2o2b2o2b2o2b2o2b2o2b2o2b2o2b2o2b2o2b
2o2b2o2b2o2b2o2b2o2b2o2b2o2b2o2b2o2b2o2b2o2b2o2b2o122b2o2b2o2b2o2b2o2b
2o2b2o2b2o2b2o2b2o2b2o2b2o2b2o2b2o2b2o2b2o2b2o2b2o2b2o2b2o2b2o2b2o2b2o
2b2o2b2o2b2o2b2o2b2o2b2o2b2o2b2o2b2o2b2o2b2o2b2o2b2o2b2o2b2o2b2o2b2o2b
2o2b2o2b2o2b2o2b2o2b2o2b2o2b2o2b2o2b2o2b2o2b2o2b2o2b2o2b2o2b2o2b2o2b2o
2b2o2b2o2b2o2b2o2b2o2b2o2b2o2b2o2b2o2b2o560bo100bo1447bobo17bo21bo17bo
bo810bobo17bo21bo17bobo894bobo17bo21bo17bobo510bobo17bo21bo17bobo$4b2o
2b2o2b2o2b2o2b2o2b2o2b2o2b2o2b2o2b2o2b2o2b2o2b2o2b2o2b2o2b2o2b2o2b2o2b
2o2b2o2b2o2b2o2b2o2b2o2b2o2b2o2b2o2b2o2b2o2b2o2b2o2b2o2b2o2b2o2b2o2b2o
2b2o2b2o2b2o2b2o2b2o2b2o2b2o2b2o2b2o2b2o2b2o2b2o2b2o2b2o2b2o2b2o2b2o2b
2o2b2o2b2o2b2o2b2o2b2o2b2o2b2o2b2o2b2o2b2o2b2o2b2o2b2o2b2o2b2o2b2o2b2o
2b2o2b2o2b2o2b2o2b2o2b2o2b2o2b2o2b2o2b2o2b2o2b2o2b2o2b2o2b2o2b2o2b2o2b
2o2b2o2b2o2b2o2b2o2b2o2b2o2b2o2b2o2b2o2b2o2b2o2b2o2b2o2b2o2b2o2b2o2b2o
2b2o2b2o2b2o2b2o2b2o2b2o2b2o2b2o2b2o2b2o2b2o2b2o2b2o2b2o2b2o2b2o2b2o2b
2o2b2o2b2o2b2o2b2o2b2o2b2o2b2o2b2o2b2o2b2o2b2o2b2o2b2o2b2o2b2o2b2o2b2o
2b2o2b2o2b2o2b2o2b2o2b2o2b2o2b2o2b2o154b2o2b2o2b2o2b2o2b2o2b2o2b2o2b2o
2b2o2b2o2b2o2b2o2b2o2b2o2b2o2b2o2b2o2b2o2b2o2b2o2b2o2b2o2b2o2b2o2b2o2b
2o2b2o2b2o2b2o2b2o2b2o2b2o2b2o2b2o2b2o2b2o2b2o2b2o2b2o2b2o2b2o2b2o2b2o
2b2o2b2o2b2o2b2o2b2o2b2o2b2o2b2o2b2o2b2o2b2o2b2o2b2o2b2o2b2o2b2o2b2o2b
2o2b2o2b2o2b2o2b2o2b2o2b2o122b2o2b2o2b2o2b2o2b2o2b2o2b2o2b2o2b2o2b2o2b
2o2b2o2b2o2b2o2b2o2b2o2b2o2b2o2b2o2b2o2b2o2b2o2b2o2b2o2b2o2b2o2b2o2b2o
2b2o2b2o2b2o2b2o2b2o2b2o2b2o2b2o2b2o2b2o2b2o2b2o2b2o2b2o2b2o2b2o2b2o2b
2o2b2o2b2o2b2o2b2o2b2o2b2o2b2o2b2o2b2o2b2o2b2o2b2o2b2o2b2o2b2o2b2o2b2o
2b2o2b2o2b2o2b2o560bo100bo1446bo20bo21bo20bo808bo20bo21bo20bo892bo20bo
21bo20bo508bo20bo21bo20bo$1949b3o15bo2bo100bo2bo15b3o1425bo17bobo23bob
o17bo808bo17bobo23bobo17bo892bo17bobo23bobo17bo508bo17bobo23bobo17bo$
1948bo2bo16b3o100b3o16bo2bo1424bo2bo57bo2bo808bo2bo57bo2bo892bo2bo57bo
2bo508bo2bo57bo2bo$2o2b2o2b2o2b2o2b2o2b2o2b2o2b2o2b2o2b2o2b2o2b2o2b2o
2b2o2b2o2b2o2b2o2b2o2b2o2b2o2b2o2b2o2b2o2b2o2b2o2b2o2b2o2b2o2b2o2b2o2b
2o2b2o2b2o2b2o2b2o2b2o2b2o2b2o2b2o2b2o2b2o2b2o2b2o2b2o2b2o2b2o2b2o2b2o
2b2o2b2o2b2o2b2o2b2o2b2o2b2o2b2o2b2o2b2o2b2o2b2o2b2o2b2o2b2o2b2o2b2o2b
2o2b2o2b2o2b2o2b2o2b2o2b2o2b2o2b2o2b2o2b2o2b2o2b2o2b2o2b2o2b2o2b2o2b2o
2b2o2b2o2b2o2b2o2b2o2b2o2b2o2b2o2b2o2b2o2b2o2b2o2b2o2b2o2b2o2b2o2b2o2b
2o2b2o2b2o2b2o2b2o2b2o2b2o2b2o2b2o2b2o2b2o2b2o2b2o2b2o2b2o2b2o2b2o2b2o
2b2o2b2o2b2o2b2o2b2o2b2o2b2o2b2o2b2o2b2o2b2o2b2o2b2o2b2o2b2o2b2o2b2o2b
2o2b2o2b2o2b2o2b2o2b2o2b2o2b2o2b2o2b2o2b2o2b2o2b2o2b2o2b2o2b2o2b2o146b
2o2b2o2b2o2b2o2b2o2b2o2b2o2b2o2b2o2b2o2b2o2b2o2b2o2b2o2b2o2b2o2b2o2b2o
2b2o2b2o2b2o2b2o2b2o2b2o2b2o2b2o2b2o2b2o2b2o2b2o2b2o2b2o2b2o2b2o2b2o2b
2o2b2o2b2o2b2o2b2o2b2o2b2o2b2o2b2o2b2o2b2o2b2o2b2o2b2o2b2o2b2o2b2o2b2o
2b2o2b2o2b2o2b2o2b2o2b2o2b2o2b2o2b2o2b2o2b2o2b2o2b2o2b2o2b2o2b2o114b2o
2b2o2b2o2b2o2b2o2b2o2b2o2b2o2b2o2b2o2b2o2b2o2b2o2b2o2b2o2b2o2b2o2b2o2b
2o2b2o2b2o2b2o2b2o2b2o2b2o2b2o2b2o2b2o2b2o2b2o2b2o2b2o2b2o2b2o2b2o2b2o
2b2o2b2o2b2o2b2o2b2o2b2o2b2o2b2o2b2o2b2o2b2o2b2o2b2o2b2o2b2o2b2o2b2o2b
2o2b2o2b2o2b2o2b2o2b2o2b2o2b2o2b2o2b2o2b2o2b2o2b2o2b2o2b2o2b2o537bo
138bo1427b3o59b3o808b3o59b3o892b3o59b3o508b3o59b3o$2o2b2o2b2o2b2o2b2o
2b2o2b2o2b2o2b2o2b2o2b2o2b2o2b2o2b2o2b2o2b2o2b2o2b2o2b2o2b2o2b2o2b2o2b
2o2b2o2b2o2b2o2b2o2b2o2b2o2b2o2b2o2b2o2b2o2b2o2b2o2b2o2b2o2b2o2b2o2b2o
2b2o2b2o2b2o2b2o2b2o2b2o2b2o2b2o2b2o2b2o2b2o2b2o2b2o2b2o2b2o2b2o2b2o2b
2o2b2o2b2o2b2o2b2o2b2o2b2o2b2o2b2o2b2o2b2o2b2o2b2o2b2o2b2o2b2o2b2o2b2o
2b2o2b2o2b2o2b2o2b2o2b2o2b2o2b2o2b2o2b2o2b2o2b2o2b2o2b2o2b2o2b2o2b2o2b
2o2b2o2b2o2b2o2b2o2b2o2b2o2b2o2b2o2b2o2b2o2b2o2b2o2b2o2b2o2b2o2b2o2b2o
2b2o2b2o2b2o2b2o2b2o2b2o2b2o2b2o2b2o2b2o2b2o2b2o2b2o2b2o2b2o2b2o2b2o2b
2o2b2o2b2o2b2o2b2o2b2o2b2o2b2o2b2o2b2o2b2o2b2o2b2o2b2o2b2o2b2o2b2o2b2o
2b2o2b2o2b2o2b2o2b2o2b2o2b2o146b2o2b2o2b2o2b2o2b2o2b2o2b2o2b2o2b2o2b2o
2b2o2b2o2b2o2b2o2b2o2b2o2b2o2b2o2b2o2b2o2b2o2b2o2b2o2b2o2b2o2b2o2b2o2b
2o2b2o2b2o2b2o2b2o2b2o2b2o2b2o2b2o2b2o2b2o2b2o2b2o2b2o2b2o2b2o2b2o2b2o
2b2o2b2o2b2o2b2o2b2o2b2o2b2o2b2o2b2o2b2o2b2o2b2o2b2o2b2o2b2o2b2o2b2o2b
2o2b2o2b2o2b2o2b2o2b2o2b2o114b2o2b2o2b2o2b2o2b2o2b2o2b2o2b2o2b2o2b2o2b
2o2b2o2b2o2b2o2b2o2b2o2b2o2b2o2b2o2b2o2b2o2b2o2b2o2b2o2b2o2b2o2b2o2b2o
2b2o2b2o2b2o2b2o2b2o2b2o2b2o2b2o2b2o2b2o2b2o2b2o2b2o2b2o2b2o2b2o2b2o2b
2o2b2o2b2o2b2o2b2o2b2o2b2o2b2o2b2o2b2o2b2o2b2o2b2o2b2o2b2o2b2o2b2o2b2o
2b2o2b2o2b2o2b2o2b2o2b2o537bo138bo1387bobo140bobo726bobo140bobo812bobo
140bobo426bobo140bobo$1948bobo140bobo1387bo138bo732bo138bo818bo138bo
432bo138bo$1988b3o59b3o1428bo138bo732bo138bo818bo138bo432bo138bo$2o2b
2o2b2o2b2o2b2o2b2o2b2o2b2o2b2o2b2o2b2o2b2o2b2o2b2o2b2o2b2o2b2o2b2o2b2o
2b2o2b2o2b2o2b2o2b2o2b2o2b2o2b2o2b2o2b2o2b2o2b2o2b2o2b2o2b2o2b2o2b2o2b
2o2b2o2b2o2b2o2b2o2b2o2b2o2b2o2b2o2b2o2b2o2b2o2b2o2b2o2b2o2b2o2b2o2b2o
2b2o2b2o2b2o2b2o2b2o2b2o2b2o2b2o2b2o2b2o2b2o2b2o2b2o2b2o2b2o2b2o2b2o2b
2o2b2o2b2o2b2o2b2o2b2o2b2o2b2o2b2o2b2o2b2o2b2o2b2o2b2o2b2o2b2o2b2o2b2o
2b2o2b2o2b2o2b2o2b2o2b2o2b2o2b2o2b2o2b2o2b2o2b2o2b2o2b2o2b2o2b2o2b2o2b
2o2b2o2b2o2b2o2b2o2b2o2b2o2b2o2b2o2b2o2b2o2b2o2b2o2b2o2b2o2b2o2b2o2b2o
2b2o2b2o2b2o2b2o2b2o2b2o2b2o2b2o2b2o2b2o2b2o2b2o2b2o2b2o2b2o2b2o2b2o2b
2o2b2o2b2o2b2o2b2o2b2o2b2o2b2o2b2o2b2o2b2o146b2o2b2o2b2o2b2o2b2o2b2o2b
2o2b2o2b2o2b2o2b2o2b2o2b2o2b2o2b2o2b2o2b2o2b2o2b2o2b2o2b2o2b2o2b2o2b2o
2b2o2b2o2b2o2b2o2b2o2b2o2b2o2b2o2b2o2b2o2b2o2b2o2b2o2b2o2b2o2b2o2b2o2b
2o2b2o2b2o2b2o2b2o2b2o2b2o2b2o2b2o2b2o2b2o2b2o2b2o2b2o2b2o2b2o2b2o2b2o
2b2o2b2o2b2o2b2o2b2o2b2o2b2o2b2o2b2o2b2o2b2o106b2o2b2o2b2o2b2o2b2o2b2o
2b2o2b2o2b2o2b2o2b2o2b2o2b2o2b2o2b2o2b2o2b2o2b2o2b2o2b2o2b2o2b2o2b2o2b
2o2b2o2b2o2b2o2b2o2b2o2b2o2b2o2b2o2b2o2b2o2b2o2b2o2b2o2b2o2b2o2b2o2b2o
2b2o2b2o2b2o2b2o2b2o2b2o2b2o2b2o2b2o2b2o2b2o2b2o2b2o2b2o2b2o2b2o2b2o2b
2o2b2o2b2o2b2o2b2o2b2o2b2o2b2o2b2o2b2o2b2o2b2o574bo2bo57bo2bo1425bo2bo
16b3o100b3o16bo2bo726bo2bo16b3o100b3o16bo2bo812bo2bo16b3o100b3o16bo2bo
426bo2bo16b3o100b3o16bo2bo$2o2b2o2b2o2b2o2b2o2b2o2b2o2b2o2b2o2b2o2b2o
2b2o2b2o2b2o2b2o2b2o2b2o2b2o2b2o2b2o2b2o2b2o2b2o2b2o2b2o2b2o2b2o2b2o2b
2o2b2o2b2o2b2o2b2o2b2o2b2o2b2o2b2o2b2o2b2o2b2o2b2o2b2o2b2o2b2o2b2o2b2o
2b2o2b2o2b2o2b2o2b2o2b2o2b2o2b2o2b2o2b2o2b2o2b2o2b2o2b2o2b2o2b2o2b2o2b
2o2b2o2b2o2b2o2b2o2b2o2b2o2b2o2b2o2b2o2b2o2b2o2b2o2b2o2b2o2b2o2b2o2b2o
2b2o2b2o2b2o2b2o2b2o2b2o2b2o2b2o2b2o2b2o2b2o2b2o2b2o2b2o2b2o2b2o2b2o2b
2o2b2o2b2o2b2o2b2o2b2o2b2o2b2o2b2o2b2o2b2o2b2o2b2o2b2o2b2o2b2o2b2o2b2o
2b2o2b2o2b2o2b2o2b2o2b2o2b2o2b2o2b2o2b2o2b2o2b2o2b2o2b2o2b2o2b2o2b2o2b
2o2b2o2b2o2b2o2b2o2b2o2b2o2b2o2b2o2b2o2b2o2b2o2b2o2b2o2b2o2b2o2b2o2b2o
2b2o146b2o2b2o2b2o2b2o2b2o2b2o2b2o2b2o2b2o2b2o2b2o2b2o2b2o2b2o2b2o2b2o
2b2o2b2o2b2o2b2o2b2o2b2o2b2o2b2o2b2o2b2o2b2o2b2o2b2o2b2o2b2o2b2o2b2o2b
2o2b2o2b2o2b2o2b2o2b2o2b2o2b2o2b2o2b2o2b2o2b2o2b2o2b2o2b2o2b2o2b2o2b2o
2b2o2b2o2b2o2b2o2b2o2b2o2b2o2b2o2b2o2b2o2b2o2b2o2b2o2b2o2b2o2b2o2b2o2b
2o2b2o106b2o2b2o2b2o2b2o2b2o2b2o2b2o2b2o2b2o2b2o2b2o2b2o2b2o2b2o2b2o2b
2o2b2o2b2o2b2o2b2o2b2o2b2o2b2o2b2o2b2o2b2o2b2o2b2o2b2o2b2o2b2o2b2o2b2o
2b2o2b2o2b2o2b2o2b2o2b2o2b2o2b2o2b2o2b2o2b2o2b2o2b2o2b2o2b2o2b2o2b2o2b
2o2b2o2b2o2b2o2b2o2b2o2b2o2b2o2b2o2b2o2b2o2b2o2b2o2b2o2b2o2b2o2b2o2b2o
2b2o2b2o574bo17bobo23bobo17bo1426b3o15bo2bo100bo2bo15b3o728b3o15bo2bo
100bo2bo15b3o814b3o15bo2bo100bo2bo15b3o428b3o15bo2bo100bo2bo15b3o$
1988bo20bo21bo20bo1447bo100bo770bo100bo856bo100bo470bo100bo$1989bobo
17bo21bo17bobo1448bo100bo770bo100bo856bo100bo470bo100bo$2o2b2o2b2o2b2o
2b2o2b2o2b2o2b2o2b2o2b2o2b2o2b2o2b2o2b2o2b2o2b2o2b2o2b2o2b2o2b2o2b2o2b
2o2b2o2b2o2b2o2b2o2b2o2b2o2b2o2b2o2b2o2b2o2b2o2b2o2b2o2b2o2b2o2b2o2b2o
2b2o2b2o2b2o2b2o2b2o2b2o2b2o2b2o2b2o2b2o2b2o2b2o2b2o2b2o2b2o2b2o2b2o2b
2o2b2o2b2o2b2o2b2o2b2o2b2o2b2o2b2o2b2o2b2o2b2o2b2o2b2o2b2o2b2o2b2o2b2o
2b2o2b2o2b2o2b2o2b2o2b2o2b2o2b2o2b2o2b2o2b2o2b2o2b2o2b2o2b2o2b2o2b2o2b
2o2b2o2b2o2b2o2b2o2b2o2b2o2b2o2b2o2b2o2b2o2b2o2b2o2b2o2b2o2b2o2b2o2b2o
2b2o2b2o2b2o2b2o2b2o2b2o2b2o2b2o2b2o2b2o2b2o2b2o2b2o2b2o2b2o2b2o2b2o2b
2o2b2o2b2o2b2o2b2o2b2o2b2o2b2o2b2o2b2o2b2o2b2o2b2o2b2o2b2o2b2o2b2o2b2o
2b2o2b2o2b2o2b2o2b2o2b2o2b2o2b2o146b2o2b2o2b2o2b2o2b2o2b2o2b2o2b2o2b2o
2b2o2b2o2b2o2b2o2b2o2b2o2b2o2b2o2b2o2b2o2b2o2b2o2b2o2b2o2b2o2b2o2b2o2b
2o2b2o2b2o2b2o2b2o2b2o2b2o2b2o2b2o2b2o2b2o2b2o2b2o2b2o2b2o2b2o2b2o2b2o
2b2o2b2o2b2o2b2o2b2o2b2o2b2o2b2o2b2o2b2o2b2o2b2o2b2o2b2o2b2o2b2o2b2o2b
2o2b2o2b2o2b2o2b2o2b2o2b2o2b2o2b2o2b2o98b2o2b2o2b2o2b2o2b2o2b2o2b2o2b
2o2b2o2b2o2b2o2b2o2b2o2b2o2b2o2b2o2b2o2b2o2b2o2b2o2b2o2b2o2b2o2b2o2b2o
2b2o2b2o2b2o2b2o2b2o2b2o2b2o2b2o2b2o2b2o2b2o2b2o2b2o2b2o2b2o2b2o2b2o2b
2o2b2o2b2o2b2o2b2o2b2o2b2o2b2o2b2o2b2o2b2o2b2o2b2o2b2o2b2o2b2o2b2o2b2o
2b2o2b2o2b2o2b2o2b2o2b2o2b2o2b2o2b2o2b2o2b2o592bo2bo21bo2bo1462bobo
102bobo764bobo102bobo850bobo102bobo464bobo102bobo$2o2b2o2b2o2b2o2b2o2b
2o2b2o2b2o2b2o2b2o2b2o2b2o2b2o2b2o2b2o2b2o2b2o2b2o2b2o2b2o2b2o2b2o2b2o
2b2o2b2o2b2o2b2o2b2o2b2o2b2o2b2o2b2o2b2o2b2o2b2o2b2o2b2o2b2o2b2o2b2o2b
2o2b2o2b2o2b2o2b2o2b2o2b2o2b2o2b2o2b2o2b2o2b2o2b2o2b2o2b2o2b2o2b2o2b2o
2b2o2b2o2b2o2b2o2b2o2b2o2b2o2b2o2b2o2b2o2b2o2b2o2b2o2b2o2b2o2b2o2b2o2b
2o2b2o2b2o2b2o2b2o2b2o2b2o2b2o2b2o2b2o2b2o2b2o2b2o2b2o2b2o2b2o2b2o2b2o
2b2o2b2o2b2o2b2o2b2o2b2o2b2o2b2o2b2o2b2o2b2o2b2o2b2o2b2o2b2o2b2o2b2o2b
2o2b2o2b2o2b2o2b2o2b2o2b2o2b2o2b2o2b2o2b2o2b2o2b2o2b2o2b2o2b2o2b2o2b2o
2b2o2b2o2b2o2b2o2b2o2b2o2b2o2b2o2b2o2b2o2b2o2b2o2b2o2b2o2b2o2b2o2b2o2b
2o2b2o2b2o2b2o2b2o2b2o2b2o146b2o2b2o2b2o2b2o2b2o2b2o2b2o2b2o2b2o2b2o2b
2o2b2o2b2o2b2o2b2o2b2o2b2o2b2o2b2o2b2o2b2o2b2o2b2o2b2o2b2o2b2o2b2o2b2o
2b2o2b2o2b2o2b2o2b2o2b2o2b2o2b2o2b2o2b2o2b2o2b2o2b2o2b2o2b2o2b2o2b2o2b
2o2b2o2b2o2b2o2b2o2b2o2b2o2b2o2b2o2b2o2b2o2b2o2b2o2b2o2b2o2b2o2b2o2b2o
2b2o2b2o2b2o2b2o2b2o2b2o2b2o2b2o98b2o2b2o2b2o2b2o2b2o2b2o2b2o2b2o2b2o
2b2o2b2o2b2o2b2o2b2o2b2o2b2o2b2o2b2o2b2o2b2o2b2o2b2o2b2o2b2o2b2o2b2o2b
2o2b2o2b2o2b2o2b2o2b2o2b2o2b2o2b2o2b2o2b2o2b2o2b2o2b2o2b2o2b2o2b2o2b2o
2b2o2b2o2b2o2b2o2b2o2b2o2b2o2b2o2b2o2b2o2b2o2b2o2b2o2b2o2b2o2b2o2b2o2b
2o2b2o2b2o2b2o2b2o2b2o2b2o2b2o2b2o2b2o593b3o21b3o1503b3o21b3o846b3o21b
3o930b3o21b3o546b3o21b3o$1969bobo98bobo1464bo2bo19bo2bo846bo2bo19bo2bo
930bo2bo19bo2bo546bo2bo19bo2bo$1968bo104bo1443bobo17bo25bo17bobo806bob
o17bo25bo17bobo890bobo17bo25bo17bobo506bobo17bo25bo17bobo$2o2b2o2b2o2b
2o2b2o2b2o2b2o2b2o2b2o2b2o2b2o2b2o2b2o2b2o2b2o2b2o2b2o2b2o2b2o2b2o2b2o
2b2o2b2o2b2o2b2o2b2o2b2o2b2o2b2o2b2o2b2o2b2o2b2o2b2o2b2o2b2o2b2o2b2o2b
2o2b2o2b2o2b2o2b2o2b2o2b2o2b2o2b2o2b2o2b2o2b2o2b2o2b2o2b2o2b2o2b2o2b2o
2b2o2b2o2b2o2b2o2b2o2b2o2b2o2b2o2b2o2b2o2b2o2b2o2b2o2b2o2b2o2b2o2b2o2b
2o2b2o2b2o2b2o2b2o2b2o2b2o2b2o2b2o2b2o2b2o2b2o2b2o2b2o2b2o2b2o2b2o2b2o
2b2o2b2o2b2o2b2o2b2o2b2o2b2o2b2o2b2o2b2o2b2o2b2o2b2o2b2o2b2o2b2o2b2o2b
2o2b2o2b2o2b2o2b2o2b2o2b2o2b2o2b2o2b2o2b2o2b2o2b2o2b2o2b2o2b2o2b2o2b2o
2b2o2b2o2b2o2b2o2b2o2b2o2b2o2b2o2b2o2b2o2b2o2b2o2b2o2b2o2b2o2b2o2b2o2b
2o2b2o2b2o2b2o2b2o2b2o2b2o2b2o2b2o146b2o2b2o2b2o2b2o2b2o2b2o2b2o2b2o2b
2o2b2o2b2o2b2o2b2o2b2o2b2o2b2o2b2o2b2o2b2o2b2o2b2o2b2o2b2o2b2o2b2o2b2o
2b2o2b2o2b2o2b2o2b2o2b2o2b2o2b2o2b2o2b2o2b2o2b2o2b2o2b2o2b2o2b2o2b2o2b
2o2b2o2b2o2b2o2b2o2b2o2b2o2b2o2b2o2b2o2b2o2b2o2b2o2b2o2b2o2b2o2b2o2b2o
2b2o2b2o2b2o2b2o2b2o2b2o2b2o2b2o2b2o2b2o2b2o90b2o2b2o2b2o2b2o2b2o2b2o
2b2o2b2o2b2o2b2o2b2o2b2o2b2o2b2o2b2o2b2o2b2o2b2o2b2o2b2o2b2o2b2o2b2o2b
2o2b2o2b2o2b2o2b2o2b2o2b2o2b2o2b2o2b2o2b2o2b2o2b2o2b2o2b2o2b2o2b2o2b2o
2b2o2b2o2b2o2b2o2b2o2b2o2b2o2b2o2b2o2b2o2b2o2b2o2b2o2b2o2b2o2b2o2b2o2b
2o2b2o2b2o2b2o2b2o2b2o2b2o2b2o2b2o2b2o2b2o2b2o2b2o2b2o554bo104bo1446bo
16bo25bo16bo812bo16bo25bo16bo896bo16bo25bo16bo512bo16bo25bo16bo$2o2b2o
2b2o2b2o2b2o2b2o2b2o2b2o2b2o2b2o2b2o2b2o2b2o2b2o2b2o2b2o2b2o2b2o2b2o2b
2o2b2o2b2o2b2o2b2o2b2o2b2o2b2o2b2o2b2o2b2o2b2o2b2o2b2o2b2o2b2o2b2o2b2o
2b2o2b2o2b2o2b2o2b2o2b2o2b2o2b2o2b2o2b2o2b2o2b2o2b2o2b2o2b2o2b2o2b2o2b
2o2b2o2b2o2b2o2b2o2b2o2b2o2b2o2b2o2b2o2b2o2b2o2b2o2b2o2b2o2b2o2b2o2b2o
2b2o2b2o2b2o2b2o2b2o2b2o2b2o2b2o2b2o2b2o2b2o2b2o2b2o2b2o2b2o2b2o2b2o2b
2o2b2o2b2o2b2o2b2o2b2o2b2o2b2o2b2o2b2o2b2o2b2o2b2o2b2o2b2o2b2o2b2o2b2o
2b2o2b2o2b2o2b2o2b2o2b2o2b2o2b2o2b2o2b2o2b2o2b2o2b2o2b2o2b2o2b2o2b2o2b
2o2b2o2b2o2b2o2b2o2b2o2b2o2b2o2b2o2b2o2b2o2b2o2b2o2b2o2b2o2b2o2b2o2b2o
2b2o2b2o2b2o2b2o2b2o2b2o2b2o2b2o2b2o2b2o146b2o2b2o2b2o2b2o2b2o2b2o2b2o
2b2o2b2o2b2o2b2o2b2o2b2o2b2o2b2o2b2o2b2o2b2o2b2o2b2o2b2o2b2o2b2o2b2o2b
2o2b2o2b2o2b2o2b2o2b2o2b2o2b2o2b2o2b2o2b2o2b2o2b2o2b2o2b2o2b2o2b2o2b2o
2b2o2b2o2b2o2b2o2b2o2b2o2b2o2b2o2b2o2b2o2b2o2b2o2b2o2b2o2b2o2b2o2b2o2b
2o2b2o2b2o2b2o2b2o2b2o2b2o2b2o2b2o2b2o2b2o2b2o2b2o90b2o2b2o2b2o2b2o2b
2o2b2o2b2o2b2o2b2o2b2o2b2o2b2o2b2o2b2o2b2o2b2o2b2o2b2o2b2o2b2o2b2o2b2o
2b2o2b2o2b2o2b2o2b2o2b2o2b2o2b2o2b2o2b2o2b2o2b2o2b2o2b2o2b2o2b2o2b2o2b
2o2b2o2b2o2b2o2b2o2b2o2b2o2b2o2b2o2b2o2b2o2b2o2b2o2b2o2b2o2b2o2b2o2b2o
2b2o2b2o2b2o2b2o2b2o2b2o2b2o2b2o2b2o2b2o2b2o2b2o2b2o2b2o2b2o535b3o16bo
2bo98bo2bo16b3o1427bo17bobo19bobo17bo812bo17bobo19bobo17bo896bo17bobo
19bobo17bo512bo17bobo19bobo17bo$1949bo2bo15b3o100b3o15bo2bo1424bo2bo
59bo2bo806bo2bo59bo2bo890bo2bo59bo2bo506bo2bo59bo2bo$1949bo142bo1425b
3o59b3o808b3o59b3o892b3o59b3o508b3o59b3o$2o2b2o2b2o2b2o2b2o2b2o2b2o2b
2o2b2o2b2o2b2o2b2o2b2o2b2o2b2o2b2o2b2o2b2o2b2o2b2o2b2o2b2o2b2o2b2o2b2o
2b2o2b2o2b2o2b2o2b2o2b2o2b2o2b2o2b2o2b2o2b2o2b2o2b2o2b2o2b2o2b2o2b2o2b
2o2b2o2b2o2b2o2b2o2b2o2b2o2b2o2b2o2b2o2b2o2b2o2b2o2b2o2b2o2b2o2b2o2b2o
2b2o2b2o2b2o2b2o2b2o2b2o2b2o2b2o2b2o2b2o2b2o2b2o2b2o2b2o2b2o2b2o2b2o2b
2o2b2o2b2o2b2o2b2o2b2o2b2o2b2o2b2o2b2o2b2o2b2o2b2o2b2o2b2o2b2o2b2o2b2o
2b2o2b2o2b2o2b2o2b2o2b2o2b2o2b2o2b2o2b2o2b2o2b2o2b2o2b2o2b2o2b2o2b2o2b
2o2b2o2b2o2b2o2b2o2b2o2b2o2b2o2b2o2b2o2b2o2b2o2b2o2b2o2b2o2b2o2b2o2b2o
2b2o2b2o2b2o2b2o2b2o2b2o2b2o2b2o2b2o2b2o2b2o2b2o2b2o2b2o2b2o2b2o2b2o2b
2o2b2o2b2o2b2o2b2o146b2o2b2o2b2o2b2o2b2o2b2o2b2o2b2o2b2o2b2o2b2o2b2o2b
2o2b2o2b2o2b2o2b2o2b2o2b2o2b2o2b2o2b2o2b2o2b2o2b2o2b2o2b2o2b2o2b2o2b2o
2b2o2b2o2b2o2b2o2b2o2b2o2b2o2b2o2b2o2b2o2b2o2b2o2b2o2b2o2b2o2b2o2b2o2b
2o2b2o2b2o2b2o2b2o2b2o2b2o2b2o2b2o2b2o2b2o2b2o2b2o2b2o2b2o2b2o2b2o2b2o
2b2o2b2o2b2o2b2o2b2o2b2o2b2o2b2o82b2o2b2o2b2o2b2o2b2o2b2o2b2o2b2o2b2o
2b2o2b2o2b2o2b2o2b2o2b2o2b2o2b2o2b2o2b2o2b2o2b2o2b2o2b2o2b2o2b2o2b2o2b
2o2b2o2b2o2b2o2b2o2b2o2b2o2b2o2b2o2b2o2b2o2b2o2b2o2b2o2b2o2b2o2b2o2b2o
2b2o2b2o2b2o2b2o2b2o2b2o2b2o2b2o2b2o2b2o2b2o2b2o2b2o2b2o2b2o2b2o2b2o2b
2o2b2o2b2o2b2o2b2o2b2o2b2o2b2o2b2o2b2o2b2o2b2o535bo142bo1387bobo136bob
o730bobo136bobo816bobo136bobo430bobo136bobo$2o2b2o2b2o2b2o2b2o2b2o2b2o
2b2o2b2o2b2o2b2o2b2o2b2o2b2o2b2o2b2o2b2o2b2o2b2o2b2o2b2o2b2o2b2o2b2o2b
2o2b2o2b2o2b2o2b2o2b2o2b2o2b2o2b2o2b2o2b2o2b2o2b2o2b2o2b2o2b2o2b2o2b2o
2b2o2b2o2b2o2b2o2b2o2b2o2b2o2b2o2b2o2b2o2b2o2b2o2b2o2b2o2b2o2b2o2b2o2b
2o2b2o2b2o2b2o2b2o2b2o2b2o2b2o2b2o2b2o2b2o2b2o2b2o2b2o2b2o2b2o2b2o2b2o
2b2o2b2o2b2o2b2o2b2o2b2o2b2o2b2o2b2o2b2o2b2o2b2o2b2o2b2o2b2o2b2o2b2o2b
2o2b2o2b2o2b2o2b2o2b2o2b2o2b2o2b2o2b2o2b2o2b2o2b2o2b2o2b2o2b2o2b2o2b2o
2b2o2b2o2b2o2b2o2b2o2b2o2b2o2b2o2b2o2b2o2b2o2b2o2b2o2b2o2b2o2b2o2b2o2b
2o2b2o2b2o2b2o2b2o2b2o2b2o2b2o2b2o2b2o2b2o2b2o2b2o2b2o2b2o2b2o2b2o2b2o
2b2o2b2o2b2o2b2o2b2o146b2o2b2o2b2o2b2o2b2o2b2o2b2o2b2o2b2o2b2o2b2o2b2o
2b2o2b2o2b2o2b2o2b2o2b2o2b2o2b2o2b2o2b2o2b2o2b2o2b2o2b2o2b2o2b2o2b2o2b
2o2b2o2b2o2b2o2b2o2b2o2b2o2b2o2b2o2b2o2b2o2b2o2b2o2b2o2b2o2b2o2b2o2b2o
2b2o2b2o2b2o2b2o2b2o2b2o2b2o2b2o2b2o2b2o2b2o2b2o2b2o2b2o2b2o2b2o2b2o2b
2o2b2o2b2o2b2o2b2o2b2o2b2o2b2o2b2o82b2o2b2o2b2o2b2o2b2o2b2o2b2o2b2o2b
2o2b2o2b2o2b2o2b2o2b2o2b2o2b2o2b2o2b2o2b2o2b2o2b2o2b2o2b2o2b2o2b2o2b2o
2b2o2b2o2b2o2b2o2b2o2b2o2b2o2b2o2b2o2b2o2b2o2b2o2b2o2b2o2b2o2b2o2b2o2b
2o2b2o2b2o2b2o2b2o2b2o2b2o2b2o2b2o2b2o2b2o2b2o2b2o2b2o2b2o2b2o2b2o2b2o
2b2o2b2o2b2o2b2o2b2o2b2o2b2o2b2o2b2o2b2o2b2o2b2o536bobo136bobo1387bo
142bo728bo142bo814bo142bo428bo142bo$1988b3o59b3o1426bo142bo728bo142bo
814bo142bo428bo142bo$1987bo2bo59bo2bo1425bo2bo15b3o100b3o15bo2bo728bo
2bo15b3o100b3o15bo2bo814bo2bo15b3o100b3o15bo2bo428bo2bo15b3o100b3o15bo
2bo$2o2b2o2b2o2b2o2b2o2b2o2b2o2b2o2b2o2b2o2b2o2b2o2b2o2b2o2b2o2b2o2b2o
2b2o2b2o2b2o2b2o2b2o2b2o2b2o2b2o2b2o2b2o2b2o2b2o2b2o2b2o2b2o2b2o2b2o2b
2o2b2o2b2o2b2o2b2o2b2o2b2o2b2o2b2o2b2o2b2o2b2o2b2o2b2o2b2o2b2o2b2o2b2o
2b2o2b2o2b2o2b2o2b2o2b2o2b2o2b2o2b2o2b2o2b2o2b2o2b2o2b2o2b2o2b2o2b2o2b
2o2b2o2b2o2b2o2b2o2b2o2b2o2b2o2b2o2b2o2b2o2b2o2b2o2b2o2b2o2b2o2b2o2b2o
2b2o2b2o2b2o2b2o2b2o2b2o2b2o2b2o2b2o2b2o2b2o2b2o2b2o2b2o2b2o2b2o2b2o2b
2o2b2o2b2o2b2o2b2o2b2o2b2o2b2o2b2o2b2o2b2o2b2o2b2o2b2o2b2o2b2o2b2o2b2o
2b2o2b2o2b2o2b2o2b2o2b2o2b2o2b2o2b2o2b2o2b2o2b2o2b2o2b2o2b2o2b2o2b2o2b
2o2b2o2b2o2b2o2b2o2b2o2b2o2b2o2b2o2b2o2b2o2b2o2b2o146b2o2b2o2b2o2b2o2b
2o2b2o2b2o2b2o2b2o2b2o2b2o2b2o2b2o2b2o2b2o2b2o2b2o2b2o2b2o2b2o2b2o2b2o
2b2o2b2o2b2o2b2o2b2o2b2o2b2o2b2o2b2o2b2o2b2o2b2o2b2o2b2o2b2o2b2o2b2o2b
2o2b2o2b2o2b2o2b2o2b2o2b2o2b2o2b2o2b2o2b2o2b2o2b2o2b2o2b2o2b2o2b2o2b2o
2b2o2b2o2b2o2b2o2b2o2b2o2b2o2b2o2b2o2b2o2b2o2b2o2b2o2b2o2b2o2b2o2b2o
74b2o2b2o2b2o2b2o2b2o2b2o2b2o2b2o2b2o2b2o2b2o2b2o2b2o2b2o2b2o2b2o2b2o
2b2o2b2o2b2o2b2o2b2o2b2o2b2o2b2o2b2o2b2o2b2o2b2o2b2o2b2o2b2o2b2o2b2o2b
2o2b2o2b2o2b2o2b2o2b2o2b2o2b2o2b2o2b2o2b2o2b2o2b2o2b2o2b2o2b2o2b2o2b2o
2b2o2b2o2b2o2b2o2b2o2b2o2b2o2b2o2b2o2b2o2b2o2b2o2b2o2b2o2b2o2b2o2b2o2b
2o2b2o2b2o2b2o2b2o576bo17bobo19bobo17bo1428b3o16bo2bo98bo2bo16b3o728b
3o16bo2bo98bo2bo16b3o814b3o16bo2bo98bo2bo16b3o428b3o16bo2bo98bo2bo16b
3o$2o2b2o2b2o2b2o2b2o2b2o2b2o2b2o2b2o2b2o2b2o2b2o2b2o2b2o2b2o2b2o2b2o
2b2o2b2o2b2o2b2o2b2o2b2o2b2o2b2o2b2o2b2o2b2o2b2o2b2o2b2o2b2o2b2o2b2o2b
2o2b2o2b2o2b2o2b2o2b2o2b2o2b2o2b2o2b2o2b2o2b2o2b2o2b2o2b2o2b2o2b2o2b2o
2b2o2b2o2b2o2b2o2b2o2b2o2b2o2b2o2b2o2b2o2b2o2b2o2b2o2b2o2b2o2b2o2b2o2b
2o2b2o2b2o2b2o2b2o2b2o2b2o2b2o2b2o2b2o2b2o2b2o2b2o2b2o2b2o2b2o2b2o2b2o
2b2o2b2o2b2o2b2o2b2o2b2o2b2o2b2o2b2o2b2o2b2o2b2o2b2o2b2o2b2o2b2o2b2o2b
2o2b2o2b2o2b2o2b2o2b2o2b2o2b2o2b2o2b2o2b2o2b2o2b2o2b2o2b2o2b2o2b2o2b2o
2b2o2b2o2b2o2b2o2b2o2b2o2b2o2b2o2b2o2b2o2b2o2b2o2b2o2b2o2b2o2b2o2b2o2b
2o2b2o2b2o2b2o2b2o2b2o2b2o2b2o2b2o2b2o2b2o2b2o2b2o146b2o2b2o2b2o2b2o2b
2o2b2o2b2o2b2o2b2o2b2o2b2o2b2o2b2o2b2o2b2o2b2o2b2o2b2o2b2o2b2o2b2o2b2o
2b2o2b2o2b2o2b2o2b2o2b2o2b2o2b2o2b2o2b2o2b2o2b2o2b2o2b2o2b2o2b2o2b2o2b
2o2b2o2b2o2b2o2b2o2b2o2b2o2b2o2b2o2b2o2b2o2b2o2b2o2b2o2b2o2b2o2b2o2b2o
2b2o2b2o2b2o2b2o2b2o2b2o2b2o2b2o2b2o2b2o2b2o2b2o2b2o2b2o2b2o2b2o2b2o
74b2o2b2o2b2o2b2o2b2o2b2o2b2o2b2o2b2o2b2o2b2o2b2o2b2o2b2o2b2o2b2o2b2o
2b2o2b2o2b2o2b2o2b2o2b2o2b2o2b2o2b2o2b2o2b2o2b2o2b2o2b2o2b2o2b2o2b2o2b
2o2b2o2b2o2b2o2b2o2b2o2b2o2b2o2b2o2b2o2b2o2b2o2b2o2b2o2b2o2b2o2b2o2b2o
2b2o2b2o2b2o2b2o2b2o2b2o2b2o2b2o2b2o2b2o2b2o2b2o2b2o2b2o2b2o2b2o2b2o2b
2o2b2o2b2o2b2o2b2o576bo16bo25bo16bo1447bo104bo766bo104bo852bo104bo466b
o104bo$1987bobo17bo25bo17bobo1444bo104bo766bo104bo852bo104bo466bo104bo
$2007bo2bo19bo2bo1465bobo98bobo768bobo98bobo854bobo98bobo468bobo98bobo
$2o2b2o2b2o2b2o2b2o2b2o2b2o2b2o2b2o2b2o2b2o2b2o2b2o2b2o2b2o2b2o2b2o2b
2o2b2o2b2o2b2o2b2o2b2o2b2o2b2o2b2o2b2o2b2o2b2o2b2o2b2o2b2o2b2o2b2o2b2o
2b2o2b2o2b2o2b2o2b2o2b2o2b2o2b2o2b2o2b2o2b2o2b2o2b2o2b2o2b2o2b2o2b2o2b
2o2b2o2b2o2b2o2b2o2b2o2b2o2b2o2b2o2b2o2b2o2b2o2b2o2b2o2b2o2b2o2b2o2b2o
2b2o2b2o2b2o2b2o2b2o2b2o2b2o2b2o2b2o2b2o2b2o2b2o2b2o2b2o2b2o2b2o2b2o2b
2o2b2o2b2o2b2o2b2o2b2o2b2o2b2o2b2o2b2o2b2o2b2o2b2o2b2o2b2o2b2o2b2o2b2o
2b2o2b2o2b2o2b2o2b2o2b2o2b2o2b2o2b2o2b2o2b2o2b2o2b2o2b2o2b2o2b2o2b2o2b
2o2b2o2b2o2b2o2b2o2b2o2b2o2b2o2b2o2b2o2b2o2b2o2b2o2b2o2b2o2b2o2b2o2b2o
2b2o2b2o2b2o2b2o2b2o2b2o2b2o2b2o2b2o2b2o2b2o2b2o146b2o2b2o2b2o2b2o2b2o
2b2o2b2o2b2o2b2o2b2o2b2o2b2o2b2o2b2o2b2o2b2o2b2o2b2o2b2o2b2o2b2o2b2o2b
2o2b2o2b2o2b2o2b2o2b2o2b2o2b2o2b2o2b2o2b2o2b2o2b2o2b2o2b2o2b2o2b2o2b2o
2b2o2b2o2b2o2b2o2b2o2b2o2b2o2b2o2b2o2b2o2b2o2b2o2b2o2b2o2b2o2b2o2b2o2b
2o2b2o2b2o2b2o2b2o2b2o2b2o2b2o2b2o2b2o2b2o2b2o2b2o2b2o2b2o2b2o2b2o2b2o
66b2o2b2o2b2o2b2o2b2o2b2o2b2o2b2o2b2o2b2o2b2o2b2o2b2o2b2o2b2o2b2o2b2o
2b2o2b2o2b2o2b2o2b2o2b2o2b2o2b2o2b2o2b2o2b2o2b2o2b2o2b2o2b2o2b2o2b2o2b
2o2b2o2b2o2b2o2b2o2b2o2b2o2b2o2b2o2b2o2b2o2b2o2b2o2b2o2b2o2b2o2b2o2b2o
2b2o2b2o2b2o2b2o2b2o2b2o2b2o2b2o2b2o2b2o2b2o2b2o2b2o2b2o2b2o2b2o2b2o2b
2o2b2o2b2o2b2o2b2o2b2o593b3o21b3o1503b3o21b3o846b3o21b3o930b3o21b3o
546b3o21b3o$2o2b2o2b2o2b2o2b2o2b2o2b2o2b2o2b2o2b2o2b2o2b2o2b2o2b2o2b2o
2b2o2b2o2b2o2b2o2b2o2b2o2b2o2b2o2b2o2b2o2b2o2b2o2b2o2b2o2b2o2b2o2b2o2b
2o2b2o2b2o2b2o2b2o2b2o2b2o2b2o2b2o2b2o2b2o2b2o2b2o2b2o2b2o2b2o2b2o2b2o
2b2o2b2o2b2o2b2o2b2o2b2o2b2o2b2o2b2o2b2o2b2o2b2o2b2o2b2o2b2o2b2o2b2o2b
2o2b2o2b2o2b2o2b2o2b2o2b2o2b2o2b2o2b2o2b2o2b2o2b2o2b2o2b2o2b2o2b2o2b2o
2b2o2b2o2b2o2b2o2b2o2b2o2b2o2b2o2b2o2b2o2b2o2b2o2b2o2b2o2b2o2b2o2b2o2b
2o2b2o2b2o2b2o2b2o2b2o2b2o2b2o2b2o2b2o2b2o2b2o2b2o2b2o2b2o2b2o2b2o2b2o
2b2o2b2o2b2o2b2o2b2o2b2o2b2o2b2o2b2o2b2o2b2o2b2o2b2o2b2o2b2o2b2o2b2o2b
2o2b2o2b2o2b2o2b2o2b2o2b2o2b2o2b2o2b2o2b2o2b2o2b2o2b2o2b2o146b2o2b2o2b
2o2b2o2b2o2b2o2b2o2b2o2b2o2b2o2b2o2b2o2b2o2b2o2b2o2b2o2b2o2b2o2b2o2b2o
2b2o2b2o2b2o2b2o2b2o2b2o2b2o2b2o2b2o2b2o2b2o2b2o2b2o2b2o2b2o2b2o2b2o2b
2o2b2o2b2o2b2o2b2o2b2o2b2o2b2o2b2o2b2o2b2o2b2o2b2o2b2o2b2o2b2o2b2o2b2o
2b2o2b2o2b2o2b2o2b2o2b2o2b2o2b2o2b2o2b2o2b2o2b2o2b2o2b2o2b2o2b2o2b2o2b
2o2b2o2b2o66b2o2b2o2b2o2b2o2b2o2b2o2b2o2b2o2b2o2b2o2b2o2b2o2b2o2b2o2b
2o2b2o2b2o2b2o2b2o2b2o2b2o2b2o2b2o2b2o2b2o2b2o2b2o2b2o2b2o2b2o2b2o2b2o
2b2o2b2o2b2o2b2o2b2o2b2o2b2o2b2o2b2o2b2o2b2o2b2o2b2o2b2o2b2o2b2o2b2o2b
2o2b2o2b2o2b2o2b2o2b2o2b2o2b2o2b2o2b2o2b2o2b2o2b2o2b2o2b2o2b2o2b2o2b2o
2b2o2b2o2b2o2b2o2b2o2b2o2b2o2b2o553bobo102bobo1461bo2bo21bo2bo844bo2bo
21bo2bo928bo2bo21bo2bo544bo2bo21bo2bo$1970bo100bo1447bobo17bo21bo17bob
o810bobo17bo21bo17bobo894bobo17bo21bo17bobo510bobo17bo21bo17bobo$1970b
o100bo1446bo20bo21bo20bo808bo20bo21bo20bo892bo20bo21bo20bo508bo20bo21b
o20bo$2o2b2o2b2o2b2o2b2o2b2o2b2o2b2o2b2o2b2o2b2o2b2o2b2o2b2o2b2o2b2o2b
2o2b2o2b2o2b2o2b2o2b2o2b2o2b2o2b2o2b2o2b2o2b2o2b2o2b2o2b2o2b2o2b2o2b2o
2b2o2b2o2b2o2b2o2b2o2b2o2b2o2b2o2b2o2b2o2b2o2b2o2b2o2b2o2b2o2b2o2b2o2b
2o2b2o2b2o2b2o2b2o2b2o2b2o2b2o2b2o2b2o2b2o2b2o2b2o2b2o2b2o2b2o2b2o2b2o
2b2o2b2o2b2o2b2o2b2o2b2o2b2o2b2o2b2o2b2o2b2o2b2o2b2o2b2o2b2o2b2o2b2o2b
2o2b2o2b2o2b2o2b2o2b2o2b2o2b2o2b2o2b2o2b2o2b2o2b2o2b2o2b2o2b2o2b2o2b2o
2b2o2b2o2b2o2b2o2b2o2b2o2b2o2b2o2b2o2b2o2b2o2b2o2b2o2b2o2b2o2b2o2b2o2b
2o2b2o2b2o2b2o2b2o2b2o2b2o2b2o2b2o2b2o2b2o2b2o2b2o2b2o2b2o2b2o2b2o2b2o
2b2o2b2o2b2o2b2o2b2o2b2o2b2o2b2o2b2o2b2o2b2o2b2o2b2o146b2o2b2o2b2o2b2o
2b2o2b2o2b2o2b2o2b2o2b2o2b2o2b2o2b2o2b2o2b2o2b2o2b2o2b2o2b2o2b2o2b2o2b
2o2b2o2b2o2b2o2b2o2b2o2b2o2b2o2b2o2b2o2b2o2b2o2b2o2b2o2b2o2b2o2b2o2b2o
2b2o2b2o2b2o2b2o2b2o2b2o2b2o2b2o2b2o2b2o2b2o2b2o2b2o2b2o2b2o2b2o2b2o2b
2o2b2o2b2o2b2o2b2o2b2o2b2o2b2o2b2o2b2o2b2o2b2o2b2o2b2o2b2o2b2o2b2o2b2o
2b2o2b2o58b2o2b2o2b2o2b2o2b2o2b2o2b2o2b2o2b2o2b2o2b2o2b2o2b2o2b2o2b2o
2b2o2b2o2b2o2b2o2b2o2b2o2b2o2b2o2b2o2b2o2b2o2b2o2b2o2b2o2b2o2b2o2b2o2b
2o2b2o2b2o2b2o2b2o2b2o2b2o2b2o2b2o2b2o2b2o2b2o2b2o2b2o2b2o2b2o2b2o2b2o
2b2o2b2o2b2o2b2o2b2o2b2o2b2o2b2o2b2o2b2o2b2o2b2o2b2o2b2o2b2o2b2o2b2o2b
2o2b2o2b2o2b2o2b2o2b2o2b2o2b2o2b2o535b3o15bo2bo100bo2bo15b3o1425bo17bo
bo23bobo17bo808bo17bobo23bobo17bo892bo17bobo23bobo17bo508bo17bobo23bob
o17bo$2o2b2o2b2o2b2o2b2o2b2o2b2o2b2o2b2o2b2o2b2o2b2o2b2o2b2o2b2o2b2o2b
2o2b2o2b2o2b2o2b2o2b2o2b2o2b2o2b2o2b2o2b2o2b2o2b2o2b2o2b2o2b2o2b2o2b2o
2b2o2b2o2b2o2b2o2b2o2b2o2b2o2b2o2b2o2b2o2b2o2b2o2b2o2b2o2b2o2b2o2b2o2b
2o2b2o2b2o2b2o2b2o2b2o2b2o2b2o2b2o2b2o2b2o2b2o2b2o2b2o2b2o2b2o2b2o2b2o
2b2o2b2o2b2o2b2o2b2o2b2o2b2o2b2o2b2o2b2o2b2o2b2o2b2o2b2o2b2o2b2o2b2o2b
2o2b2o2b2o2b2o2b2o2b2o2b2o2b2o2b2o2b2o2b2o2b2o2b2o2b2o2b2o2b2o2b2o2b2o
2b2o2b2o2b2o2b2o2b2o2b2o2b2o2b2o2b2o2b2o2b2o2b2o2b2o2b2o2b2o2b2o2b2o2b
2o2b2o2b2o2b2o2b2o2b2o2b2o2b2o2b2o2b2o2b2o2b2o2b2o2b2o2b2o2b2o2b2o2b2o
2b2o2b2o2b2o2b2o2b2o2b2o2b2o2b2o2b2o2b2o2b2o2b2o2b2o146b2o2b2o2b2o2b2o
2b2o2b2o2b2o2b2o2b2o2b2o2b2o2b2o2b2o2b2o2b2o2b2o2b2o2b2o2b2o2b2o2b2o2b
2o2b2o2b2o2b2o2b2o2b2o2b2o2b2o2b2o2b2o2b2o2b2o2b2o2b2o2b2o2b2o2b2o2b2o
2b2o2b2o2b2o2b2o2b2o2b2o2b2o2b2o2b2o2b2o2b2o2b2o2b2o2b2o2b2o2b2o2b2o2b
2o2b2o2b2o2b2o2b2o2b2o2b2o2b2o2b2o2b2o2b2o2b2o2b2o2b2o2b2o2b2o2b2o2b2o
2b2o2b2o58b2o2b2o2b2o2b2o2b2o2b2o2b2o2b2o2b2o2b2o2b2o2b2o2b2o2b2o2b2o
2b2o2b2o2b2o2b2o2b2o2b2o2b2o2b2o2b2o2b2o2b2o2b2o2b2o2b2o2b2o2b2o2b2o2b
2o2b2o2b2o2b2o2b2o2b2o2b2o2b2o2b2o2b2o2b2o2b2o2b2o2b2o2b2o2b2o2b2o2b2o
2b2o2b2o2b2o2b2o2b2o2b2o2b2o2b2o2b2o2b2o2b2o2b2o2b2o2b2o2b2o2b2o2b2o2b
2o2b2o2b2o2b2o2b2o2b2o2b2o2b2o2b2o534bo2bo16b3o100b3o16bo2bo1424bo2bo
57bo2bo808bo2bo57bo2bo892bo2bo57bo2bo508bo2bo57bo2bo$1951bo138bo1427b
3o59b3o808b3o59b3o892b3o59b3o508b3o59b3o$1951bo138bo1387bobo140bobo
726bobo140bobo812bobo140bobo426bobo140bobo$2o2b2o2b2o2b2o2b2o2b2o2b2o
2b2o2b2o2b2o2b2o2b2o2b2o2b2o2b2o2b2o2b2o2b2o2b2o2b2o2b2o2b2o2b2o2b2o2b
2o2b2o2b2o2b2o2b2o2b2o2b2o2b2o2b2o2b2o2b2o2b2o2b2o2b2o2b2o2b2o2b2o2b2o
2b2o270b2o2b2o2b2o2b2o2b2o2b2o2b2o2b2o2b2o2b2o2b2o2b2o2b2o2b2o2b2o2b2o
2b2o2b2o2b2o2b2o2b2o2b2o2b2o2b2o2b2o2b2o2b2o2b2o2b2o2b2o2b2o2b2o2b2o2b
2o2b2o2b2o2b2o2b2o2b2o2b2o2b2o2b2o146b2o2b2o2b2o2b2o2b2o2b2o2b2o2b2o2b
2o2b2o2b2o2b2o2b2o2b2o2b2o2b2o2b2o2b2o2b2o2b2o2b2o2b2o2b2o2b2o2b2o2b2o
2b2o2b2o2b2o2b2o2b2o2b2o2b2o2b2o2b2o2b2o2b2o2b2o2b2o2b2o2b2o2b2o2b2o2b
2o2b2o2b2o2b2o2b2o2b2o2b2o2b2o2b2o2b2o2b2o2b2o2b2o2b2o2b2o2b2o2b2o2b2o
2b2o2b2o2b2o2b2o2b2o2b2o2b2o2b2o2b2o2b2o2b2o2b2o2b2o2b2o2b2o2b2o50b2o
2b2o2b2o2b2o2b2o2b2o2b2o2b2o2b2o2b2o2b2o2b2o2b2o2b2o2b2o2b2o2b2o2b2o2b
2o2b2o2b2o2b2o2b2o2b2o2b2o2b2o2b2o2b2o2b2o2b2o2b2o2b2o2b2o2b2o2b2o2b2o
2b2o2b2o2b2o2b2o2b2o2b2o2b2o2b2o2b2o2b2o2b2o2b2o2b2o2b2o2b2o2b2o2b2o2b
2o2b2o2b2o2b2o2b2o2b2o2b2o2b2o2b2o2b2o2b2o2b2o2b2o2b2o2b2o2b2o2b2o2b2o
2b2o2b2o2b2o2b2o2b2o2b2o534bobo140bobo1387bo138bo732bo138bo818bo138bo
432bo138bo$2o2b2o2b2o2b2o2b2o2b2o2b2o2b2o2b2o2b2o2b2o2b2o2b2o2b2o2b2o
2b2o2b2o2b2o2b2o2b2o2b2o2b2o2b2o2b2o2b2o2b2o2b2o2b2o2b2o2b2o2b2o2b2o2b
2o2b2o2b2o2b2o2b2o2b2o2b2o2b2o2b2o2b2o2b2o270b2o2b2o2b2o2b2o2b2o2b2o2b
2o2b2o2b2o2b2o2b2o2b2o2b2o2b2o2b2o2b2o2b2o2b2o2b2o2b2o2b2o2b2o2b2o2b2o
2b2o2b2o2b2o2b2o2b2o2b2o2b2o2b2o2b2o2b2o2b2o2b2o2b2o2b2o2b2o2b2o2b2o2b
2o146b2o2b2o2b2o2b2o2b2o2b2o2b2o2b2o2b2o2b2o2b2o2b2o2b2o2b2o2b2o2b2o2b
2o2b2o2b2o2b2o2b2o2b2o2b2o2b2o2b2o2b2o2b2o2b2o2b2o2b2o2b2o2b2o2b2o2b2o
2b2o2b2o2b2o2b2o2b2o2b2o2b2o2b2o2b2o2b2o2b2o2b2o2b2o2b2o2b2o2b2o2b2o2b
2o2b2o2b2o2b2o2b2o2b2o2b2o2b2o2b2o2b2o2b2o2b2o2b2o2b2o2b2o2b2o2b2o2b2o
2b2o2b2o2b2o2b2o2b2o2b2o2b2o2b2o50b2o2b2o2b2o2b2o2b2o2b2o2b2o2b2o2b2o
2b2o2b2o2b2o2b2o2b2o2b2o2b2o2b2o2b2o2b2o2b2o2b2o2b2o2b2o2b2o2b2o2b2o2b
2o2b2o2b2o2b2o2b2o2b2o2b2o2b2o2b2o2b2o2b2o2b2o2b2o2b2o2b2o2b2o2b2o2b2o
2b2o2b2o2b2o2b2o2b2o2b2o2b2o2b2o2b2o2b2o2b2o2b2o2b2o2b2o2b2o2b2o2b2o2b
2o2b2o2b2o2b2o2b2o2b2o2b2o2b2o2b2o2b2o2b2o2b2o2b2o2b2o2b2o2b2o574b3o
59b3o1428bo138bo732bo138bo818bo138bo432bo138bo$1988bo2bo57bo2bo1425bo
2bo16b3o100b3o16bo2bo726bo2bo16b3o100b3o16bo2bo812bo2bo16b3o100b3o16bo
2bo426bo2bo16b3o100b3o16bo2bo$1988bo17bobo23bobo17bo1426b3o15bo2bo100b
o2bo15b3o728b3o15bo2bo100bo2bo15b3o814b3o15bo2bo100bo2bo15b3o428b3o15b
o2bo100bo2bo15b3o$2o2b2o2b2o2b2o2b2o2b2o2b2o2b2o2b2o2b2o2b2o2b2o2b2o2b
2o2b2o2b2o2b2o2b2o2b2o2b2o2b2o2b2o2b2o2b2o2b2o2b2o2b2o2b2o2b2o2b2o2b2o
2b2o2b2o2b2o2b2o2b2o2b2o318b2o2b2o2b2o2b2o2b2o2b2o2b2o2b2o2b2o2b2o2b2o
2b2o2b2o2b2o2b2o2b2o2b2o2b2o2b2o2b2o2b2o2b2o2b2o2b2o2b2o2b2o2b2o2b2o2b
2o2b2o2b2o2b2o2b2o2b2o2b2o2b2o146b2o2b2o2b2o2b2o2b2o2b2o2b2o2b2o2b2o2b
2o2b2o2b2o2b2o2b2o2b2o2b2o2b2o2b2o2b2o2b2o2b2o2b2o2b2o2b2o2b2o2b2o2b2o
2b2o2b2o2b2o2b2o2b2o2b2o2b2o2b2o2b2o2b2o2b2o2b2o2b2o2b2o2b2o2b2o2b2o2b
2o2b2o2b2o2b2o2b2o2b2o2b2o2b2o2b2o2b2o2b2o2b2o2b2o2b2o2b2o2b2o2b2o2b2o
2b2o2b2o2b2o2b2o2b2o2b2o2b2o2b2o2b2o2b2o2b2o2b2o2b2o2b2o2b2o2b2o42b2o
2b2o2b2o2b2o2b2o2b2o2b2o2b2o2b2o2b2o2b2o2b2o2b2o2b2o2b2o2b2o2b2o2b2o2b
2o2b2o2b2o2b2o2b2o2b2o2b2o2b2o2b2o2b2o2b2o2b2o2b2o2b2o2b2o2b2o2b2o2b2o
2b2o2b2o2b2o2b2o2b2o2b2o2b2o2b2o2b2o2b2o2b2o2b2o2b2o2b2o2b2o2b2o2b2o2b
2o2b2o2b2o2b2o2b2o2b2o2b2o2b2o2b2o2b2o2b2o2b2o2b2o2b2o2b2o2b2o2b2o2b2o
2b2o2b2o2b2o2b2o2b2o2b2o2b2o574bo20bo21bo20bo1447bo100bo770bo100bo856b
o100bo470bo100bo$2o2b2o2b2o2b2o2b2o2b2o2b2o2b2o2b2o2b2o2b2o2b2o2b2o2b
2o2b2o2b2o2b2o2b2o2b2o2b2o2b2o2b2o2b2o2b2o2b2o2b2o2b2o2b2o2b2o2b2o2b2o
2b2o2b2o2b2o2b2o2b2o2b2o318b2o2b2o2b2o2b2o2b2o2b2o2b2o2b2o2b2o2b2o2b2o
2b2o2b2o2b2o2b2o2b2o2b2o2b2o2b2o2b2o2b2o2b2o2b2o2b2o2b2o2b2o2b2o2b2o2b
2o2b2o2b2o2b2o2b2o2b2o2b2o2b2o146b2o2b2o2b2o2b2o2b2o2b2o2b2o2b2o2b2o2b
2o2b2o2b2o2b2o2b2o2b2o2b2o2b2o2b2o2b2o2b2o2b2o2b2o2b2o2b2o2b2o2b2o2b2o
2b2o2b2o2b2o2b2o2b2o2b2o2b2o2b2o2b2o2b2o2b2o2b2o2b2o2b2o2b2o2b2o2b2o2b
2o2b2o2b2o2b2o2b2o2b2o2b2o2b2o2b2o2b2o2b2o2b2o2b2o2b2o2b2o2b2o2b2o2b2o
2b2o2b2o2b2o2b2o2b2o2b2o2b2o2b2o2b2o2b2o2b2o2b2o2b2o2b2o2b2o2b2o42b2o
2b2o2b2o2b2o2b2o2b2o2b2o2b2o2b2o2b2o2b2o2b2o2b2o2b2o2b2o2b2o2b2o2b2o2b
2o2b2o2b2o2b2o2b2o2b2o2b2o2b2o2b2o2b2o2b2o2b2o2b2o2b2o2b2o2b2o2b2o2b2o
2b2o2b2o2b2o2b2o2b2o2b2o2b2o2b2o2b2o2b2o2b2o2b2o2b2o2b2o2b2o2b2o2b2o2b
2o2b2o2b2o2b2o2b2o2b2o2b2o2b2o2b2o2b2o2b2o2b2o2b2o2b2o2b2o2b2o2b2o2b2o
2b2o2b2o2b2o2b2o2b2o2b2o2b2o575bobo17bo21bo17bobo1448bo100bo770bo100bo
856bo100bo470bo100bo$2006bo2bo21bo2bo1462bobo102bobo764bobo102bobo850b
obo102bobo464bobo102bobo$2007b3o21b3o1503b3o21b3o846b3o21b3o930b3o21b
3o546b3o21b3o$2o2b2o2b2o2b2o2b2o2b2o2b2o2b2o2b2o2b2o2b2o2b2o2b2o2b2o2b
2o2b2o2b2o2b2o2b2o2b2o2b2o2b2o2b2o2b2o2b2o2b2o2b2o2b2o2b2o2b2o2b2o2b2o
2b2o2b2o2b2o334b2o2b2o2b2o2b2o2b2o2b2o2b2o2b2o2b2o2b2o2b2o2b2o2b2o2b2o
2b2o2b2o2b2o2b2o2b2o2b2o2b2o2b2o2b2o2b2o2b2o2b2o2b2o2b2o2b2o2b2o2b2o2b
2o2b2o2b2o146b2o2b2o2b2o2b2o2b2o2b2o2b2o2b2o2b2o2b2o2b2o2b2o2b2o2b2o2b
2o2b2o2b2o2b2o2b2o2b2o2b2o2b2o2b2o2b2o2b2o2b2o2b2o2b2o2b2o2b2o2b2o2b2o
2b2o2b2o2b2o2b2o2b2o2b2o2b2o2b2o2b2o2b2o2b2o2b2o2b2o2b2o2b2o2b2o2b2o2b
2o2b2o2b2o2b2o2b2o2b2o2b2o2b2o2b2o2b2o2b2o2b2o2b2o2b2o2b2o2b2o2b2o2b2o
2b2o2b2o2b2o2b2o2b2o2b2o2b2o2b2o2b2o2b2o2b2o2b2o34b2o2b2o2b2o2b2o2b2o
2b2o2b2o2b2o2b2o2b2o2b2o2b2o2b2o2b2o2b2o2b2o2b2o2b2o2b2o2b2o2b2o2b2o2b
2o2b2o2b2o2b2o2b2o2b2o2b2o2b2o2b2o2b2o2b2o2b2o2b2o2b2o2b2o2b2o2b2o2b2o
2b2o2b2o2b2o2b2o2b2o2b2o2b2o2b2o2b2o2b2o2b2o2b2o2b2o2b2o2b2o2b2o2b2o2b
2o2b2o2b2o2b2o2b2o2b2o2b2o2b2o2b2o2b2o2b2o2b2o2b2o2b2o2b2o2b2o2b2o2b2o
2b2o2b2o2b2o2b2o555bobo98bobo1464bo2bo19bo2bo846bo2bo19bo2bo930bo2bo
19bo2bo546bo2bo19bo2bo$2o2b2o2b2o2b2o2b2o2b2o2b2o2b2o2b2o2b2o2b2o2b2o
2b2o2b2o2b2o2b2o2b2o2b2o2b2o2b2o2b2o2b2o2b2o2b2o2b2o2b2o2b2o2b2o2b2o2b
2o2b2o2b2o2b2o2b2o2b2o334b2o2b2o2b2o2b2o2b2o2b2o2b2o2b2o2b2o2b2o2b2o2b
2o2b2o2b2o2b2o2b2o2b2o2b2o2b2o2b2o2b2o2b2o2b2o2b2o2b2o2b2o2b2o2b2o2b2o
2b2o2b2o2b2o2b2o2b2o146b2o2b2o2b2o2b2o2b2o2b2o2b2o2b2o2b2o2b2o2b2o2b2o
2b2o2b2o2b2o2b2o2b2o2b2o2b2o2b2o2b2o2b2o2b2o2b2o2b2o2b2o2b2o2b2o2b2o2b
2o2b2o2b2o2b2o2b2o2b2o2b2o2b2o2b2o2b2o2b2o2b2o2b2o2b2o2b2o2b2o2b2o2b2o
2b2o2b2o2b2o2b2o2b2o2b2o2b2o2b2o2b2o2b2o2b2o2b2o2b2o2b2o2b2o2b2o2b2o2b
2o2b2o2b2o2b2o2b2o2b2o2b2o2b2o2b2o2b2o2b2o2b2o2b2o2b2o2b2o34b2o2b2o2b
2o2b2o2b2o2b2o2b2o2b2o2b2o2b2o2b2o2b2o2b2o2b2o2b2o2b2o2b2o2b2o2b2o2b2o
2b2o2b2o2b2o2b2o2b2o2b2o2b2o2b2o2b2o2b2o2b2o2b2o2b2o2b2o2b2o2b2o2b2o2b
2o2b2o2b2o2b2o2b2o2b2o2b2o2b2o2b2o2b2o2b2o2b2o2b2o2b2o2b2o2b2o2b2o2b2o
2b2o2b2o2b2o2b2o2b2o2b2o2b2o2b2o2b2o2b2o2b2o2b2o2b2o2b2o2b2o2b2o2b2o2b
2o2b2o2b2o2b2o2b2o2b2o2b2o554bo104bo1443bobo17bo25bo17bobo806bobo17bo
25bo17bobo890bobo17bo25bo17bobo506bobo17bo25bo17bobo$1968bo104bo1446bo
16bo25bo16bo812bo16bo25bo16bo896bo16bo25bo16bo512bo16bo25bo16bo$1949b
3o16bo2bo98bo2bo16b3o1427bo17bobo19bobo17bo812bo17bobo19bobo17bo896bo
17bobo19bobo17bo512bo17bobo19bobo17bo$2o2b2o2b2o2b2o2b2o2b2o2b2o2b2o2b
2o2b2o2b2o2b2o2b2o2b2o2b2o2b2o2b2o2b2o2b2o2b2o2b2o2b2o2b2o2b2o2b2o2b2o
2b2o2b2o2b2o2b2o2b2o2b2o2b2o2b2o342b2o2b2o2b2o2b2o2b2o2b2o2b2o2b2o2b2o
2b2o2b2o2b2o2b2o2b2o2b2o2b2o2b2o2b2o2b2o2b2o2b2o2b2o2b2o2b2o2b2o2b2o2b
2o2b2o2b2o2b2o2b2o2b2o2b2o146b2o2b2o2b2o2b2o2b2o2b2o2b2o2b2o2b2o2b2o2b
2o2b2o2b2o2b2o2b2o2b2o2b2o2b2o2b2o2b2o2b2o2b2o2b2o2b2o2b2o2b2o2b2o2b2o
2b2o2b2o2b2o2b2o2b2o2b2o2b2o2b2o2b2o2b2o2b2o2b2o2b2o2b2o2b2o2b2o2b2o2b
2o2b2o2b2o2b2o2b2o2b2o2b2o2b2o2b2o2b2o2b2o2b2o2b2o2b2o2b2o2b2o2b2o2b2o
2b2o2b2o2b2o2b2o2b2o2b2o2b2o2b2o2b2o2b2o2b2o2b2o2b2o2b2o2b2o2b2o2b2o
26b2o2b2o2b2o2b2o2b2o2b2o2b2o2b2o2b2o2b2o2b2o2b2o2b2o2b2o2b2o2b2o2b2o
2b2o2b2o2b2o2b2o2b2o2b2o2b2o2b2o2b2o2b2o2b2o2b2o2b2o2b2o2b2o2b2o2b2o2b
2o2b2o2b2o2b2o2b2o2b2o2b2o2b2o2b2o2b2o2b2o2b2o2b2o2b2o2b2o2b2o2b2o2b2o
2b2o2b2o2b2o2b2o2b2o2b2o2b2o2b2o2b2o2b2o2b2o2b2o2b2o2b2o2b2o2b2o2b2o2b
2o2b2o2b2o2b2o2b2o2b2o2b2o2b2o2b2o2b2o2b2o535bo2bo15b3o100b3o15bo2bo
1424bo2bo59bo2bo806bo2bo59bo2bo890bo2bo59bo2bo506bo2bo59bo2bo$2o2b2o2b
2o2b2o2b2o2b2o2b2o2b2o2b2o2b2o2b2o2b2o2b2o2b2o2b2o2b2o2b2o2b2o2b2o2b2o
2b2o2b2o2b2o2b2o2b2o2b2o2b2o2b2o2b2o2b2o2b2o2b2o2b2o2b2o342b2o2b2o2b2o
2b2o2b2o2b2o2b2o2b2o2b2o2b2o2b2o2b2o2b2o2b2o2b2o2b2o2b2o2b2o2b2o2b2o2b
2o2b2o2b2o2b2o2b2o2b2o2b2o2b2o2b2o2b2o2b2o2b2o2b2o146b2o2b2o2b2o2b2o2b
2o2b2o2b2o2b2o2b2o2b2o2b2o2b2o2b2o2b2o2b2o2b2o2b2o2b2o2b2o2b2o2b2o2b2o
2b2o2b2o2b2o2b2o2b2o2b2o2b2o2b2o2b2o2b2o2b2o2b2o2b2o2b2o2b2o2b2o2b2o2b
2o2b2o2b2o2b2o2b2o2b2o2b2o2b2o2b2o2b2o2b2o2b2o2b2o2b2o2b2o2b2o2b2o2b2o
2b2o2b2o2b2o2b2o2b2o2b2o2b2o2b2o2b2o2b2o2b2o2b2o2b2o2b2o2b2o2b2o2b2o2b
2o2b2o2b2o2b2o2b2o2b2o26b2o2b2o2b2o2b2o2b2o2b2o2b2o2b2o2b2o2b2o2b2o2b
2o2b2o2b2o2b2o2b2o2b2o2b2o2b2o2b2o2b2o2b2o2b2o2b2o2b2o2b2o2b2o2b2o2b2o
2b2o2b2o2b2o2b2o2b2o2b2o2b2o2b2o2b2o2b2o2b2o2b2o2b2o2b2o2b2o2b2o2b2o2b
2o2b2o2b2o2b2o2b2o2b2o2b2o2b2o2b2o2b2o2b2o2b2o2b2o2b2o2b2o2b2o2b2o2b2o
2b2o2b2o2b2o2b2o2b2o2b2o2b2o2b2o2b2o2b2o2b2o2b2o2b2o2b2o2b2o2b2o535bo
142bo1425b3o59b3o808b3o59b3o892b3o59b3o508b3o59b3o$1949bo142bo1387bobo
136bobo730bobo136bobo816bobo136bobo430bobo136bobo$1950bobo136bobo1387b
o142bo728bo142bo814bo142bo428bo142bo$2o2b2o2b2o2b2o2b2o2b2o2b2o2b2o2b
2o2b2o2b2o2b2o2b2o2b2o2b2o2b2o2b2o2b2o2b2o2b2o2b2o2b2o2b2o2b2o2b2o2b2o
2b2o2b2o2b2o2b2o2b2o2b2o2b2o2b2o342b2o2b2o2b2o2b2o2b2o2b2o2b2o2b2o2b2o
2b2o2b2o2b2o2b2o2b2o2b2o2b2o2b2o2b2o2b2o2b2o2b2o2b2o2b2o2b2o2b2o2b2o2b
2o2b2o2b2o2b2o2b2o2b2o2b2o146b2o2b2o2b2o2b2o2b2o2b2o2b2o2b2o2b2o2b2o2b
2o2b2o2b2o2b2o2b2o2b2o2b2o2b2o2b2o2b2o2b2o2b2o2b2o2b2o2b2o2b2o2b2o2b2o
2b2o2b2o2b2o2b2o2b2o2b2o2b2o2b2o2b2o2b2o2b2o2b2o2b2o2b2o2b2o2b2o2b2o2b
2o2b2o2b2o2b2o2b2o2b2o2b2o2b2o2b2o2b2o2b2o2b2o2b2o2b2o2b2o2b2o2b2o2b2o
2b2o2b2o2b2o2b2o2b2o2b2o2b2o2b2o2b2o2b2o2b2o2b2o2b2o2b2o2b2o2b2o2b2o2b
2o18b2o2b2o2b2o2b2o2b2o2b2o2b2o2b2o2b2o2b2o2b2o2b2o2b2o2b2o2b2o2b2o2b
2o2b2o2b2o2b2o2b2o2b2o2b2o2b2o2b2o2b2o2b2o2b2o2b2o2b2o2b2o2b2o2b2o2b2o
2b2o2b2o2b2o2b2o2b2o2b2o2b2o2b2o2b2o2b2o2b2o2b2o2b2o2b2o2b2o2b2o2b2o2b
2o2b2o2b2o2b2o2b2o2b2o2b2o2b2o2b2o2b2o2b2o2b2o2b2o2b2o2b2o2b2o2b2o2b2o
2b2o2b2o2b2o2b2o2b2o2b2o2b2o2b2o2b2o2b2o2b2o2b2o574b3o59b3o1426bo142bo
728bo142bo814bo142bo428bo142bo$2o2b2o2b2o2b2o2b2o2b2o2b2o2b2o2b2o2b2o
2b2o2b2o2b2o2b2o2b2o2b2o2b2o2b2o2b2o2b2o2b2o2b2o2b2o2b2o2b2o2b2o2b2o2b
2o2b2o2b2o2b2o2b2o2b2o2b2o342b2o2b2o2b2o2b2o2b2o2b2o2b2o2b2o2b2o2b2o2b
2o2b2o2b2o2b2o2b2o2b2o2b2o2b2o2b2o2b2o2b2o2b2o2b2o2b2o2b2o2b2o2b2o2b2o
2b2o2b2o2b2o2b2o2b2o146b2o2b2o2b2o2b2o2b2o2b2o2b2o2b2o2b2o2b2o2b2o2b2o
2b2o2b2o2b2o2b2o2b2o2b2o2b2o2b2o2b2o2b2o2b2o2b2o2b2o2b2o2b2o2b2o2b2o2b
2o2b2o2b2o2b2o2b2o2b2o2b2o2b2o2b2o2b2o2b2o2b2o2b2o2b2o2b2o2b2o2b2o2b2o
2b2o2b2o2b2o2b2o2b2o2b2o2b2o2b2o2b2o2b2o2b2o2b2o2b2o2b2o2b2o2b2o2b2o2b
2o2b2o2b2o2b2o2b2o2b2o2b2o2b2o2b2o2b2o2b2o2b2o2b2o2b2o2b2o2b2o2b2o18b
2o2b2o2b2o2b2o2b2o2b2o2b2o2b2o2b2o2b2o2b2o2b2o2b2o2b2o2b2o2b2o2b2o2b2o
2b2o2b2o2b2o2b2o2b2o2b2o2b2o2b2o2b2o2b2o2b2o2b2o2b2o2b2o2b2o2b2o2b2o2b
2o2b2o2b2o2b2o2b2o2b2o2b2o2b2o2b2o2b2o2b2o2b2o2b2o2b2o2b2o2b2o2b2o2b2o
2b2o2b2o2b2o2b2o2b2o2b2o2b2o2b2o2b2o2b2o2b2o2b2o2b2o2b2o2b2o2b2o2b2o2b
2o2b2o2b2o2b2o2b2o2b2o2b2o2b2o2b2o2b2o2b2o573bo2bo59bo2bo1425bo2bo15b
3o100b3o15bo2bo728bo2bo15b3o100b3o15bo2bo814bo2bo15b3o100b3o15bo2bo
428bo2bo15b3o100b3o15bo2bo$1990bo17bobo19bobo17bo1428b3o16bo2bo98bo2bo
16b3o728b3o16bo2bo98bo2bo16b3o814b3o16bo2bo98bo2bo16b3o428b3o16bo2bo
98bo2bo16b3o$1990bo16bo25bo16bo1447bo104bo766bo104bo852bo104bo466bo
104bo$2o2b2o2b2o2b2o2b2o2b2o2b2o2b2o2b2o2b2o2b2o2b2o2b2o2b2o2b2o2b2o2b
2o2b2o2b2o2b2o2b2o2b2o2b2o2b2o2b2o2b2o2b2o2b2o2b2o2b2o2b2o2b2o2b2o350b
2o2b2o2b2o2b2o2b2o2b2o2b2o2b2o2b2o2b2o2b2o2b2o2b2o2b2o2b2o2b2o2b2o2b2o
2b2o2b2o2b2o2b2o2b2o2b2o2b2o2b2o2b2o2b2o2b2o2b2o2b2o2b2o146b2o2b2o2b2o
2b2o2b2o2b2o2b2o2b2o2b2o2b2o2b2o2b2o2b2o2b2o2b2o2b2o2b2o2b2o2b2o2b2o2b
2o2b2o2b2o2b2o2b2o2b2o2b2o2b2o2b2o2b2o2b2o2b2o2b2o2b2o2b2o2b2o2b2o2b2o
2b2o2b2o2b2o2b2o2b2o2b2o2b2o2b2o2b2o2b2o2b2o2b2o2b2o2b2o2b2o2b2o2b2o2b
2o2b2o2b2o2b2o2b2o2b2o2b2o2b2o2b2o2b2o2b2o2b2o2b2o2b2o2b2o2b2o2b2o2b2o
2b2o2b2o2b2o2b2o2b2o2b2o2b2o2b2o2b2o10b2o2b2o2b2o2b2o2b2o2b2o2b2o2b2o
2b2o2b2o2b2o2b2o2b2o2b2o2b2o2b2o2b2o2b2o2b2o2b2o2b2o2b2o2b2o2b2o2b2o2b
2o2b2o2b2o2b2o2b2o2b2o2b2o2b2o2b2o2b2o2b2o2b2o2b2o2b2o2b2o2b2o2b2o2b2o
2b2o2b2o2b2o2b2o2b2o2b2o2b2o2b2o2b2o2b2o2b2o2b2o2b2o2b2o2b2o2b2o2b2o2b
2o2b2o2b2o2b2o2b2o2b2o2b2o2b2o2b2o2b2o2b2o2b2o2b2o2b2o2b2o2b2o2b2o2b2o
2b2o2b2o2b2o2b2o573bobo17bo25bo17bobo1444bo104bo766bo104bo852bo104bo
466bo104bo$2o2b2o2b2o2b2o2b2o2b2o2b2o2b2o2b2o2b2o2b2o2b2o2b2o2b2o2b2o
2b2o2b2o2b2o2b2o2b2o2b2o2b2o2b2o2b2o2b2o2b2o2b2o2b2o2b2o2b2o2b2o2b2o2b
2o350b2o2b2o2b2o2b2o2b2o2b2o2b2o2b2o2b2o2b2o2b2o2b2o2b2o2b2o2b2o2b2o2b
2o2b2o2b2o2b2o2b2o2b2o2b2o2b2o2b2o2b2o2b2o2b2o2b2o2b2o2b2o2b2o146b2o2b
2o2b2o2b2o2b2o2b2o2b2o2b2o2b2o2b2o2b2o2b2o2b2o2b2o2b2o2b2o2b2o2b2o2b2o
2b2o2b2o2b2o2b2o2b2o2b2o2b2o2b2o2b2o2b2o2b2o2b2o2b2o2b2o2b2o2b2o2b2o2b
2o2b2o2b2o2b2o2b2o2b2o2b2o2b2o2b2o2b2o2b2o2b2o2b2o2b2o2b2o2b2o2b2o2b2o
2b2o2b2o2b2o2b2o2b2o2b2o2b2o2b2o2b2o2b2o2b2o2b2o2b2o2b2o2b2o2b2o2b2o2b
2o2b2o2b2o2b2o2b2o2b2o2b2o2b2o2b2o2b2o2b2o10b2o2b2o2b2o2b2o2b2o2b2o2b
2o2b2o2b2o2b2o2b2o2b2o2b2o2b2o2b2o2b2o2b2o2b2o2b2o2b2o2b2o2b2o2b2o2b2o
2b2o2b2o2b2o2b2o2b2o2b2o2b2o2b2o2b2o2b2o2b2o2b2o2b2o2b2o2b2o2b2o2b2o2b
2o2b2o2b2o2b2o2b2o2b2o2b2o2b2o2b2o2b2o2b2o2b2o2b2o2b2o2b2o2b2o2b2o2b2o
2b2o2b2o2b2o2b2o2b2o2b2o2b2o2b2o2b2o2b2o2b2o2b2o2b2o2b2o2b2o2b2o2b2o2b
2o2b2o2b2o2b2o2b2o2b2o593bo2bo19bo2bo1465bobo98bobo768bobo98bobo854bob
o98bobo468bobo98bobo$2007b3o21b3o1503b3o21b3o846b3o21b3o930b3o21b3o
546b3o21b3o$3536bo2bo21bo2bo844bo2bo21bo2bo928bo2bo21bo2bo544bo2bo21bo
2bo$2o2b2o2b2o2b2o2b2o2b2o2b2o2b2o2b2o2b2o2b2o2b2o2b2o2b2o2b2o2b2o2b2o
2b2o2b2o2b2o2b2o2b2o2b2o2b2o2b2o2b2o2b2o2b2o2b2o2b2o2b2o2b2o2b2o350b2o
2b2o2b2o2b2o2b2o2b2o2b2o2b2o2b2o2b2o2b2o2b2o2b2o2b2o2b2o2b2o2b2o2b2o2b
2o2b2o2b2o2b2o2b2o2b2o2b2o2b2o2b2o2b2o2b2o2b2o2b2o2b2o146b2o2b2o2b2o2b
2o2b2o2b2o2b2o2b2o2b2o2b2o2b2o2b2o2b2o2b2o2b2o2b2o2b2o2b2o2b2o2b2o2b2o
2b2o2b2o2b2o2b2o2b2o2b2o2b2o2b2o2b2o2b2o2b2o2b2o2b2o2b2o2b2o2b2o2b2o2b
2o2b2o2b2o2b2o2b2o2b2o2b2o2b2o2b2o2b2o2b2o2b2o2b2o2b2o2b2o2b2o2b2o2b2o
2b2o2b2o2b2o2b2o2b2o2b2o2b2o2b2o2b2o2b2o2b2o2b2o2b2o2b2o2b2o2b2o2b2o2b
2o2b2o2b2o2b2o2b2o2b2o2b2o2b2o2b2o2b2o2b2o2b2o2b2o2b2o2b2o2b2o2b2o2b2o
2b2o2b2o2b2o2b2o2b2o2b2o2b2o2b2o2b2o2b2o2b2o2b2o2b2o2b2o2b2o2b2o2b2o2b
2o2b2o2b2o2b2o2b2o2b2o2b2o2b2o2b2o2b2o2b2o2b2o2b2o2b2o2b2o2b2o2b2o2b2o
2b2o2b2o2b2o2b2o2b2o2b2o2b2o2b2o2b2o2b2o2b2o2b2o2b2o2b2o2b2o2b2o2b2o2b
2o2b2o2b2o2b2o2b2o2b2o2b2o2b2o2b2o2b2o2b2o2b2o2b2o2b2o2b2o2b2o2b2o2b2o
2b2o2b2o2b2o2b2o2b2o2105bobo17bo21bo17bobo810bobo17bo21bo17bobo894bobo
17bo21bo17bobo510bobo17bo21bo17bobo$2o2b2o2b2o2b2o2b2o2b2o2b2o2b2o2b2o
2b2o2b2o2b2o2b2o2b2o2b2o2b2o2b2o2b2o2b2o2b2o2b2o2b2o2b2o2b2o2b2o2b2o2b
2o2b2o2b2o2b2o2b2o2b2o2b2o350b2o2b2o2b2o2b2o2b2o2b2o2b2o2b2o2b2o2b2o2b
2o2b2o2b2o2b2o2b2o2b2o2b2o2b2o2b2o2b2o2b2o2b2o2b2o2b2o2b2o2b2o2b2o2b2o
2b2o2b2o2b2o2b2o146b2o2b2o2b2o2b2o2b2o2b2o2b2o2b2o2b2o2b2o2b2o2b2o2b2o
2b2o2b2o2b2o2b2o2b2o2b2o2b2o2b2o2b2o2b2o2b2o2b2o2b2o2b2o2b2o2b2o2b2o2b
2o2b2o2b2o2b2o2b2o2b2o2b2o2b2o2b2o2b2o2b2o2b2o2b2o2b2o2b2o2b2o2b2o2b2o
2b2o2b2o2b2o2b2o2b2o2b2o2b2o2b2o2b2o2b2o2b2o2b2o2b2o2b2o2b2o2b2o2b2o2b
2o2b2o2b2o2b2o2b2o2b2o2b2o2b2o2b2o2b2o2b2o2b2o2b2o2b2o2b2o2b2o2b2o2b2o
2b2o2b2o2b2o2b2o2b2o2b2o2b2o2b2o2b2o2b2o2b2o2b2o2b2o2b2o2b2o2b2o2b2o2b
2o2b2o2b2o2b2o2b2o2b2o2b2o2b2o2b2o2b2o2b2o2b2o2b2o2b2o2b2o2b2o2b2o2b2o
2b2o2b2o2b2o2b2o2b2o2b2o2b2o2b2o2b2o2b2o2b2o2b2o2b2o2b2o2b2o2b2o2b2o2b
2o2b2o2b2o2b2o2b2o2b2o2b2o2b2o2b2o2b2o2b2o2b2o2b2o2b2o2b2o2b2o2b2o2b2o
2b2o2b2o2b2o2b2o2b2o2b2o2b2o2b2o2b2o2b2o2b2o2b2o2b2o2104bo20bo21bo20bo
808bo20bo21bo20bo892bo20bo21bo20bo508bo20bo21bo20bo$1949b3o19b2o96b2o
19b3o1425bo17bobo23bobo17bo130b2o676bo17bobo23bobo17bo892bo17bobo23bob
o17bo130b2o376bo17bobo23bobo17bo1087b2o$1948bo2bo19bo98bo19bo2bo1424bo
2bo57bo2bo130bo677bo2bo57bo2bo892bo2bo57bo2bo130bo377bo2bo57bo2bo1087b
o$2o2b2o2b2o2b2o2b2o2b2o2b2o2b2o2b2o2b2o2b2o2b2o2b2o2b2o2b2o2b2o2b2o2b
2o2b2o2b2o2b2o2b2o2b2o2b2o2b2o2b2o2b2o2b2o2b2o2b2o2b2o2b2o2b2o350b2o2b
2o2b2o2b2o2b2o2b2o2b2o2b2o2b2o2b2o2b2o2b2o2b2o2b2o2b2o2b2o2b2o2b2o2b2o
2b2o2b2o2b2o2b2o2b2o2b2o2b2o2b2o2b2o2b2o2b2o2b2o2b2o146b2o2b2o2b2o2b2o
2b2o2b2o2b2o2b2o2b2o2b2o2b2o2b2o2b2o2b2o2b2o2b2o2b2o2b2o2b2o2b2o2b2o2b
2o2b2o2b2o2b2o2b2o2b2o2b2o2b2o2b2o2b2o2b2o2b2o2b2o2b2o2b2o2b2o2b2o2b2o
2b2o2b2o2b2o2b2o2b2o2b2o2b2o2b2o2b2o2b2o2b2o2b2o2b2o2b2o2b2o2b2o2b2o2b
2o2b2o2b2o2b2o2b2o2b2o2b2o2b2o2b2o2b2o2b2o2b2o2b2o2b2o2b2o2b2o2b2o2b2o
2b2o2b2o2b2o2b2o2b2o2b2o2b2o2b2o2b2o2b2o2b2o2b2o2b2o2b2o2b2o2b2o2b2o2b
2o2b2o2b2o2b2o2b2o2b2o2b2o2b2o2b2o2b2o2b2o2b2o2b2o2b2o2b2o2b2o2b2o2b2o
2b2o2b2o2b2o2b2o2b2o2b2o2b2o2b2o2b2o2b2o2b2o2b2o2b2o2b2o2b2o2b2o2b2o2b
2o2b2o2b2o2b2o2b2o2b2o2b2o2b2o2b2o2b2o2b2o2b2o2b2o2b2o2b2o2b2o2b2o2b2o
2b2o2b2o2b2o2b2o2b2o2b2o2b2o2b2o2b2o2b2o2b2o2b2o2b2o2b2o2b2o2b2o2b2o2b
2o2b2o2b2o2b2o2b2o537bo20b3o92b3o20bo1427b3o59b3o118bo9bobo677b3o59b3o
892b3o59b3o118bo9bobo377b3o59b3o1075bo9bobo$2o2b2o2b2o2b2o2b2o2b2o2b2o
2b2o2b2o2b2o2b2o2b2o2b2o2b2o2b2o2b2o2b2o2b2o2b2o2b2o2b2o2b2o2b2o2b2o2b
2o2b2o2b2o2b2o2b2o2b2o2b2o2b2o2b2o350b2o2b2o2b2o2b2o2b2o2b2o2b2o2b2o2b
2o2b2o2b2o2b2o2b2o2b2o2b2o2b2o2b2o2b2o2b2o2b2o2b2o2b2o2b2o2b2o2b2o2b2o
2b2o2b2o2b2o2b2o2b2o2b2o146b2o2b2o2b2o2b2o2b2o2b2o2b2o2b2o2b2o2b2o2b2o
2b2o2b2o2b2o2b2o2b2o2b2o2b2o2b2o2b2o2b2o2b2o2b2o2b2o2b2o2b2o2b2o2b2o2b
2o2b2o2b2o2b2o2b2o2b2o2b2o2b2o2b2o2b2o2b2o2b2o2b2o2b2o2b2o2b2o2b2o2b2o
2b2o2b2o2b2o2b2o2b2o2b2o2b2o2b2o2b2o2b2o2b2o2b2o2b2o2b2o2b2o2b2o2b2o2b
2o2b2o2b2o2b2o2b2o2b2o2b2o2b2o2b2o2b2o2b2o2b2o2b2o2b2o2b2o2b2o2b2o2b2o
2b2o2b2o2b2o2b2o2b2o2b2o2b2o2b2o2b2o2b2o2b2o2b2o2b2o2b2o2b2o2b2o2b2o2b
2o2b2o2b2o2b2o2b2o2b2o2b2o2b2o2b2o2b2o2b2o2b2o2b2o2b2o2b2o2b2o2b2o2b2o
2b2o2b2o2b2o2b2o2b2o2b2o2b2o2b2o2b2o2b2o2b2o2b2o2b2o2b2o2b2o2b2o2b2o2b
2o2b2o2b2o2b2o2b2o2b2o2b2o2b2o2b2o2b2o2b2o2b2o2b2o2b2o2b2o2b2o2b2o2b2o
2b2o2b2o2b2o2b2o2b2o2b2o2b2o2b2o2b2o2b2o2b2o2b2o2b2o2b2o2b2o537bo22bo
92bo22bo1387bobo140bobo75bobo9b2o637bobo140bobo812bobo140bobo75bobo9b
2o337bobo140bobo1033bobo9b2o$1948bobo14b2o108b2o14bobo1387bo138bo77bob
o652bo138bo818bo138bo77bobo352bo138bo1035bobo$1965b2o21b3o59b3o22b2o
1404bo138bo71b2o3bo2bo652bo138bo818bo138bo71b2o3bo2bo352bo138bo1029b2o
3bo2bo$2o2b2o2b2o2b2o2b2o2b2o2b2o2b2o2b2o2b2o2b2o2b2o2b2o2b2o2b2o2b2o
2b2o2b2o2b2o2b2o2b2o2b2o2b2o2b2o2b2o2b2o2b2o2b2o2b2o2b2o2b2o2b2o2b2o
350b2o2b2o2b2o2b2o2b2o2b2o2b2o2b2o2b2o2b2o2b2o2b2o2b2o2b2o2b2o2b2o2b2o
2b2o2b2o2b2o2b2o2b2o2b2o2b2o2b2o2b2o2b2o2b2o2b2o2b2o2b2o2b2o146b2o2b2o
2b2o2b2o2b2o2b2o2b2o2b2o2b2o2b2o2b2o2b2o2b2o2b2o2b2o2b2o2b2o2b2o2b2o2b
2o2b2o2b2o2b2o2b2o2b2o2b2o2b2o2b2o2b2o2b2o2b2o2b2o2b2o2b2o2b2o2b2o2b2o
2b2o2b2o2b2o2b2o2b2o2b2o2b2o2b2o2b2o2b2o2b2o2b2o2b2o2b2o2b2o2b2o2b2o2b
2o2b2o2b2o2b2o2b2o2b2o2b2o2b2o2b2o2b2o2b2o2b2o2b2o2b2o2b2o2b2o2b2o2b2o
2b2o2b2o2b2o2b2o2b2o2b2o2b2o2b2o2b2o2b2o2b2o2b2o2b2o2b2o2b2o2b2o2b2o2b
2o2b2o2b2o2b2o2b2o2b2o2b2o2b2o2b2o2b2o2b2o2b2o2b2o2b2o2b2o2b2o2b2o2b2o
2b2o2b2o2b2o2b2o2b2o2b2o2b2o2b2o2b2o2b2o2b2o2b2o2b2o2b2o2b2o2b2o2b2o2b
2o2b2o2b2o2b2o2b2o2b2o2b2o2b2o2b2o2b2o2b2o2b2o2b2o2b2o2b2o2b2o2b2o2b2o
2b2o2b2o2b2o2b2o2b2o2b2o2b2o2b2o2b2o2b2o2b2o2b2o2b2o2b2o2b2o2b2o2b2o2b
2o2b2o2b2o2b2o2b2o2b2o2b2o574bo2bo57bo2bo1425bo2bo16b3o100b3o16bo2bo
68b2o4bobo649bo2bo16b3o100b3o16bo2bo812bo2bo16b3o100b3o16bo2bo68b2o4bo
bo349bo2bo16b3o100b3o16bo2bo1026b2o4bobo$2o2b2o2b2o2b2o2b2o2b2o2b2o2b
2o2b2o2b2o2b2o2b2o2b2o2b2o2b2o2b2o2b2o2b2o2b2o2b2o2b2o2b2o2b2o2b2o2b2o
2b2o2b2o2b2o2b2o2b2o2b2o2b2o2b2o350b2o2b2o2b2o2b2o2b2o2b2o2b2o2b2o2b2o
2b2o2b2o2b2o2b2o2b2o2b2o2b2o2b2o2b2o2b2o2b2o2b2o2b2o2b2o2b2o2b2o2b2o2b
2o2b2o2b2o2b2o2b2o2b2o146b2o2b2o2b2o2b2o2b2o2b2o2b2o2b2o2b2o2b2o2b2o2b
2o2b2o2b2o2b2o2b2o2b2o2b2o2b2o2b2o2b2o2b2o2b2o2b2o2b2o2b2o2b2o2b2o2b2o
2b2o2b2o2b2o2b2o2b2o2b2o2b2o2b2o2b2o2b2o2b2o2b2o2b2o2b2o2b2o2b2o2b2o2b
2o2b2o2b2o2b2o2b2o2b2o2b2o2b2o2b2o2b2o2b2o2b2o2b2o2b2o2b2o2b2o2b2o2b2o
2b2o2b2o2b2o2b2o2b2o2b2o2b2o2b2o2b2o2b2o2b2o2b2o2b2o2b2o2b2o2b2o2b2o2b
2o2b2o2b2o2b2o2b2o2b2o2b2o2b2o2b2o2b2o2b2o2b2o2b2o2b2o2b2o2b2o2b2o2b2o
2b2o2b2o2b2o2b2o2b2o2b2o2b2o2b2o2b2o2b2o2b2o2b2o2b2o2b2o2b2o2b2o2b2o2b
2o2b2o2b2o2b2o2b2o2b2o2b2o2b2o2b2o2b2o2b2o2b2o2b2o2b2o2b2o2b2o2b2o2b2o
2b2o2b2o2b2o2b2o2b2o2b2o2b2o2b2o2b2o2b2o2b2o2b2o2b2o2b2o2b2o2b2o2b2o2b
2o2b2o2b2o2b2o2b2o2b2o2b2o2b2o2b2o2b2o2b2o2b2o2b2o2b2o2b2o574bo17bobo
23bobo17bo1426b3o15bo2bo100bo2bo15b3o76bobo649b3o15bo2bo100bo2bo15b3o
814b3o15bo2bo100bo2bo15b3o76bobo349b3o15bo2bo100bo2bo15b3o1034bobo$
1988bo20bo21bo20bo1447bo100bo99bo670bo100bo856bo100bo99bo370bo100bo
1057bo$1989bobo17bo21bo17bobo1448bo100bo770bo100bo856bo100bo470bo100bo
$2o2b2o2b2o2b2o2b2o2b2o2b2o2b2o2b2o2b2o2b2o2b2o2b2o2b2o2b2o2b2o2b2o2b
2o2b2o2b2o2b2o2b2o2b2o2b2o2b2o2b2o2b2o2b2o2b2o2b2o2b2o2b2o2b2o350b2o2b
2o2b2o2b2o2b2o2b2o2b2o2b2o2b2o2b2o2b2o2b2o2b2o2b2o2b2o2b2o2b2o2b2o2b2o
2b2o2b2o2b2o2b2o2b2o2b2o2b2o2b2o2b2o2b2o2b2o2b2o2b2o146b2o2b2o2b2o2b2o
2b2o2b2o2b2o2b2o2b2o2b2o2b2o2b2o2b2o2b2o2b2o2b2o2b2o2b2o2b2o2b2o2b2o2b
2o2b2o2b2o2b2o2b2o2b2o2b2o2b2o2b2o2b2o2b2o2b2o2b2o2b2o2b2o2b2o2b2o2b2o
2b2o2b2o2b2o2b2o2b2o2b2o2b2o2b2o2b2o2b2o2b2o2b2o2b2o2b2o2b2o2b2o2b2o2b
2o2b2o2b2o2b2o2b2o2b2o2b2o2b2o2b2o2b2o2b2o2b2o2b2o2b2o2b2o2b2o2b2o2b2o
2b2o2b2o2b2o2b2o2b2o2b2o2b2o2b2o2b2o2b2o2b2o2b2o2b2o2b2o2b2o2b2o2b2o2b
2o2b2o2b2o2b2o2b2o2b2o2b2o2b2o2b2o2b2o2b2o2b2o2b2o2b2o2b2o2b2o2b2o2b2o
2b2o2b2o2b2o2b2o2b2o2b2o2b2o2b2o2b2o2b2o2b2o2b2o2b2o2b2o2b2o2b2o2b2o2b
2o2b2o2b2o2b2o2b2o2b2o2b2o2b2o2b2o2b2o2b2o2b2o2b2o2b2o2b2o2b2o2b2o2b2o
2b2o2b2o2b2o2b2o2b2o2b2o2b2o2b2o2b2o2b2o2b2o2b2o2b2o2b2o2b2o2b2o2b2o2b
2o2b2o2b2o2b2o2b2o592bo2bo21bo2bo1462bobo102bobo764bobo102bobo850bobo
102bobo464bobo102bobo$2o2b2o2b2o2b2o2b2o2b2o2b2o2b2o2b2o2b2o2b2o2b2o2b
2o2b2o2b2o2b2o2b2o2b2o2b2o2b2o2b2o2b2o2b2o2b2o2b2o2b2o2b2o2b2o2b2o2b2o
2b2o2b2o2b2o350b2o2b2o2b2o2b2o2b2o2b2o2b2o2b2o2b2o2b2o2b2o2b2o2b2o2b2o
2b2o2b2o2b2o2b2o2b2o2b2o2b2o2b2o2b2o2b2o2b2o2b2o2b2o2b2o2b2o2b2o2b2o2b
2o146b2o2b2o2b2o2b2o2b2o2b2o2b2o2b2o2b2o2b2o2b2o2b2o2b2o2b2o2b2o2b2o2b
2o2b2o2b2o2b2o2b2o2b2o2b2o2b2o2b2o2b2o2b2o2b2o2b2o2b2o2b2o2b2o2b2o2b2o
2b2o2b2o2b2o2b2o2b2o2b2o2b2o2b2o2b2o2b2o2b2o2b2o2b2o2b2o2b2o2b2o2b2o2b
2o2b2o2b2o2b2o2b2o2b2o2b2o2b2o2b2o2b2o2b2o2b2o2b2o2b2o2b2o2b2o2b2o2b2o
2b2o2b2o2b2o2b2o2b2o2b2o2b2o2b2o2b2o2b2o2b2o2b2o2b2o2b2o2b2o2b2o2b2o2b
2o2b2o2b2o2b2o2b2o2b2o2b2o2b2o2b2o2b2o2b2o2b2o2b2o2b2o2b2o2b2o2b2o2b2o
2b2o2b2o2b2o2b2o2b2o2b2o2b2o2b2o2b2o2b2o2b2o2b2o2b2o2b2o2b2o2b2o2b2o2b
2o2b2o2b2o2b2o2b2o2b2o2b2o2b2o2b2o2b2o2b2o2b2o2b2o2b2o2b2o2b2o2b2o2b2o
2b2o2b2o2b2o2b2o2b2o2b2o2b2o2b2o2b2o2b2o2b2o2b2o2b2o2b2o2b2o2b2o2b2o2b
2o2b2o2b2o2b2o2b2o2b2o2b2o2b2o2b2o2b2o593b3o21b3o1503b3o21b3o846b3o21b
3o930b3o21b3o546b3o21b3o$3537bo2bo19bo2bo846bo2bo19bo2bo930bo2bo19bo2b
o546bo2bo19bo2bo$1965b3o106b3o1440bobo17bo25bo17bobo806bobo17bo25bo17b
obo890bobo17bo25bo17bobo506bobo17bo25bo17bobo$2o2b2o2b2o2b2o2b2o2b2o2b
2o2b2o2b2o2b2o2b2o2b2o2b2o2b2o2b2o2b2o2b2o2b2o2b2o2b2o2b2o2b2o2b2o2b2o
2b2o2b2o2b2o2b2o2b2o2b2o2b2o2b2o2b2o350b2o2b2o2b2o2b2o2b2o2b2o2b2o2b2o
2b2o2b2o2b2o2b2o2b2o2b2o2b2o2b2o2b2o2b2o2b2o2b2o2b2o2b2o2b2o2b2o2b2o2b
2o2b2o2b2o2b2o2b2o2b2o2b2o146b2o2b2o2b2o2b2o2b2o2b2o2b2o2b2o2b2o2b2o2b
2o2b2o2b2o2b2o2b2o2b2o2b2o2b2o2b2o2b2o2b2o2b2o2b2o2b2o2b2o2b2o2b2o2b2o
2b2o2b2o2b2o2b2o2b2o10b2o2b2o2b2o2b2o2b2o2b2o2b2o2b2o2b2o2b2o2b2o2b2o
2b2o2b2o2b2o2b2o2b2o2b2o2b2o2b2o2b2o2b2o2b2o2b2o2b2o2b2o2b2o2b2o2b2o2b
2o2b2o2b2o2b2o2b2o2b2o2b2o2b2o2b2o2b2o2b2o2b2o2b2o2b2o2b2o2b2o2b2o2b2o
2b2o2b2o2b2o2b2o2b2o2b2o2b2o2b2o2b2o2b2o2b2o2b2o2b2o2b2o2b2o2b2o2b2o2b
2o2b2o2b2o2b2o2b2o2b2o2b2o2b2o2b2o2b2o2b2o2b2o2b2o2b2o2b2o2b2o2b2o2b2o
2b2o2b2o2b2o2b2o2b2o2b2o2b2o2b2o2b2o2b2o2b2o2b2o2b2o2b2o10b2o2b2o2b2o
2b2o2b2o2b2o2b2o2b2o2b2o2b2o2b2o2b2o2b2o2b2o2b2o2b2o2b2o2b2o2b2o2b2o2b
2o2b2o2b2o2b2o2b2o2b2o2b2o2b2o2b2o2b2o2b2o2b2o2b2o550bo3bo104bo3bo
1442bo16bo25bo16bo812bo16bo25bo16bo896bo16bo25bo16bo512bo16bo25bo16bo$
2o2b2o2b2o2b2o2b2o2b2o2b2o2b2o2b2o2b2o2b2o2b2o2b2o2b2o2b2o2b2o2b2o2b2o
2b2o2b2o2b2o2b2o2b2o2b2o2b2o2b2o2b2o2b2o2b2o2b2o2b2o2b2o2b2o350b2o2b2o
2b2o2b2o2b2o2b2o2b2o2b2o2b2o2b2o2b2o2b2o2b2o2b2o2b2o2b2o2b2o2b2o2b2o2b
2o2b2o2b2o2b2o2b2o2b2o2b2o2b2o2b2o2b2o2b2o2b2o2b2o146b2o2b2o2b2o2b2o2b
2o2b2o2b2o2b2o2b2o2b2o2b2o2b2o2b2o2b2o2b2o2b2o2b2o2b2o2b2o2b2o2b2o2b2o
2b2o2b2o2b2o2b2o2b2o2b2o2b2o2b2o2b2o2b2o2b2o10b2o2b2o2b2o2b2o2b2o2b2o
2b2o2b2o2b2o2b2o2b2o2b2o2b2o2b2o2b2o2b2o2b2o2b2o2b2o2b2o2b2o2b2o2b2o2b
2o2b2o2b2o2b2o2b2o2b2o2b2o2b2o2b2o2b2o2b2o2b2o2b2o2b2o2b2o2b2o2b2o2b2o
2b2o2b2o2b2o2b2o2b2o2b2o2b2o2b2o2b2o2b2o2b2o2b2o2b2o2b2o2b2o2b2o2b2o2b
2o2b2o2b2o2b2o2b2o2b2o2b2o2b2o2b2o2b2o2b2o2b2o2b2o2b2o2b2o2b2o2b2o2b2o
2b2o2b2o2b2o2b2o2b2o2b2o2b2o2b2o2b2o2b2o2b2o2b2o2b2o2b2o2b2o2b2o2b2o2b
2o2b2o2b2o10b2o2b2o2b2o2b2o2b2o2b2o2b2o2b2o2b2o2b2o2b2o2b2o2b2o2b2o2b
2o2b2o2b2o2b2o2b2o2b2o2b2o2b2o2b2o2b2o2b2o2b2o2b2o2b2o2b2o2b2o2b2o2b2o
2b2o535b3o11bo5bo102bo5bo11b3o1427bo17bobo19bobo17bo812bo17bobo19bobo
17bo896bo17bobo19bobo17bo512bo17bobo19bobo17bo$1949bo2bo10b2obob2o102b
2obob2o10bo2bo1424bo2bo59bo2bo806bo2bo59bo2bo890bo2bo59bo2bo506bo2bo
59bo2bo$1949bo142bo1425b3o59b3o808b3o59b3o892b3o59b3o508b3o59b3o$2o2b
2o2b2o2b2o2b2o2b2o2b2o2b2o2b2o2b2o2b2o2b2o2b2o2b2o2b2o2b2o2b2o2b2o2b2o
2b2o2b2o2b2o2b2o2b2o2b2o2b2o2b2o2b2o2b2o2b2o2b2o2b2o2b2o350b2o2b2o2b2o
2b2o2b2o2b2o2b2o2b2o2b2o2b2o2b2o2b2o2b2o2b2o2b2o2b2o2b2o2b2o2b2o2b2o2b
2o2b2o2b2o2b2o2b2o2b2o2b2o2b2o2b2o2b2o2b2o2b2o146b2o2b2o2b2o2b2o2b2o2b
2o2b2o2b2o2b2o2b2o2b2o2b2o2b2o2b2o2b2o2b2o2b2o2b2o2b2o2b2o2b2o2b2o2b2o
2b2o2b2o2b2o2b2o2b2o2b2o2b2o2b2o2b2o18b2o2b2o2b2o2b2o2b2o2b2o2b2o2b2o
2b2o2b2o2b2o2b2o2b2o2b2o2b2o2b2o2b2o2b2o2b2o2b2o2b2o2b2o2b2o2b2o2b2o2b
2o2b2o2b2o2b2o2b2o2b2o2b2o2b2o2b2o2b2o2b2o2b2o2b2o2b2o2b2o2b2o2b2o2b2o
2b2o2b2o2b2o2b2o2b2o2b2o2b2o2b2o2b2o2b2o2b2o2b2o2b2o2b2o2b2o2b2o2b2o2b
2o2b2o2b2o2b2o2b2o2b2o2b2o2b2o2b2o2b2o2b2o2b2o2b2o2b2o2b2o2b2o2b2o2b2o
2b2o2b2o2b2o2b2o2b2o2b2o2b2o2b2o2b2o2b2o2b2o2b2o2b2o2b2o2b2o2b2o18b2o
2b2o2b2o2b2o2b2o2b2o2b2o2b2o2b2o2b2o2b2o2b2o2b2o2b2o2b2o2b2o2b2o2b2o2b
2o2b2o2b2o2b2o2b2o2b2o2b2o2b2o2b2o2b2o2b2o2b2o2b2o2b2o535bo142bo1387bo
bo136bobo110bo2bo4bo2bo608bobo136bobo816bobo136bobo110bo2bo4bo2bo308bo
bo136bobo1068bo2bo4bo2bo$2o2b2o2b2o2b2o2b2o2b2o2b2o2b2o2b2o2b2o2b2o2b
2o2b2o2b2o2b2o2b2o2b2o2b2o2b2o2b2o2b2o2b2o2b2o2b2o2b2o2b2o2b2o2b2o2b2o
2b2o2b2o2b2o2b2o350b2o2b2o2b2o2b2o2b2o2b2o2b2o2b2o2b2o2b2o2b2o2b2o2b2o
2b2o2b2o2b2o2b2o2b2o2b2o2b2o2b2o2b2o2b2o2b2o2b2o2b2o2b2o2b2o2b2o2b2o2b
2o2b2o146b2o2b2o2b2o2b2o2b2o2b2o2b2o2b2o2b2o2b2o2b2o2b2o2b2o2b2o2b2o2b
2o2b2o2b2o2b2o2b2o2b2o2b2o2b2o2b2o2b2o2b2o2b2o2b2o2b2o2b2o2b2o2b2o18b
2o2b2o2b2o2b2o2b2o2b2o2b2o2b2o2b2o2b2o2b2o2b2o2b2o2b2o2b2o2b2o2b2o2b2o
2b2o2b2o2b2o2b2o2b2o2b2o2b2o2b2o2b2o2b2o2b2o2b2o2b2o2b2o2b2o2b2o2b2o2b
2o2b2o2b2o2b2o2b2o2b2o2b2o2b2o2b2o2b2o2b2o2b2o2b2o2b2o2b2o2b2o2b2o2b2o
2b2o2b2o2b2o2b2o2b2o2b2o2b2o2b2o2b2o2b2o2b2o2b2o2b2o2b2o2b2o2b2o2b2o2b
2o2b2o2b2o2b2o2b2o2b2o2b2o2b2o2b2o2b2o2b2o2b2o2b2o2b2o2b2o2b2o2b2o2b2o
2b2o2b2o2b2o2b2o2b2o2b2o18b2o2b2o2b2o2b2o2b2o2b2o2b2o2b2o2b2o2b2o2b2o
2b2o2b2o2b2o2b2o2b2o2b2o2b2o2b2o2b2o2b2o2b2o2b2o2b2o2b2o2b2o2b2o2b2o2b
2o2b2o2b2o2b2o536bobo13bo108bo13bobo1387bo142bo107b3o2b6o2b3o605bo142b
o814bo142bo107b3o2b6o2b3o305bo142bo1065b3o2b6o2b3o$1942b2o21bobo20b3o
59b3o21bobo21b2o1379bo142bo109bo2bo4bo2bo607bo142bo814bo142bo109bo2bo
4bo2bo307bo142bo1067bo2bo4bo2bo$1942b2o21bobo19bo2bo59bo2bo20bobo21b2o
1379bo2bo15b3o100b3o15bo2bo728bo2bo15b3o100b3o15bo2bo814bo2bo15b3o100b
3o15bo2bo428bo2bo15b3o100b3o15bo2bo$2o2b2o2b2o2b2o2b2o2b2o2b2o2b2o2b2o
2b2o2b2o2b2o2b2o2b2o2b2o2b2o2b2o2b2o2b2o2b2o2b2o2b2o2b2o2b2o2b2o2b2o2b
2o2b2o2b2o2b2o2b2o2b2o2b2o350b2o2b2o2b2o2b2o2b2o2b2o2b2o2b2o2b2o2b2o2b
2o2b2o2b2o2b2o2b2o2b2o2b2o2b2o2b2o2b2o2b2o2b2o2b2o2b2o2b2o2b2o2b2o2b2o
2b2o2b2o2b2o2b2o146b2o2b2o2b2o2b2o2b2o2b2o2b2o2b2o2b2o2b2o2b2o2b2o2b2o
2b2o2b2o2b2o2b2o2b2o2b2o2b2o2b2o2b2o2b2o2b2o2b2o2b2o2b2o2b2o2b2o2b2o2b
2o2b2o22b2o2b2o2b2o2b2o2b2o2b2o2b2o2b2o2b2o2b2o2b2o2b2o2b2o2b2o2b2o2b
2o2b2o2b2o2b2o2b2o2b2o2b2o2b2o2b2o2b2o2b2o2b2o2b2o2b2o2b2o2b2o2b2o2b2o
2b2o2b2o2b2o2b2o2b2o2b2o2b2o2b2o2b2o2b2o2b2o2b2o2b2o2b2o2b2o2b2o2b2o2b
2o2b2o2b2o2b2o2b2o2b2o2b2o2b2o2b2o2b2o2b2o2b2o2b2o2b2o2b2o2b2o2b2o2b2o
2b2o2b2o2b2o2b2o2b2o2b2o2b2o2b2o2b2o2b2o2b2o2b2o2b2o2b2o2b2o2b2o2b2o2b
2o2b2o2b2o2b2o2b2o2b2o2b2o22b2o2b2o2b2o2b2o2b2o2b2o2b2o2b2o2b2o2b2o2b
2o2b2o2b2o2b2o2b2o2b2o2b2o2b2o2b2o2b2o2b2o2b2o2b2o2b2o2b2o2b2o2b2o2b2o
2b2o2b2o2b2o2b2o552b2o22bo17bobo19bobo17bo23b2o1403b3o16bo2bo98bo2bo
16b3o728b3o16bo2bo98bo2bo16b3o814b3o16bo2bo98bo2bo16b3o428b3o16bo2bo
98bo2bo16b3o$2o2b2o2b2o2b2o2b2o2b2o2b2o2b2o2b2o2b2o2b2o2b2o2b2o2b2o2b
2o2b2o2b2o2b2o2b2o2b2o2b2o2b2o2b2o2b2o2b2o2b2o2b2o2b2o2b2o2b2o2b2o2b2o
2b2o350b2o2b2o2b2o2b2o2b2o2b2o2b2o2b2o2b2o2b2o2b2o2b2o2b2o2b2o2b2o2b2o
2b2o2b2o2b2o2b2o2b2o2b2o2b2o2b2o2b2o2b2o2b2o2b2o2b2o2b2o2b2o2b2o146b2o
2b2o2b2o2b2o2b2o2b2o2b2o2b2o2b2o2b2o2b2o2b2o2b2o2b2o2b2o2b2o2b2o2b2o2b
2o2b2o2b2o2b2o2b2o2b2o2b2o2b2o2b2o2b2o2b2o2b2o2b2o2b2o22b2o2b2o2b2o2b
2o2b2o2b2o2b2o2b2o2b2o2b2o2b2o2b2o2b2o2b2o2b2o2b2o2b2o2b2o2b2o2b2o2b2o
2b2o2b2o2b2o2b2o2b2o2b2o2b2o2b2o2b2o2b2o2b2o2b2o2b2o2b2o2b2o2b2o2b2o2b
2o2b2o2b2o2b2o2b2o2b2o2b2o2b2o2b2o2b2o2b2o2b2o2b2o2b2o2b2o2b2o2b2o2b2o
2b2o2b2o2b2o2b2o2b2o2b2o2b2o2b2o2b2o2b2o2b2o2b2o2b2o2b2o2b2o2b2o2b2o2b
2o2b2o2b2o2b2o2b2o2b2o2b2o2b2o2b2o2b2o2b2o2b2o2b2o2b2o2b2o2b2o2b2o2b2o
2b2o22b2o2b2o2b2o2b2o2b2o2b2o2b2o2b2o2b2o2b2o2b2o2b2o2b2o2b2o2b2o2b2o
2b2o2b2o2b2o2b2o2b2o2b2o2b2o2b2o2b2o2b2o2b2o2b2o2b2o2b2o2b2o2b2o554bo
21bo16bo25bo16bo22bo1424bo104bo766bo104bo852bo104bo466bo104bo$1967b3o
17bobo17bo25bo17bobo18b3o1423bo104bo766bo104bo852bo104bo466bo104bo$
1966bo3bo36bo2bo19bo2bo37bo3bo1423bobo98bobo768bobo98bobo854bobo98bobo
468bobo98bobo$2o2b2o2b2o2b2o2b2o2b2o2b2o2b2o2b2o2b2o2b2o2b2o2b2o2b2o2b
2o2b2o2b2o2b2o2b2o2b2o2b2o2b2o2b2o2b2o2b2o2b2o2b2o2b2o2b2o2b2o2b2o2b2o
2b2o350b2o2b2o2b2o2b2o2b2o2b2o2b2o2b2o2b2o2b2o2b2o2b2o2b2o2b2o2b2o2b2o
2b2o2b2o2b2o2b2o2b2o2b2o2b2o2b2o2b2o2b2o2b2o2b2o2b2o2b2o2b2o2b2o146b2o
2b2o2b2o2b2o2b2o2b2o2b2o2b2o2b2o2b2o2b2o2b2o2b2o2b2o2b2o2b2o2b2o2b2o2b
2o2b2o2b2o2b2o2b2o2b2o2b2o2b2o2b2o2b2o2b2o2b2o2b2o2b2o26b2o2b2o2b2o2b
2o2b2o2b2o2b2o2b2o2b2o2b2o2b2o2b2o2b2o2b2o2b2o2b2o2b2o2b2o2b2o2b2o2b2o
2b2o2b2o2b2o2b2o2b2o2b2o2b2o2b2o2b2o2b2o2b2o2b2o2b2o2b2o2b2o2b2o2b2o2b
2o2b2o2b2o2b2o2b2o2b2o2b2o2b2o2b2o2b2o2b2o2b2o2b2o2b2o2b2o2b2o2b2o2b2o
2b2o2b2o2b2o2b2o2b2o2b2o2b2o2b2o2b2o2b2o2b2o2b2o2b2o2b2o2b2o2b2o2b2o2b
2o2b2o2b2o2b2o2b2o2b2o2b2o2b2o2b2o2b2o2b2o2b2o2b2o2b2o2b2o2b2o2b2o26b
2o2b2o2b2o2b2o2b2o2b2o2b2o2b2o2b2o2b2o2b2o2b2o2b2o2b2o2b2o2b2o2b2o2b2o
2b2o2b2o2b2o2b2o2b2o2b2o2b2o2b2o2b2o2b2o2b2o2b2o2b2o2b2o551bob3obo35b
3o21b3o36bob3obo64b2o1394b3o21b3o160b3o683b3o21b3o930b3o21b3o160b3o
383b3o21b3o1117b3o$2o2b2o2b2o2b2o2b2o2b2o2b2o2b2o2b2o2b2o2b2o2b2o2b2o
2b2o2b2o2b2o2b2o2b2o2b2o2b2o2b2o2b2o2b2o2b2o2b2o2b2o2b2o2b2o2b2o2b2o2b
2o2b2o2b2o350b2o2b2o2b2o2b2o2b2o2b2o2b2o2b2o2b2o2b2o2b2o2b2o2b2o2b2o2b
2o2b2o2b2o2b2o2b2o2b2o2b2o2b2o2b2o2b2o2b2o2b2o2b2o2b2o2b2o2b2o2b2o2b2o
146b2o2b2o2b2o2b2o2b2o2b2o2b2o2b2o2b2o2b2o2b2o2b2o2b2o2b2o2b2o2b2o2b2o
2b2o2b2o2b2o2b2o2b2o2b2o2b2o2b2o2b2o2b2o2b2o2b2o2b2o2b2o2b2o26b2o2b2o
2b2o2b2o2b2o2b2o2b2o2b2o2b2o2b2o2b2o2b2o2b2o2b2o2b2o2b2o2b2o2b2o2b2o2b
2o2b2o2b2o2b2o2b2o2b2o2b2o2b2o2b2o2b2o2b2o2b2o2b2o2b2o2b2o2b2o2b2o2b2o
2b2o2b2o2b2o2b2o2b2o2b2o2b2o2b2o2b2o2b2o2b2o2b2o2b2o2b2o2b2o2b2o2b2o2b
2o2b2o2b2o2b2o2b2o2b2o2b2o2b2o2b2o2b2o2b2o2b2o2b2o2b2o2b2o2b2o2b2o2b2o
2b2o2b2o2b2o2b2o2b2o2b2o2b2o2b2o2b2o2b2o2b2o2b2o2b2o2b2o2b2o2b2o2b2o2b
2o26b2o2b2o2b2o2b2o2b2o2b2o2b2o2b2o2b2o2b2o2b2o2b2o2b2o2b2o2b2o2b2o2b
2o2b2o2b2o2b2o2b2o2b2o2b2o2b2o2b2o2b2o2b2o2b2o2b2o2b2o2b2o2b2o547bo4b
5o100b5o4bo60bo1394bo2bo21bo2bo158bo3bo681bo2bo21bo2bo928bo2bo21bo2bo
158bo3bo381bo2bo21bo2bo1115bo3bo$1899b2o58b2o120b2o56bobo1377bobo17bo
21bo17bobo140bo5bo663bobo17bo21bo17bobo894bobo17bo21bo17bobo140bo5bo
363bobo17bo21bo17bobo1097bo5bo$1900bo59b2o118b2o57b2o4bo1372bo20bo21bo
20bo808bo20bo21bo20bo892bo20bo21bo20bo508bo20bo21bo20bo$2o2b2o2b2o2b2o
2b2o2b2o2b2o2b2o2b2o2b2o2b2o2b2o2b2o2b2o2b2o2b2o2b2o2b2o2b2o2b2o2b2o2b
2o2b2o2b2o2b2o2b2o2b2o2b2o2b2o2b2o2b2o2b2o2b2o350b2o2b2o2b2o2b2o2b2o2b
2o2b2o2b2o2b2o2b2o2b2o2b2o2b2o2b2o2b2o2b2o2b2o2b2o2b2o2b2o2b2o2b2o2b2o
2b2o2b2o2b2o2b2o2b2o2b2o2b2o2b2o2b2o146b2o2b2o2b2o2b2o2b2o2b2o2b2o2b2o
2b2o2b2o2b2o2b2o2b2o2b2o2b2o2b2o2b2o2b2o2b2o2b2o2b2o2b2o2b2o2b2o2b2o2b
2o2b2o2b2o2b2o2b2o2b2o2b2o30b2o2b2o2b2o2b2o2b2o2b2o2b2o2b2o2b2o2b2o2b
2o2b2o2b2o2b2o2b2o2b2o2b2o2b2o2b2o2b2o2b2o2b2o2b2o2b2o2b2o2b2o2b2o2b2o
2b2o2b2o2b2o2b2o2b2o2b2o2b2o2b2o2b2o2b2o2b2o2b2o2b2o2b2o2b2o2b2o2b2o2b
2o2b2o2b2o2b2o2b2o2b2o2b2o2b2o2b2o2b2o2b2o2b2o2b2o2b2o2b2o2b2o2b2o2b2o
2b2o2b2o2b2o2b2o2b2o2b2o2b2o2b2o2b2o2b2o2b2o2b2o2b2o2b2o2b2o2b2o2b2o2b
2o2b2o2b2o2b2o2b2o2b2o2b2o2b2o30b2o2b2o2b2o2b2o2b2o2b2o2b2o2b2o2b2o2b
2o2b2o2b2o2b2o2b2o2b2o2b2o2b2o2b2o2b2o2b2o2b2o2b2o2b2o2b2o2b2o2b2o2b2o
2b2o2b2o2b2o2b2o2b2o486bobo38b3o5b3o138b3o5b3o42b3o1372bo17bobo23bobo
17bo138bo7bo661bo17bobo23bobo17bo892bo17bobo23bobo17bo138bo7bo361bo17b
obo23bobo17bo1095bo7bo$2o2b2o2b2o2b2o2b2o2b2o2b2o2b2o2b2o2b2o2b2o2b2o
2b2o2b2o2b2o2b2o2b2o2b2o2b2o2b2o2b2o2b2o2b2o2b2o2b2o2b2o2b2o2b2o2b2o2b
2o2b2o2b2o2b2o350b2o2b2o2b2o2b2o2b2o2b2o2b2o2b2o2b2o2b2o2b2o2b2o2b2o2b
2o2b2o2b2o2b2o2b2o2b2o2b2o2b2o2b2o2b2o2b2o2b2o2b2o2b2o2b2o2b2o2b2o2b2o
2b2o146b2o2b2o2b2o2b2o2b2o2b2o2b2o2b2o2b2o2b2o2b2o2b2o2b2o2b2o2b2o2b2o
2b2o2b2o2b2o2b2o2b2o2b2o2b2o2b2o2b2o2b2o2b2o2b2o2b2o2b2o2b2o2b2o30b2o
2b2o2b2o2b2o2b2o2b2o2b2o2b2o2b2o2b2o2b2o2b2o2b2o2b2o2b2o2b2o2b2o2b2o2b
2o2b2o2b2o2b2o2b2o2b2o2b2o2b2o2b2o2b2o2b2o2b2o2b2o2b2o2b2o2b2o2b2o2b2o
2b2o2b2o2b2o2b2o2b2o2b2o2b2o2b2o2b2o2b2o2b2o2b2o2b2o2b2o2b2o2b2o2b2o2b
2o2b2o2b2o2b2o2b2o2b2o2b2o2b2o2b2o2b2o2b2o2b2o2b2o2b2o2b2o2b2o2b2o2b2o
2b2o2b2o2b2o2b2o2b2o2b2o2b2o2b2o2b2o2b2o2b2o2b2o2b2o2b2o2b2o2b2o2b2o
30b2o2b2o2b2o2b2o2b2o2b2o2b2o2b2o2b2o2b2o2b2o2b2o2b2o2b2o2b2o2b2o2b2o
2b2o2b2o2b2o2b2o2b2o2b2o2b2o2b2o2b2o2b2o2b2o2b2o2b2o2b2o2b2o482bo4b2o
37bo3bo3bo2bo138bo2bo3bo3bo40bo1375bo2bo57bo2bo138bo7bo661bo2bo57bo2bo
892bo2bo57bo2bo138bo7bo361bo2bo57bo2bo1095bo7bo$1896b3o40bo5bo5bo138bo
5bo5bo39b2o1374b3o59b3o808b3o59b3o892b3o59b3o508b3o59b3o$1899bo4b3o32b
o5bo2bo2bo138bo2bo2bo5bo37b3o1335bobo140bobo98bo5bo621bobo140bobo812bo
bo140bobo98bo5bo321bobo140bobo1056bo5bo$2o2b2o2b2o2b2o2b2o2b2o2b2o2b2o
2b2o2b2o2b2o2b2o2b2o2b2o2b2o2b2o2b2o2b2o2b2o2b2o2b2o2b2o2b2o2b2o2b2o2b
2o2b2o2b2o2b2o2b2o2b2o2b2o2b2o350b2o2b2o2b2o2b2o2b2o2b2o2b2o2b2o2b2o2b
2o2b2o2b2o2b2o2b2o2b2o2b2o2b2o2b2o2b2o2b2o2b2o2b2o2b2o2b2o2b2o2b2o2b2o
2b2o2b2o2b2o2b2o2b2o146b2o2b2o2b2o2b2o2b2o2b2o2b2o2b2o2b2o2b2o2b2o2b2o
2b2o2b2o2b2o2b2o2b2o2b2o2b2o2b2o2b2o2b2o2b2o2b2o2b2o2b2o2b2o2b2o2b2o2b
2o2b2o2b2o34b2o2b2o2b2o2b2o2b2o2b2o2b2o2b2o2b2o2b2o2b2o2b2o2b2o2b2o2b
2o2b2o2b2o2b2o2b2o2b2o2b2o2b2o2b2o2b2o2b2o2b2o2b2o2b2o2b2o2b2o2b2o2b2o
2b2o2b2o2b2o2b2o2b2o2b2o2b2o2b2o2b2o2b2o2b2o2b2o2b2o2b2o2b2o2b2o2b2o2b
2o2b2o2b2o2b2o2b2o2b2o2b2o2b2o2b2o2b2o2b2o2b2o2b2o2b2o2b2o2b2o2b2o2b2o
2b2o2b2o2b2o2b2o2b2o2b2o2b2o2b2o2b2o2b2o2b2o2b2o2b2o2b2o2b2o2b2o2b2o2b
2o2b2o34b2o2b2o2b2o2b2o2b2o2b2o2b2o2b2o2b2o2b2o2b2o2b2o2b2o2b2o2b2o2b
2o2b2o2b2o2b2o2b2o2b2o2b2o2b2o2b2o2b2o2b2o2b2o2b2o2b2o2b2o2b2o2b2o484b
2o4bo45bo140bo47bobo1339bo138bo102bo3bo625bo138bo818bo138bo102bo3bo
325bo138bo1060bo3bo$2o2b2o2b2o2b2o2b2o2b2o2b2o2b2o2b2o2b2o2b2o2b2o2b2o
2b2o2b2o2b2o2b2o2b2o2b2o2b2o2b2o2b2o2b2o2b2o2b2o2b2o2b2o2b2o2b2o2b2o2b
2o2b2o2b2o350b2o2b2o2b2o2b2o2b2o2b2o2b2o2b2o2b2o2b2o2b2o2b2o2b2o2b2o2b
2o2b2o2b2o2b2o2b2o2b2o2b2o2b2o2b2o2b2o2b2o2b2o2b2o2b2o2b2o2b2o2b2o2b2o
146b2o2b2o2b2o2b2o2b2o2b2o2b2o2b2o2b2o2b2o2b2o2b2o2b2o2b2o2b2o2b2o2b2o
2b2o2b2o2b2o2b2o2b2o2b2o2b2o2b2o2b2o2b2o2b2o2b2o2b2o2b2o2b2o34b2o2b2o
2b2o2b2o2b2o2b2o2b2o2b2o2b2o2b2o2b2o2b2o2b2o2b2o2b2o2b2o2b2o2b2o2b2o2b
2o2b2o2b2o2b2o2b2o2b2o2b2o2b2o2b2o2b2o2b2o2b2o2b2o2b2o2b2o2b2o2b2o2b2o
2b2o2b2o2b2o2b2o2b2o2b2o2b2o2b2o2b2o2b2o2b2o2b2o2b2o2b2o2b2o2b2o2b2o2b
2o2b2o2b2o2b2o2b2o2b2o2b2o2b2o2b2o2b2o2b2o2b2o2b2o2b2o2b2o2b2o2b2o2b2o
2b2o2b2o2b2o2b2o2b2o2b2o2b2o2b2o2b2o2b2o2b2o2b2o2b2o2b2o34b2o2b2o2b2o
2b2o2b2o2b2o2b2o2b2o2b2o2b2o2b2o2b2o2b2o2b2o2b2o2b2o2b2o2b2o2b2o2b2o2b
2o2b2o2b2o2b2o2b2o2b2o2b2o2b2o2b2o2b2o2b2o2b2o491bo39bo42b3o59b3o43bo
34b2o5bo3bo392bo114bo830bo138bo103b3o626bo138bo818bo138bo103b3o326bo
138bo830bo114bo115b3o$1944b2o42bo2bo57bo2bo43b2o34b2o4b5o392b2o3b3o
100b3o3b2o827bo2bo16b3o100b3o16bo2bo726bo2bo16b3o100b3o16bo2bo812bo2bo
16b3o100b3o16bo2bo426bo2bo16b3o100b3o16bo2bo827b2o3b3o100b3o3b2o$1944b
2o42bo17bobo23bobo17bo43b2o33bo5b2o3b2o390bobo2bo2bo100bo2bo2bobo827b
3o15bo2bo100bo2bo15b3o728b3o15bo2bo100bo2bo15b3o814b3o15bo2bo100bo2bo
15b3o428b3o15bo2bo100bo2bo15b3o827bobo2bo2bo100bo2bo2bobo$2o2b2o2b2o2b
2o2b2o2b2o2b2o2b2o2b2o2b2o2b2o2b2o2b2o2b2o2b2o2b2o2b2o2b2o2b2o2b2o2b2o
2b2o2b2o2b2o2b2o2b2o2b2o2b2o2b2o2b2o2b2o2b2o2b2o350b2o2b2o2b2o2b2o2b2o
2b2o2b2o2b2o2b2o2b2o2b2o2b2o2b2o2b2o2b2o2b2o2b2o2b2o2b2o2b2o2b2o2b2o2b
2o2b2o2b2o2b2o2b2o2b2o2b2o2b2o2b2o2b2o146b2o2b2o2b2o2b2o2b2o2b2o2b2o2b
2o2b2o2b2o2b2o2b2o2b2o2b2o2b2o2b2o2b2o2b2o2b2o2b2o2b2o2b2o2b2o2b2o2b2o
2b2o2b2o2b2o2b2o2b2o2b2o2b2o38b2o2b2o2b2o2b2o2b2o2b2o2b2o2b2o2b2o2b2o
2b2o2b2o2b2o2b2o2b2o2b2o2b2o2b2o2b2o2b2o2b2o2b2o2b2o2b2o2b2o2b2o2b2o2b
2o2b2o2b2o2b2o2b2o2b2o2b2o2b2o2b2o2b2o2b2o2b2o2b2o2b2o2b2o2b2o2b2o2b2o
2b2o2b2o2b2o2b2o2b2o2b2o2b2o2b2o2b2o2b2o2b2o2b2o2b2o2b2o2b2o2b2o2b2o2b
2o2b2o2b2o2b2o2b2o2b2o2b2o2b2o2b2o2b2o2b2o2b2o2b2o2b2o2b2o2b2o2b2o2b2o
2b2o2b2o2b2o2b2o38b2o2b2o2b2o2b2o2b2o2b2o2b2o2b2o2b2o2b2o2b2o2b2o2b2o
2b2o2b2o2b2o2b2o2b2o2b2o2b2o2b2o2b2o2b2o2b2o2b2o2b2o2b2o2b2o2b2o2b2o2b
2o2b2o528bo2b2o41bo20bo21bo20bo42b2o2bo38b5o399bo100bo856bo100bo770bo
100bo856bo100bo470bo100bo856bo100bo$2o2b2o2b2o2b2o2b2o2b2o2b2o2b2o2b2o
2b2o2b2o2b2o2b2o2b2o2b2o2b2o2b2o2b2o2b2o2b2o2b2o2b2o2b2o2b2o2b2o2b2o2b
2o2b2o2b2o2b2o2b2o2b2o2b2o350b2o2b2o2b2o2b2o2b2o2b2o2b2o2b2o2b2o2b2o2b
2o2b2o2b2o2b2o2b2o2b2o2b2o2b2o2b2o2b2o2b2o2b2o2b2o2b2o2b2o2b2o2b2o2b2o
2b2o2b2o2b2o2b2o146b2o2b2o2b2o2b2o2b2o2b2o2b2o2b2o2b2o2b2o2b2o2b2o2b2o
2b2o2b2o2b2o2b2o2b2o2b2o2b2o2b2o2b2o2b2o2b2o2b2o2b2o2b2o2b2o2b2o2b2o2b
2o2b2o38b2o2b2o2b2o2b2o2b2o2b2o2b2o2b2o2b2o2b2o2b2o2b2o2b2o2b2o2b2o2b
2o2b2o2b2o2b2o2b2o2b2o2b2o2b2o2b2o2b2o2b2o2b2o2b2o2b2o2b2o2b2o2b2o2b2o
2b2o2b2o2b2o2b2o2b2o2b2o2b2o2b2o2b2o2b2o2b2o2b2o2b2o2b2o2b2o2b2o2b2o2b
2o2b2o2b2o2b2o2b2o2b2o2b2o2b2o2b2o2b2o2b2o2b2o2b2o2b2o2b2o2b2o2b2o2b2o
2b2o2b2o2b2o2b2o2b2o2b2o2b2o2b2o2b2o2b2o2b2o2b2o2b2o2b2o2b2o2b2o38b2o
2b2o2b2o2b2o2b2o2b2o2b2o2b2o2b2o2b2o2b2o2b2o2b2o2b2o2b2o2b2o2b2o2b2o2b
2o2b2o2b2o2b2o2b2o2b2o2b2o2b2o2b2o2b2o2b2o2b2o2b2o2b2o529bobo43bobo17b
o21bo17bobo44bobo26b2o12b3o400bo100bo856bo100bo770bo100bo856bo100bo
470bo100bo856bo100bo$1901bo7b2o32b2o61bo2bo21bo2bo62b2o26b2o13bo398bob
o102bobo850bobo102bobo764bobo102bobo850bobo102bobo464bobo102bobo850bob
o102bobo$1900b3o7b2o3b2o39b2o7bo41b3o21b3o42bo7b2o1451b3o21b3o846b3o
21b3o930b3o21b3o546b3o21b3o$2o2b2o2b2o2b2o2b2o2b2o2b2o2b2o2b2o2b2o2b2o
2b2o2b2o2b2o2b2o2b2o2b2o2b2o2b2o2b2o2b2o2b2o2b2o2b2o2b2o2b2o2b2o2b2o2b
2o2b2o2b2o2b2o2b2o350b2o2b2o2b2o2b2o2b2o2b2o2b2o2b2o2b2o2b2o2b2o2b2o2b
2o2b2o2b2o2b2o2b2o2b2o2b2o2b2o2b2o2b2o2b2o2b2o2b2o2b2o2b2o2b2o2b2o2b2o
2b2o2b2o146b2o2b2o2b2o2b2o2b2o2b2o2b2o2b2o2b2o2b2o2b2o2b2o2b2o2b2o2b2o
2b2o2b2o2b2o2b2o2b2o2b2o2b2o2b2o2b2o2b2o2b2o2b2o2b2o2b2o2b2o2b2o2b2o
42b2o2b2o2b2o2b2o2b2o2b2o2b2o2b2o2b2o2b2o2b2o2b2o2b2o2b2o2b2o2b2o2b2o
2b2o2b2o2b2o2b2o2b2o2b2o2b2o2b2o2b2o2b2o2b2o2b2o2b2o2b2o2b2o2b2o2b2o2b
2o2b2o2b2o2b2o2b2o2b2o2b2o2b2o2b2o2b2o2b2o2b2o2b2o2b2o2b2o2b2o2b2o2b2o
2b2o2b2o2b2o2b2o2b2o2b2o2b2o2b2o2b2o2b2o2b2o2b2o2b2o2b2o2b2o2b2o2b2o2b
2o2b2o2b2o2b2o2b2o2b2o2b2o2b2o2b2o2b2o2b2o2b2o2b2o42b2o2b2o2b2o2b2o2b
2o2b2o2b2o2b2o2b2o2b2o2b2o2b2o2b2o2b2o2b2o2b2o2b2o2b2o2b2o2b2o2b2o2b2o
2b2o2b2o2b2o2b2o2b2o2b2o2b2o2b2o2b2o2b2o485b5o5bo5b2o38b2o7b3o108b3o7b
2o48b2o1400bo2bo19bo2bo846bo2bo19bo2bo930bo2bo19bo2bo546bo2bo19bo2bo$
2o2b2o2b2o2b2o2b2o2b2o2b2o2b2o2b2o2b2o2b2o2b2o2b2o2b2o2b2o2b2o2b2o2b2o
2b2o2b2o2b2o2b2o2b2o2b2o2b2o2b2o2b2o2b2o2b2o2b2o2b2o2b2o2b2o350b2o2b2o
2b2o2b2o2b2o2b2o2b2o2b2o2b2o2b2o2b2o2b2o2b2o2b2o2b2o2b2o2b2o2b2o2b2o2b
2o2b2o2b2o2b2o2b2o2b2o2b2o2b2o2b2o2b2o2b2o2b2o2b2o146b2o2b2o2b2o2b2o2b
2o2b2o2b2o2b2o2b2o2b2o2b2o2b2o2b2o2b2o2b2o2b2o2b2o2b2o2b2o2b2o2b2o2b2o
2b2o2b2o2b2o2b2o2b2o2b2o2b2o2b2o2b2o2b2o42b2o2b2o2b2o2b2o2b2o2b2o2b2o
2b2o2b2o2b2o2b2o2b2o2b2o2b2o2b2o2b2o2b2o2b2o2b2o2b2o2b2o2b2o2b2o2b2o2b
2o2b2o2b2o2b2o2b2o2b2o2b2o2b2o2b2o2b2o2b2o2b2o2b2o2b2o2b2o2b2o2b2o2b2o
2b2o2b2o2b2o2b2o2b2o2b2o2b2o2b2o2b2o2b2o2b2o2b2o2b2o2b2o2b2o2b2o2b2o2b
2o2b2o2b2o2b2o2b2o2b2o2b2o2b2o2b2o2b2o2b2o2b2o2b2o2b2o2b2o2b2o2b2o2b2o
2b2o2b2o2b2o2b2o2b2o42b2o2b2o2b2o2b2o2b2o2b2o2b2o2b2o2b2o2b2o2b2o2b2o
2b2o2b2o2b2o2b2o2b2o2b2o2b2o2b2o2b2o2b2o2b2o2b2o2b2o2b2o2b2o2b2o2b2o2b
2o2b2o2b2o484b2o3b2o6bo29b2o3b2o9bo5b5o106b5o5bo9b2o3b2o34bobo389b2o
128b2o858bobo17bo25bo17bobo806bobo17bo25bo17bobo890bobo17bo25bo17bobo
506bobo17bo25bo17bobo858b2o128b2o$1911b2o28b2o3b2o14b2o3b2o104b2o3b2o
14b2o3b2o34bo392b2o126b2o862bo16bo25bo16bo812bo16bo25bo16bo896bo16bo
25bo16bo512bo16bo25bo16bo862b2o126b2o$1910b2o615bo130bo861bo17bobo19bo
bo17bo812bo17bobo19bobo17bo896bo17bobo19bobo17bo512bo17bobo19bobo17bo
861bo130bo$2o2b2o2b2o2b2o2b2o2b2o2b2o2b2o2b2o2b2o2b2o2b2o2b2o2b2o2b2o
2b2o2b2o2b2o2b2o2b2o2b2o2b2o2b2o2b2o2b2o2b2o2b2o2b2o2b2o2b2o2b2o2b2o2b
2o350b2o2b2o2b2o2b2o2b2o2b2o2b2o2b2o2b2o2b2o2b2o2b2o2b2o2b2o2b2o2b2o2b
2o2b2o2b2o2b2o2b2o2b2o2b2o2b2o2b2o2b2o2b2o2b2o2b2o2b2o2b2o2b2o146b2o2b
2o2b2o2b2o2b2o2b2o2b2o2b2o2b2o2b2o2b2o2b2o2b2o2b2o2b2o2b2o2b2o2b2o2b2o
2b2o2b2o2b2o2b2o2b2o2b2o2b2o2b2o2b2o2b2o2b2o2b2o2b2o46b2o2b2o2b2o2b2o
2b2o2b2o2b2o2b2o2b2o2b2o2b2o2b2o2b2o2b2o2b2o2b2o2b2o2b2o2b2o2b2o2b2o2b
2o2b2o2b2o2b2o2b2o2b2o2b2o2b2o2b2o2b2o2b2o2b2o2b2o2b2o2b2o2b2o2b2o2b2o
2b2o2b2o2b2o2b2o2b2o2b2o2b2o2b2o2b2o2b2o2b2o2b2o2b2o2b2o2b2o2b2o2b2o2b
2o2b2o2b2o2b2o2b2o2b2o2b2o2b2o2b2o2b2o2b2o2b2o2b2o2b2o2b2o2b2o2b2o2b2o
2b2o2b2o2b2o2b2o2b2o2b2o46b2o2b2o2b2o2b2o2b2o2b2o2b2o2b2o2b2o2b2o2b2o
2b2o2b2o2b2o2b2o2b2o2b2o2b2o2b2o2b2o2b2o2b2o2b2o2b2o2b2o2b2o2b2o2b2o2b
2o2b2o2b2o2b2o489b2o7bo30b3o150b3o26b2o1355b2o33bo2bo59bo2bo34b2o734b
2o34bo2bo59bo2bo33b2o820b2o33bo2bo59bo2bo34b2o434b2o34bo2bo59bo2bo33b
2o$2o2b2o2b2o2b2o2b2o2b2o2b2o2b2o2b2o2b2o2b2o2b2o2b2o2b2o2b2o2b2o2b2o
2b2o2b2o2b2o2b2o2b2o2b2o2b2o2b2o2b2o2b2o2b2o2b2o2b2o2b2o2b2o2b2o350b2o
2b2o2b2o2b2o2b2o2b2o2b2o2b2o2b2o2b2o2b2o2b2o2b2o2b2o2b2o2b2o2b2o2b2o2b
2o2b2o2b2o2b2o2b2o2b2o2b2o2b2o2b2o2b2o2b2o2b2o2b2o2b2o146b2o2b2o2b2o2b
2o2b2o2b2o2b2o2b2o2b2o2b2o2b2o2b2o2b2o2b2o2b2o2b2o2b2o2b2o2b2o2b2o2b2o
2b2o2b2o2b2o2b2o2b2o2b2o2b2o2b2o2b2o2b2o2b2o46b2o2b2o2b2o2b2o2b2o2b2o
2b2o2b2o2b2o2b2o2b2o2b2o2b2o2b2o2b2o2b2o2b2o2b2o2b2o2b2o2b2o2b2o2b2o2b
2o2b2o2b2o2b2o2b2o2b2o2b2o2b2o2b2o2b2o2b2o2b2o2b2o2b2o2b2o2b2o2b2o2b2o
2b2o2b2o2b2o2b2o2b2o2b2o2b2o2b2o2b2o2b2o2b2o2b2o2b2o2b2o2b2o2b2o2b2o2b
2o2b2o2b2o2b2o2b2o2b2o2b2o2b2o2b2o2b2o2b2o2b2o2b2o2b2o2b2o2b2o2b2o2b2o
2b2o2b2o2b2o2b2o46b2o2b2o2b2o2b2o2b2o2b2o2b2o2b2o2b2o2b2o2b2o2b2o2b2o
2b2o2b2o2b2o2b2o2b2o2b2o2b2o2b2o2b2o2b2o2b2o2b2o2b2o2b2o2b2o2b2o2b2o2b
2o2b2o491bo37b3o16b2o114b2o16b3o25bobo1391b3o59b3o808b3o59b3o892b3o59b
3o508b3o59b3o$1902bo41bo16bo48b2o17b2o49bo16bo28bo$1902bo2bo58bo45bo
19bo46bo$2o2b2o2b2o2b2o2b2o2b2o2b2o2b2o2b2o2b2o2b2o2b2o2b2o2b2o2b2o2b
2o2b2o2b2o2b2o2b2o2b2o2b2o2b2o2b2o2b2o2b2o2b2o2b2o2b2o2b2o2b2o2b2o2b2o
350b2o2b2o2b2o2b2o2b2o2b2o2b2o2b2o2b2o2b2o2b2o2b2o2b2o2b2o2b2o2b2o2b2o
2b2o2b2o2b2o2b2o2b2o2b2o2b2o2b2o2b2o2b2o2b2o2b2o2b2o2b2o2b2o146b2o2b2o
2b2o2b2o2b2o2b2o2b2o2b2o2b2o2b2o2b2o2b2o2b2o2b2o2b2o2b2o2b2o2b2o2b2o2b
2o2b2o2b2o2b2o2b2o2b2o2b2o2b2o2b2o2b2o2b2o2b2o2b2o50b2o2b2o2b2o2b2o2b
2o2b2o2b2o2b2o2b2o2b2o2b2o2b2o2b2o2b2o2b2o2b2o2b2o2b2o2b2o2b2o2b2o2b2o
2b2o2b2o2b2o2b2o2b2o2b2o2b2o2b2o2b2o2b2o2b2o2b2o2b2o2b2o2b2o2b2o2b2o2b
2o2b2o2b2o2b2o2b2o2b2o2b2o2b2o2b2o2b2o2b2o2b2o2b2o2b2o2b2o2b2o2b2o2b2o
2b2o2b2o2b2o2b2o2b2o2b2o2b2o2b2o2b2o2b2o2b2o2b2o2b2o2b2o2b2o2b2o2b2o2b
2o2b2o2b2o2b2o50b2o2b2o2b2o2b2o2b2o2b2o2b2o2b2o2b2o2b2o2b2o2b2o2b2o2b
2o2b2o2b2o2b2o2b2o2b2o2b2o2b2o2b2o2b2o2b2o2b2o2b2o2b2o2b2o2b2o2b2o2b2o
2b2o487b2ob2o55bo2bo23b3o20b3o13b3o20b3o24bo2bo417bo21bo144bo21bo768bo
21bo144bo16b2o686bo21bo144bo21bo768bo21bo144bo16b2o386bo21bo144bo21bo
768bo21bo144bo16b2o$2o2b2o2b2o2b2o2b2o2b2o2b2o2b2o2b2o2b2o2b2o2b2o2b2o
2b2o2b2o2b2o2b2o2b2o2b2o2b2o2b2o2b2o2b2o2b2o2b2o2b2o2b2o2b2o2b2o2b2o2b
2o2b2o2b2o350b2o2b2o2b2o2b2o2b2o2b2o2b2o2b2o2b2o2b2o2b2o2b2o2b2o2b2o2b
2o2b2o2b2o2b2o2b2o2b2o2b2o2b2o2b2o2b2o2b2o2b2o2b2o2b2o2b2o2b2o2b2o2b2o
146b2o2b2o2b2o2b2o2b2o2b2o2b2o2b2o2b2o2b2o2b2o2b2o2b2o2b2o2b2o2b2o2b2o
2b2o2b2o2b2o2b2o2b2o2b2o2b2o2b2o2b2o2b2o2b2o2b2o2b2o2b2o2b2o50b2o2b2o
2b2o2b2o2b2o2b2o2b2o2b2o2b2o2b2o2b2o2b2o2b2o2b2o2b2o2b2o2b2o2b2o2b2o2b
2o2b2o2b2o2b2o2b2o2b2o2b2o2b2o2b2o2b2o2b2o2b2o2b2o2b2o2b2o2b2o2b2o2b2o
2b2o2b2o2b2o2b2o2b2o2b2o2b2o2b2o2b2o2b2o2b2o2b2o2b2o2b2o2b2o2b2o2b2o2b
2o2b2o2b2o2b2o2b2o2b2o2b2o2b2o2b2o2b2o2b2o2b2o2b2o2b2o2b2o2b2o2b2o2b2o
2b2o2b2o2b2o2b2o2b2o2b2o50b2o2b2o2b2o2b2o2b2o2b2o2b2o2b2o2b2o2b2o2b2o
2b2o2b2o2b2o2b2o2b2o2b2o2b2o2b2o2b2o2b2o2b2o2b2o2b2o2b2o2b2o2b2o2b2o2b
2o2b2o2b2o2b2o488b2o15bo41b2ob2o21bo2bo22bo13bo22bo2bo22b2ob2o56b3o
358b3o19b2o18b3o100b3o18b2o19b3o768b3o19b2o18b3o100b3o18b2o16b2o13bo
672b3o19b2o18b3o100b3o18b2o19b3o768b3o19b2o18b3o100b3o18b2o16b2o13bo
372b3o19b2o18b3o100b3o18b2o19b3o768b3o19b2o18b3o100b3o18b2o16b2o13bo$
1918b2o43b2o25bo59bo26b2o57bo3bo360bo17bobo18bo2bo98bo2bo18bobo17bo
774bo17bobo18bo2bo98bo2bo18bobo30b3o673bo17bobo18bo2bo98bo2bo18bobo17b
o774bo17bobo18bo2bo98bo2bo18bobo30b3o373bo17bobo18bo2bo98bo2bo18bobo
17bo774bo17bobo18bo2bo98bo2bo18bobo30b3o$1918bobo69bo59bo449b2o38bo
104bo38b2o772b2o38bo104bo54bo671b2o38bo104bo38b2o772b2o38bo104bo54bo
371b2o38bo104bo38b2o772b2o38bo104bo54bo$2o2b2o2b2o2b2o2b2o2b2o2b2o2b2o
2b2o2b2o2b2o2b2o2b2o2b2o2b2o2b2o2b2o2b2o2b2o2b2o2b2o2b2o2b2o2b2o2b2o2b
2o2b2o2b2o2b2o2b2o2b2o2b2o2b2o350b2o2b2o2b2o2b2o2b2o2b2o2b2o2b2o2b2o2b
2o2b2o2b2o2b2o2b2o2b2o2b2o2b2o2b2o2b2o2b2o2b2o2b2o2b2o2b2o2b2o2b2o2b2o
2b2o2b2o2b2o2b2o2b2o146b2o2b2o2b2o2b2o2b2o2b2o2b2o2b2o2b2o2b2o2b2o2b2o
2b2o2b2o2b2o2b2o2b2o2b2o2b2o2b2o2b2o2b2o2b2o2b2o2b2o2b2o2b2o2b2o2b2o2b
2o2b2o2b2o54b2o2b2o2b2o2b2o2b2o2b2o2b2o2b2o2b2o2b2o2b2o2b2o2b2o2b2o2b
2o2b2o2b2o2b2o2b2o2b2o2b2o2b2o2b2o2b2o2b2o2b2o2b2o2b2o2b2o2b2o2b2o2b2o
2b2o2b2o2b2o2b2o2b2o2b2o2b2o2b2o2b2o2b2o2b2o2b2o2b2o2b2o2b2o2b2o2b2o2b
2o2b2o2b2o2b2o2b2o2b2o2b2o2b2o2b2o2b2o2b2o2b2o2b2o2b2o2b2o2b2o2b2o2b2o
2b2o2b2o2b2o2b2o2b2o2b2o2b2o2b2o2b2o54b2o2b2o2b2o2b2o2b2o2b2o2b2o2b2o
2b2o2b2o2b2o2b2o2b2o2b2o2b2o2b2o2b2o2b2o2b2o2b2o2b2o2b2o2b2o2b2o2b2o2b
2o2b2o2b2o2b2o2b2o2b2o2b2o486b2o3b2o37b2o41bobo14b2o29b2o14bobo42b2o
19b3o15bo5bo398bo104bo852bo104bo53b2o711bo104bo852bo104bo53b2o411bo
104bo852bo104bo53b2o$2o2b2o2b2o2b2o2b2o2b2o2b2o2b2o2b2o2b2o2b2o2b2o2b
2o2b2o2b2o2b2o2b2o2b2o2b2o2b2o2b2o2b2o2b2o2b2o2b2o2b2o2b2o2b2o2b2o2b2o
2b2o2b2o2b2o350b2o2b2o2b2o2b2o2b2o2b2o2b2o2b2o2b2o2b2o2b2o2b2o2b2o2b2o
2b2o2b2o2b2o2b2o2b2o2b2o2b2o2b2o2b2o2b2o2b2o2b2o2b2o2b2o2b2o2b2o2b2o2b
2o146b2o2b2o2b2o2b2o2b2o2b2o2b2o2b2o2b2o2b2o2b2o2b2o2b2o2b2o2b2o2b2o2b
2o2b2o2b2o2b2o2b2o2b2o2b2o2b2o2b2o2b2o2b2o2b2o2b2o2b2o2b2o2b2o54b2o2b
2o2b2o2b2o2b2o2b2o2b2o2b2o2b2o2b2o2b2o2b2o2b2o2b2o2b2o2b2o2b2o2b2o2b2o
2b2o2b2o2b2o2b2o2b2o2b2o2b2o2b2o2b2o2b2o2b2o2b2o2b2o2b2o2b2o2b2o2b2o2b
2o2b2o2b2o2b2o2b2o2b2o2b2o2b2o2b2o2b2o2b2o2b2o2b2o2b2o2b2o2b2o2b2o2b2o
2b2o2b2o2b2o2b2o2b2o2b2o2b2o2b2o2b2o2b2o2b2o2b2o2b2o2b2o2b2o2b2o2b2o2b
2o2b2o2b2o2b2o2b2o54b2o2b2o2b2o2b2o2b2o2b2o2b2o2b2o2b2o2b2o2b2o2b2o2b
2o2b2o2b2o2b2o2b2o2b2o2b2o2b2o2b2o2b2o2b2o2b2o2b2o2b2o2b2o2b2o2b2o2b2o
2b2o2b2o486b2o3b2o37b2o14b2o3b2o37b2o29b2o38b2o3b2o14b2o21bo15b2o3b2o
388bo10bobo98bobo10bo832bo10bobo98bobo10bo44b3o699bo10bobo98bobo10bo
832bo10bobo98bobo10bo44b3o399bo10bobo98bobo10bo832bo10bobo98bobo10bo
44b3o$1901b5o54b2o3b2o108b2o3b2o36bo409b3o124b3o828b3o48b3o21b3o49b3o
43bobo696b3o49b3o21b3o48b3o828b3o48b3o21b3o49b3o43bobo396b3o49b3o21b3o
48b3o828b3o124b3o43bobo$1902bobo56b5o110b5o422bo23bo130bo23bo778bo23bo
50bo2bo21bo2bo51bo23bo18bobo671bo23bo51bo2bo21bo2bo50bo23bo778bo23bo
50bo2bo21bo2bo51bo23bo18bobo371bo23bo51bo2bo21bo2bo50bo23bo778bo23bo
130bo23bo18bobo$2o2b2o2b2o2b2o2b2o2b2o2b2o2b2o2b2o2b2o2b2o2b2o2b2o2b2o
2b2o2b2o2b2o2b2o2b2o2b2o2b2o2b2o2b2o2b2o2b2o2b2o2b2o2b2o2b2o2b2o2b2o2b
2o2b2o350b2o2b2o2b2o2b2o2b2o2b2o2b2o2b2o2b2o2b2o2b2o2b2o2b2o2b2o2b2o2b
2o2b2o2b2o2b2o2b2o2b2o2b2o2b2o2b2o2b2o2b2o2b2o2b2o2b2o2b2o2b2o2b2o146b
2o2b2o2b2o2b2o2b2o2b2o2b2o2b2o2b2o2b2o2b2o2b2o2b2o2b2o2b2o2b2o2b2o2b2o
2b2o2b2o2b2o2b2o2b2o2b2o2b2o2b2o2b2o2b2o2b2o2b2o2b2o2b2o58b2o2b2o2b2o
2b2o2b2o2b2o2b2o2b2o2b2o2b2o2b2o2b2o2b2o2b2o2b2o2b2o2b2o2b2o2b2o2b2o2b
2o2b2o2b2o2b2o2b2o2b2o2b2o2b2o2b2o2b2o2b2o2b2o2b2o2b2o2b2o2b2o2b2o2b2o
2b2o2b2o2b2o2b2o2b2o2b2o2b2o2b2o2b2o2b2o2b2o2b2o2b2o2b2o2b2o2b2o2b2o2b
2o2b2o2b2o2b2o2b2o2b2o2b2o2b2o2b2o2b2o2b2o2b2o2b2o2b2o2b2o2b2o2b2o2b2o
2b2o58b2o2b2o2b2o2b2o2b2o2b2o2b2o2b2o2b2o2b2o2b2o2b2o2b2o2b2o2b2o2b2o
2b2o2b2o2b2o2b2o2b2o2b2o2b2o2b2o2b2o2b2o2b2o2b2o2b2o2b2o2b2o2b2o548bob
o112bobo58bo363b3o7b2o13b2o128b2o13b2o7b3o776b3o7b2o13b2o32bobo17bo21b
o17bobo33b2o13b2o7b3o18bo671b3o7b2o13b2o33bobo17bo21bo17bobo32b2o13b2o
7b3o776b3o7b2o13b2o32bobo17bo21bo17bobo33b2o13b2o7b3o18bo371b3o7b2o13b
2o33bobo17bo21bo17bobo32b2o13b2o7b3o776b3o7b2o13b2o128b2o13b2o7b3o18bo
$2o2b2o2b2o2b2o2b2o2b2o2b2o2b2o2b2o2b2o2b2o2b2o2b2o2b2o2b2o2b2o2b2o2b
2o2b2o2b2o2b2o2b2o2b2o2b2o2b2o2b2o2b2o2b2o2b2o2b2o2b2o2b2o2b2o350b2o2b
2o2b2o2b2o2b2o2b2o2b2o2b2o2b2o2b2o2b2o2b2o2b2o2b2o2b2o2b2o2b2o2b2o2b2o
2b2o2b2o2b2o2b2o2b2o2b2o2b2o2b2o2b2o2b2o2b2o2b2o2b2o146b2o2b2o2b2o2b2o
2b2o2b2o2b2o2b2o2b2o2b2o2b2o2b2o2b2o2b2o2b2o2b2o2b2o2b2o2b2o2b2o2b2o2b
2o2b2o2b2o2b2o2b2o2b2o2b2o2b2o2b2o2b2o2b2o58b2o2b2o2b2o2b2o2b2o2b2o2b
2o2b2o2b2o2b2o2b2o2b2o2b2o2b2o2b2o2b2o2b2o2b2o2b2o2b2o2b2o2b2o2b2o2b2o
2b2o2b2o2b2o2b2o2b2o2b2o2b2o2b2o2b2o2b2o2b2o2b2o2b2o2b2o2b2o2b2o2b2o2b
2o2b2o2b2o2b2o2b2o2b2o2b2o2b2o2b2o2b2o2b2o2b2o2b2o2b2o2b2o2b2o2b2o2b2o
2b2o2b2o2b2o2b2o2b2o2b2o2b2o2b2o2b2o2b2o2b2o2b2o2b2o2b2o2b2o58b2o2b2o
2b2o2b2o2b2o2b2o2b2o2b2o2b2o2b2o2b2o2b2o2b2o2b2o2b2o2b2o2b2o2b2o2b2o2b
2o2b2o2b2o2b2o2b2o2b2o2b2o2b2o2b2o2b2o2b2o2b2o2b2o488b3o21b2o209bobo
362b3o8b2o156b2o8b3o776b3o8b2o45bo20bo21bo20bo46b2o8b3o690b3o8b2o46bo
20bo21bo20bo45b2o8b3o776b3o8b2o45bo20bo21bo20bo46b2o8b3o390b3o8b2o46bo
20bo21bo20bo45b2o8b3o776b3o8b2o156b2o8b3o$1925b2o35b3o112b3o57bobo372b
o160bo796bo47bo17bobo23bobo17bo48bo710bo48bo17bobo23bobo17bo47bo796bo
47bo17bobo23bobo17bo48bo410bo48bo17bobo23bobo17bo47bo796bo160bo$1927bo
182b2o25bo362b2o3b2o172b2o3b2o772b2o3b2o53bo2bo57bo2bo54b2o3b2o13b2obo
b2o666b2o3b2o54bo2bo57bo2bo53b2o3b2o772b2o3b2o53bo2bo57bo2bo54b2o3b2o
13b2obob2o366b2o3b2o54bo2bo57bo2bo53b2o3b2o772b2o3b2o172b2o3b2o13b2obo
b2o$2o2b2o2b2o2b2o2b2o2b2o2b2o2b2o2b2o2b2o2b2o2b2o2b2o2b2o2b2o2b2o2b2o
2b2o2b2o2b2o2b2o2b2o2b2o2b2o2b2o2b2o2b2o2b2o2b2o2b2o2b2o2b2o2b2o350b2o
2b2o2b2o2b2o2b2o2b2o2b2o2b2o2b2o2b2o2b2o2b2o2b2o2b2o2b2o2b2o2b2o2b2o2b
2o2b2o2b2o2b2o2b2o2b2o2b2o2b2o2b2o2b2o2b2o2b2o2b2o2b2o146b2o2b2o2b2o2b
2o2b2o2b2o2b2o2b2o2b2o2b2o2b2o2b2o2b2o2b2o2b2o2b2o2b2o2b2o2b2o2b2o2b2o
2b2o2b2o2b2o2b2o2b2o2b2o2b2o2b2o2b2o2b2o2b2o62b2o2b2o2b2o2b2o2b2o2b2o
2b2o2b2o2b2o2b2o2b2o2b2o2b2o2b2o2b2o2b2o2b2o2b2o2b2o2b2o2b2o2b2o2b2o2b
2o2b2o2b2o2b2o2b2o2b2o2b2o2b2o2b2o2b2o2b2o2b2o2b2o2b2o2b2o2b2o2b2o2b2o
2b2o2b2o2b2o2b2o2b2o2b2o2b2o2b2o2b2o2b2o2b2o2b2o2b2o2b2o2b2o2b2o2b2o2b
2o2b2o2b2o2b2o2b2o2b2o2b2o2b2o2b2o2b2o2b2o2b2o2b2o2b2o62b2o2b2o2b2o2b
2o2b2o2b2o2b2o2b2o2b2o2b2o2b2o2b2o2b2o2b2o2b2o2b2o2b2o2b2o2b2o2b2o2b2o
2b2o2b2o2b2o2b2o2b2o2b2o2b2o2b2o2b2o2b2o2b2o695bobo25bo362b2o3b2o172b
2o3b2o772b2o3b2o53b3o59b3o54b2o3b2o13bo5bo666b2o3b2o54b3o59b3o53b2o3b
2o772b2o3b2o53b3o59b3o54b2o3b2o13bo5bo366b2o3b2o54b3o59b3o53b2o3b2o
772b2o3b2o172b2o3b2o13bo5bo$2o2b2o2b2o2b2o2b2o2b2o2b2o2b2o2b2o2b2o2b2o
2b2o2b2o2b2o2b2o2b2o2b2o2b2o2b2o2b2o2b2o2b2o2b2o2b2o2b2o2b2o2b2o2b2o2b
2o2b2o2b2o2b2o2b2o350b2o2b2o2b2o2b2o2b2o2b2o2b2o2b2o2b2o2b2o2b2o2b2o2b
2o2b2o2b2o2b2o2b2o2b2o2b2o2b2o2b2o2b2o2b2o2b2o2b2o2b2o2b2o2b2o2b2o2b2o
2b2o2b2o146b2o2b2o2b2o2b2o2b2o2b2o2b2o2b2o2b2o2b2o2b2o2b2o2b2o2b2o2b2o
2b2o2b2o2b2o2b2o2b2o2b2o2b2o2b2o2b2o2b2o2b2o2b2o2b2o2b2o2b2o2b2o2b2o
62b2o2b2o2b2o2b2o2b2o2b2o2b2o2b2o2b2o2b2o2b2o2b2o2b2o2b2o2b2o2b2o2b2o
2b2o2b2o2b2o2b2o2b2o2b2o2b2o2b2o2b2o2b2o2b2o2b2o2b2o2b2o2b2o2b2o2b2o2b
2o2b2o2b2o2b2o2b2o2b2o2b2o2b2o2b2o2b2o2b2o2b2o2b2o2b2o2b2o2b2o2b2o2b2o
2b2o2b2o2b2o2b2o2b2o2b2o2b2o2b2o2b2o2b2o2b2o2b2o2b2o2b2o2b2o2b2o2b2o2b
2o2b2o2b2o62b2o2b2o2b2o2b2o2b2o2b2o2b2o2b2o2b2o2b2o2b2o2b2o2b2o2b2o2b
2o2b2o2b2o2b2o2b2o2b2o2b2o2b2o2b2o2b2o2b2o2b2o2b2o2b2o2b2o2b2o2b2o2b2o
590b3o27b3o74bo25bo2bo1517bo3bo1825bo3bo1525bo3bo$2003bo3bo25bo3bo42b
2o56b2o384b3o132b3o820b3o132b3o39b3o692b3o132b3o820b3o132b3o39b3o392b
3o132b3o820b3o132b3o39b3o$1902b2o84b3o11bo5bo23bo5bo11b3o27bo424b2o16b
o3bo130bo3bo16b2o782b2o16bo3bo130bo3bo16b2o696b2o16bo3bo130bo3bo16b2o
782b2o16bo3bo130bo3bo16b2o396b2o16bo3bo130bo3bo16b2o782b2o16bo3bo130bo
3bo16b2o$2o2b2o2b2o2b2o2b2o2b2o2b2o2b2o2b2o2b2o2b2o2b2o2b2o2b2o2b2o2b
2o2b2o2b2o2b2o2b2o2b2o2b2o2b2o2b2o2b2o2b2o2b2o2b2o2b2o2b2o2b2o2b2o2b2o
350b2o2b2o2b2o2b2o2b2o2b2o2b2o2b2o2b2o2b2o2b2o2b2o2b2o2b2o2b2o2b2o2b2o
2b2o2b2o2b2o2b2o2b2o2b2o2b2o2b2o2b2o2b2o2b2o2b2o2b2o2b2o2b2o146b2o2b2o
2b2o2b2o2b2o2b2o2b2o2b2o2b2o2b2o2b2o2b2o2b2o2b2o2b2o2b2o2b2o2b2o2b2o2b
2o2b2o2b2o2b2o2b2o2b2o2b2o2b2o2b2o2b2o2b2o2b2o2b2o66b2o2b2o2b2o2b2o2b
2o2b2o2b2o2b2o2b2o2b2o2b2o2b2o2b2o2b2o2b2o2b2o2b2o2b2o2b2o2b2o2b2o2b2o
2b2o2b2o2b2o2b2o2b2o2b2o2b2o2b2o2b2o2b2o2b2o2b2o2b2o2b2o2b2o2b2o2b2o2b
2o2b2o2b2o2b2o2b2o2b2o2b2o2b2o2b2o2b2o2b2o2b2o2b2o2b2o2b2o2b2o2b2o2b2o
2b2o2b2o2b2o2b2o2b2o2b2o2b2o2b2o2b2o2b2o2b2o2b2o2b2o66b2o2b2o2b2o2b2o
2b2o2b2o2b2o2b2o2b2o2b2o2b2o2b2o2b2o2b2o2b2o2b2o2b2o2b2o2b2o2b2o2b2o2b
2o2b2o2b2o2b2o2b2o2b2o2b2o2b2o2b2o2b2o2b2o488b2o30bo27b2o24bo2bo10b2ob
ob2o23b2obob2o10bo2bo28b3o421bobo14bo5bo11b3o100b3o11bo5bo14bobo782bob
o14bo5bo11b3o100b3o11bo5bo14bobo696bobo14bo5bo11b3o100b3o11bo5bo14bobo
782bobo14bo5bo11b3o100b3o11bo5bo14bobo396bobo14bo5bo11b3o100b3o11bo5bo
14bobo782bobo14bo5bo11b3o100b3o11bo5bo14bobo$2o2b2o2b2o2b2o2b2o2b2o2b
2o2b2o2b2o2b2o2b2o2b2o2b2o2b2o2b2o2b2o2b2o2b2o2b2o2b2o2b2o2b2o2b2o2b2o
2b2o2b2o2b2o2b2o2b2o2b2o2b2o2b2o2b2o350b2o2b2o2b2o2b2o2b2o2b2o2b2o2b2o
2b2o2b2o2b2o2b2o2b2o2b2o2b2o2b2o2b2o2b2o2b2o2b2o2b2o2b2o2b2o2b2o2b2o2b
2o2b2o2b2o2b2o2b2o2b2o2b2o146b2o2b2o2b2o2b2o2b2o2b2o2b2o2b2o2b2o2b2o2b
2o2b2o2b2o2b2o2b2o2b2o2b2o2b2o2b2o2b2o2b2o2b2o2b2o2b2o2b2o2b2o2b2o2b2o
2b2o2b2o2b2o2b2o66b2o2b2o2b2o2b2o2b2o2b2o2b2o2b2o2b2o2b2o2b2o2b2o2b2o
2b2o2b2o2b2o2b2o2b2o2b2o2b2o2b2o2b2o2b2o2b2o2b2o2b2o2b2o2b2o2b2o2b2o2b
2o2b2o2b2o2b2o2b2o2b2o2b2o2b2o2b2o2b2o2b2o2b2o2b2o2b2o2b2o2b2o2b2o2b2o
2b2o2b2o2b2o2b2o2b2o2b2o2b2o2b2o2b2o2b2o2b2o2b2o2b2o2b2o2b2o2b2o2b2o2b
2o2b2o2b2o2b2o2b2o66b2o2b2o2b2o2b2o2b2o2b2o2b2o2b2o2b2o2b2o2b2o2b2o2b
2o2b2o2b2o2b2o2b2o2b2o2b2o2b2o2b2o2b2o2b2o2b2o2b2o2b2o2b2o2b2o2b2o2b2o
2b2o2b2o519b2o27b2o24bo63bo30bo423b2o13b2obob2o10bo2bo100bo2bo10b2obob
2o13b2o786b2o13b2obob2o10bo2bo100bo2bo10b2obob2o13b2o700b2o13b2obob2o
10bo2bo100bo2bo10b2obob2o13b2o786b2o13b2obob2o10bo2bo100bo2bo10b2obob
2o13b2o400b2o13b2obob2o10bo2bo100bo2bo10b2obob2o13b2o786b2o13b2obob2o
10bo2bo100bo2bo10b2obob2o13b2o$1933bobo52bo63bo453b2o34bo100bo34b2o
784b2o34bo100bo34b2o698b2o34bo100bo34b2o784b2o34bo100bo34b2o398b2o34bo
100bo34b2o784b2o34bo100bo34b2o$1989bobo13bo29bo13bobo50b3o401b2o34bo
100bo34b2o784b2o34bo100bo34b2o698b2o34bo100bo34b2o784b2o34bo100bo34b2o
398b2o34bo100bo34b2o784b2o34bo100bo34b2o$2o2b2o2b2o2b2o2b2o2b2o2b2o2b
2o2b2o2b2o2b2o2b2o2b2o2b2o2b2o2b2o2b2o2b2o2b2o2b2o2b2o2b2o2b2o2b2o2b2o
2b2o2b2o2b2o2b2o2b2o2b2o2b2o2b2o350b2o2b2o2b2o2b2o2b2o2b2o2b2o2b2o2b2o
2b2o2b2o2b2o2b2o2b2o2b2o2b2o2b2o2b2o2b2o2b2o2b2o2b2o2b2o2b2o2b2o2b2o2b
2o2b2o2b2o2b2o2b2o2b2o146b2o2b2o2b2o2b2o2b2o2b2o2b2o2b2o2b2o2b2o2b2o2b
2o2b2o2b2o2b2o2b2o2b2o2b2o2b2o2b2o2b2o2b2o2b2o2b2o2b2o2b2o2b2o2b2o2b2o
2b2o2b2o2b2o70b2o2b2o2b2o2b2o2b2o2b2o2b2o2b2o2b2o2b2o2b2o2b2o2b2o2b2o
2b2o2b2o2b2o2b2o2b2o2b2o2b2o2b2o2b2o2b2o2b2o2b2o2b2o2b2o2b2o2b2o2b2o2b
2o2b2o2b2o2b2o2b2o2b2o2b2o2b2o2b2o2b2o2b2o2b2o2b2o2b2o2b2o2b2o2b2o2b2o
2b2o2b2o2b2o2b2o2b2o2b2o2b2o2b2o2b2o2b2o2b2o2b2o2b2o2b2o2b2o2b2o2b2o2b
2o2b2o70b2o2b2o2b2o2b2o2b2o2b2o2b2o2b2o2b2o2b2o2b2o2b2o2b2o2b2o2b2o2b
2o2b2o2b2o2b2o2b2o2b2o2b2o2b2o2b2o2b2o2b2o2b2o2b2o2b2o2b2o2b2o2b2o567b
2o21bobo27bobo21b2o44bo397b3o20bo13bobo102bobo13bo20b3o776b3o20bo13bob
o102bobo13bo20b3o690b3o20bo13bobo102bobo13bo20b3o776b3o20bo13bobo102bo
bo13bo20b3o390b3o20bo13bobo102bobo13bo20b3o776b3o20bo13bobo102bobo13bo
20b3o$2o2b2o2b2o2b2o2b2o2b2o2b2o2b2o2b2o2b2o2b2o2b2o2b2o2b2o2b2o2b2o2b
2o2b2o2b2o2b2o2b2o2b2o2b2o2b2o2b2o2b2o2b2o2b2o2b2o2b2o2b2o2b2o2b2o350b
2o2b2o2b2o2b2o2b2o2b2o2b2o2b2o2b2o2b2o2b2o2b2o2b2o2b2o2b2o2b2o2b2o2b2o
2b2o2b2o2b2o2b2o2b2o2b2o2b2o2b2o2b2o2b2o2b2o2b2o2b2o2b2o146b2o2b2o2b2o
2b2o2b2o2b2o2b2o2b2o2b2o2b2o2b2o2b2o2b2o2b2o2b2o2b2o2b2o2b2o2b2o2b2o2b
2o2b2o2b2o2b2o2b2o2b2o2b2o2b2o2b2o2b2o2b2o2b2o70b2o2b2o2b2o2b2o2b2o2b
2o2b2o2b2o2b2o2b2o2b2o2b2o2b2o2b2o2b2o2b2o2b2o2b2o2b2o2b2o2b2o2b2o2b2o
2b2o2b2o2b2o2b2o2b2o2b2o2b2o2b2o2b2o2b2o2b2o2b2o2b2o2b2o2b2o2b2o2b2o2b
2o2b2o2b2o2b2o2b2o2b2o2b2o2b2o2b2o2b2o2b2o2b2o2b2o2b2o2b2o2b2o2b2o2b2o
2b2o2b2o2b2o2b2o2b2o2b2o2b2o2b2o2b2o2b2o70b2o2b2o2b2o2b2o2b2o2b2o2b2o
2b2o2b2o2b2o2b2o2b2o2b2o2b2o2b2o2b2o2b2o2b2o2b2o2b2o2b2o2b2o2b2o2b2o2b
2o2b2o2b2o2b2o2b2o2b2o2b2o2b2o567b2o21bobo27bobo21b2o43bo420bobo21b2o
86b2o21bobo820bobo21b2o29b3o21b3o30b2o21bobo734bobo21b2o30b3o21b3o29b
2o21bobo820bobo21b2o29b3o21b3o30b2o21bobo434bobo21b2o30b3o21b3o29b2o
21bobo820bobo21b2o86b2o21bobo$2005b2o27b2o488bobo21b2o86b2o21bobo820bo
bo21b2o29bo2bo19bo2bo30b2o21bobo40b2o692bobo21b2o30bo2bo19bo2bo29b2o
21bobo820bobo21b2o29bo2bo19bo2bo30b2o21bobo40b2o392bobo21b2o30bo2bo19b
o2bo29b2o21bobo820bobo21b2o86b2o21bobo40b2o$2007bo25bo490b2o134b2o720b
2o98b2o33bobo17bo25bo17bobo34b2o40b2o692b2o34bobo17bo25bo17bobo33b2o
720b2o98b2o33bobo17bo25bo17bobo34b2o40b2o392b2o34bobo17bo25bo17bobo33b
2o720b2o98b2o134b2o40b2o$2o2b2o2b2o2b2o2b2o2b2o2b2o2b2o2b2o2b2o2b2o2b
2o2b2o2b2o2b2o2b2o2b2o2b2o2b2o2b2o2b2o2b2o2b2o2b2o2b2o2b2o2b2o2b2o2b2o
2b2o2b2o2b2o2b2o350b2o2b2o2b2o2b2o2b2o2b2o2b2o2b2o2b2o2b2o2b2o2b2o2b2o
2b2o2b2o2b2o2b2o2b2o2b2o2b2o2b2o2b2o2b2o2b2o2b2o2b2o2b2o2b2o2b2o2b2o2b
2o2b2o146b2o2b2o2b2o2b2o2b2o2b2o2b2o2b2o2b2o2b2o2b2o2b2o2b2o2b2o2b2o2b
2o2b2o2b2o2b2o2b2o2b2o2b2o2b2o2b2o2b2o2b2o2b2o2b2o2b2o2b2o2b2o2b2o74b
2o2b2o2b2o2b2o2b2o2b2o2b2o2b2o2b2o2b2o2b2o2b2o2b2o2b2o2b2o2b2o2b2o2b2o
2b2o2b2o2b2o2b2o2b2o2b2o2b2o2b2o2b2o2b2o2b2o2b2o2b2o2b2o2b2o2b2o2b2o2b
2o2b2o2b2o2b2o2b2o2b2o2b2o2b2o2b2o2b2o2b2o2b2o2b2o2b2o2b2o2b2o2b2o2b2o
2b2o2b2o2b2o2b2o2b2o2b2o2b2o2b2o2b2o2b2o2b2o2b2o2b2o74b2o2b2o2b2o2b2o
2b2o2b2o2b2o2b2o2b2o2b2o2b2o2b2o2b2o2b2o2b2o2b2o2b2o2b2o2b2o2b2o2b2o2b
2o2b2o2b2o2b2o2b2o2b2o2b2o2b2o2b2o2b2o2b2o527b2o63b3o23b3o488bo138bo
720bo97bo38bo16bo25bo16bo39bo732bo39bo16bo25bo16bo38bo720bo97bo38bo16b
o25bo16bo39bo432bo39bo16bo25bo16bo38bo720bo97bo138bo$2o2b2o2b2o2b2o2b
2o2b2o2b2o2b2o2b2o2b2o2b2o2b2o2b2o2b2o2b2o2b2o2b2o2b2o2b2o2b2o2b2o2b2o
2b2o2b2o2b2o2b2o2b2o2b2o2b2o2b2o2b2o2b2o2b2o350b2o2b2o2b2o2b2o2b2o2b2o
2b2o2b2o2b2o2b2o2b2o2b2o2b2o2b2o2b2o2b2o2b2o2b2o2b2o2b2o2b2o2b2o2b2o2b
2o2b2o2b2o2b2o2b2o2b2o2b2o2b2o2b2o146b2o2b2o2b2o2b2o2b2o2b2o2b2o2b2o2b
2o2b2o2b2o2b2o2b2o2b2o2b2o2b2o2b2o2b2o2b2o2b2o2b2o2b2o2b2o2b2o2b2o2b2o
2b2o2b2o2b2o2b2o2b2o2b2o74b2o2b2o2b2o2b2o2b2o2b2o2b2o2b2o2b2o2b2o2b2o
2b2o2b2o2b2o2b2o2b2o2b2o2b2o2b2o2b2o2b2o2b2o2b2o2b2o2b2o2b2o2b2o2b2o2b
2o2b2o2b2o2b2o2b2o2b2o2b2o2b2o2b2o2b2o2b2o2b2o2b2o2b2o2b2o2b2o2b2o2b2o
2b2o2b2o2b2o2b2o2b2o2b2o2b2o2b2o2b2o2b2o2b2o2b2o2b2o2b2o2b2o2b2o2b2o2b
2o2b2o2b2o74b2o2b2o2b2o2b2o2b2o2b2o2b2o2b2o2b2o2b2o2b2o2b2o2b2o2b2o2b
2o2b2o2b2o2b2o2b2o2b2o2b2o2b2o2b2o2b2o2b2o2b2o2b2o2b2o2b2o2b2o2b2o2b2o
526b2o63bo3bo21bo3bo466b2o3b2o13b3o136b3o13b2o3b2o699bobo4bo69b2o3b2o
13b3o37bo17bobo19bobo17bo38b3o13b2o3b2o690b2o3b2o13b3o38bo17bobo19bobo
17bo37b3o13b2o3b2o699bobo4bo69b2o3b2o13b3o37bo17bobo19bobo17bo38b3o13b
2o3b2o390b2o3b2o13b3o38bo17bobo19bobo17bo37b3o13b2o3b2o699bobo4bo69b2o
3b2o13b3o136b3o13b2o3b2o$1942bo61bob3obo19bob3obo58b2o6bo417bo3bo134bo
3bo714bo4b3ob4o87bo3bo33bo2bo59bo2bo34bo3bo728bo3bo34bo2bo59bo2bo33bo
3bo714bo4b3ob4o87bo3bo33bo2bo59bo2bo34bo3bo428bo3bo34bo2bo59bo2bo33bo
3bo714bo4b3ob4o87bo3bo134bo3bo$2000bo4b5o21b5o4bo53bobo4b3o399bo3bo12b
ob3obo132bob3obo12bo3bo696b3o4b2obob2o14b2o52bo3bo12bob3obo33b3o59b3o
34bob3obo12bo3bo692bo3bo12bob3obo34b3o59b3o33bob3obo12bo3bo696b3o4b2ob
ob2o14b2o52bo3bo12bob3obo33b3o59b3o34bob3obo12bo3bo392bo3bo12bob3obo
34b3o59b3o33bob3obo12bo3bo696b3o4b2obob2o14b2o52bo3bo12bob3obo132bob3o
bo12bo3bo$2o2b2o2b2o2b2o2b2o2b2o2b2o2b2o2b2o2b2o2b2o2b2o2b2o2b2o2b2o2b
2o2b2o2b2o2b2o2b2o2b2o2b2o2b2o2b2o2b2o2b2o2b2o2b2o2b2o2b2o2b2o2b2o2b2o
350b2o2b2o2b2o2b2o2b2o2b2o2b2o2b2o2b2o2b2o2b2o2b2o2b2o2b2o2b2o2b2o2b2o
2b2o2b2o2b2o2b2o2b2o2b2o2b2o2b2o2b2o2b2o2b2o2b2o2b2o2b2o2b2o146b2o2b2o
2b2o2b2o2b2o2b2o2b2o2b2o2b2o2b2o2b2o2b2o2b2o2b2o2b2o2b2o2b2o2b2o2b2o2b
2o2b2o2b2o2b2o2b2o2b2o2b2o2b2o2b2o2b2o2b2o2b2o2b2o78b2o2b2o2b2o2b2o2b
2o2b2o2b2o2b2o2b2o2b2o2b2o2b2o2b2o2b2o2b2o2b2o2b2o2b2o2b2o2b2o2b2o2b2o
2b2o2b2o2b2o2b2o2b2o2b2o2b2o2b2o2b2o2b2o2b2o2b2o2b2o2b2o2b2o2b2o2b2o2b
2o2b2o2b2o2b2o2b2o2b2o2b2o2b2o2b2o2b2o2b2o2b2o2b2o2b2o2b2o2b2o2b2o2b2o
2b2o2b2o2b2o2b2o2b2o2b2o2b2o78b2o2b2o2b2o2b2o2b2o2b2o2b2o2b2o2b2o2b2o
2b2o2b2o2b2o2b2o2b2o2b2o2b2o2b2o2b2o2b2o2b2o2b2o2b2o2b2o2b2o2b2o2b2o2b
2o2b2o2b2o2b2o2b2o584b2o41b2o53bo3bo403b3o14b5o4bo124bo4b5o14b3o700bo
3bo2bob3o11bo2bo7bo45b3o14b5o4bo124bo4b5o14b3o694b3o14b5o4bo124bo4b5o
14b3o700bo3bo2bob3o11bo2bo7bo45b3o14b5o4bo124bo4b5o14b3o394b3o14b5o4bo
124bo4b5o14b3o700bo3bo2bob3o11bo2bo7bo45b3o14b5o4bo124bo4b5o14b3o$2o2b
2o2b2o2b2o2b2o2b2o2b2o2b2o2b2o2b2o2b2o2b2o2b2o2b2o2b2o2b2o2b2o2b2o2b2o
2b2o2b2o2b2o2b2o2b2o2b2o2b2o2b2o2b2o2b2o2b2o2b2o2b2o2b2o350b2o2b2o2b2o
2b2o2b2o2b2o2b2o2b2o2b2o2b2o2b2o2b2o2b2o2b2o2b2o2b2o2b2o2b2o2b2o2b2o2b
2o2b2o2b2o2b2o2b2o2b2o2b2o2b2o2b2o2b2o2b2o2b2o146b2o2b2o2b2o2b2o2b2o2b
2o2b2o2b2o2b2o2b2o2b2o2b2o2b2o2b2o2b2o2b2o2b2o2b2o2b2o2b2o2b2o2b2o2b2o
2b2o2b2o2b2o2b2o2b2o2b2o2b2o2b2o2b2o78b2o2b2o2b2o2b2o2b2o2b2o2b2o2b2o
2b2o2b2o2b2o2b2o2b2o2b2o2b2o2b2o2b2o2b2o2b2o2b2o2b2o2b2o2b2o2b2o2b2o2b
2o2b2o2b2o2b2o2b2o2b2o2b2o2b2o2b2o2b2o2b2o2b2o2b2o2b2o2b2o2b2o2b2o2b2o
2b2o2b2o2b2o2b2o2b2o2b2o2b2o2b2o2b2o2b2o2b2o2b2o2b2o2b2o2b2o2b2o2b2o2b
2o2b2o2b2o2b2o78b2o2b2o2b2o2b2o2b2o2b2o2b2o2b2o2b2o2b2o2b2o2b2o2b2o2b
2o2b2o2b2o2b2o2b2o2b2o2b2o2b2o2b2o2b2o2b2o2b2o2b2o2b2o2b2o2b2o2b2o2b2o
2b2o525bo59b2o39b2o58b2o402b3o24b2o120b2o24b3o699b2o4bobob2o11bo7b2o3b
o44b3o24b2o120b2o24b3o694b3o24b2o120b2o24b3o699b2o4bobob2o11bo7b2o3bo
44b3o24b2o120b2o24b3o394b3o24b2o120b2o24b3o699b2o4bobob2o11bo7b2o3bo
44b3o24b2o120b2o24b3o$1939b3o38b3o5b3o59b3o5b3o469b2o122b2o732b4o12bo
6bo5bo70b2o122b2o746b2o122b2o732b4o12bo6bo5bo70b2o122b2o446b2o122b2o
732b4o12bo6bo5bo70b2o122b2o$1942bo6bo29bo3bo3bo2bo59bo2bo3bo3bo478b3o
5b3o84b3o5b3o744bo5bo7bo7b5o81b3o5b3o84b3o5b3o766b3o5b3o84b3o5b3o744bo
5bo7bo7b5o81b3o5b3o84b3o5b3o466b3o5b3o84b3o5b3o744bo5bo7bo7b5o81b3o5b
3o84b3o5b3o$2o2b2o2b2o2b2o2b2o2b2o2b2o2b2o2b2o2b2o2b2o2b2o2b2o2b2o2b2o
2b2o2b2o2b2o2b2o2b2o2b2o2b2o2b2o2b2o2b2o2b2o2b2o2b2o2b2o2b2o2b2o2b2o2b
2o350b2o2b2o2b2o2b2o2b2o2b2o2b2o2b2o2b2o2b2o2b2o2b2o2b2o2b2o2b2o2b2o2b
2o2b2o2b2o2b2o2b2o2b2o2b2o2b2o2b2o2b2o2b2o2b2o2b2o2b2o2b2o2b2o146b2o2b
2o2b2o2b2o2b2o2b2o2b2o2b2o2b2o2b2o2b2o2b2o2b2o2b2o2b2o2b2o2b2o2b2o2b2o
2b2o2b2o2b2o2b2o2b2o2b2o2b2o2b2o2b2o2b2o2b2o2b2o2b2o82b2o2b2o2b2o2b2o
2b2o2b2o2b2o2b2o2b2o2b2o2b2o2b2o2b2o2b2o2b2o2b2o2b2o2b2o2b2o2b2o2b2o2b
2o2b2o2b2o2b2o2b2o2b2o2b2o2b2o2b2o2b2o2b2o2b2o2b2o2b2o2b2o2b2o2b2o2b2o
2b2o2b2o2b2o2b2o2b2o2b2o2b2o2b2o2b2o2b2o2b2o2b2o2b2o2b2o2b2o2b2o2b2o2b
2o2b2o2b2o2b2o2b2o2b2o82b2o2b2o2b2o2b2o2b2o2b2o2b2o2b2o2b2o2b2o2b2o2b
2o2b2o2b2o2b2o2b2o2b2o2b2o2b2o2b2o2b2o2b2o2b2o2b2o2b2o2b2o2b2o2b2o2b2o
2b2o2b2o2b2o527b2o5b2o28bo5bo5bo59bo5bo5bo35bo441bo2bo3bo3bo82bo3bo3bo
2bo749bo9bo2bo89bo2bo3bo3bo82bo3bo3bo2bo766bo2bo3bo3bo82bo3bo3bo2bo
749bo9bo2bo89bo2bo3bo3bo82bo3bo3bo2bo466bo2bo3bo3bo82bo3bo3bo2bo749bo
9bo2bo89bo2bo3bo3bo82bo3bo3bo2bo$2o2b2o2b2o2b2o2b2o2b2o2b2o2b2o2b2o2b
2o2b2o2b2o2b2o2b2o2b2o2b2o2b2o2b2o2b2o2b2o2b2o2b2o2b2o2b2o2b2o2b2o2b2o
2b2o2b2o2b2o2b2o2b2o2b2o350b2o2b2o2b2o2b2o2b2o2b2o2b2o2b2o2b2o2b2o2b2o
2b2o2b2o2b2o2b2o2b2o2b2o2b2o2b2o2b2o2b2o2b2o2b2o2b2o2b2o2b2o2b2o2b2o2b
2o2b2o2b2o2b2o146b2o2b2o2b2o2b2o2b2o2b2o2b2o2b2o2b2o2b2o2b2o2b2o2b2o2b
2o2b2o2b2o2b2o2b2o2b2o2b2o2b2o2b2o2b2o2b2o2b2o2b2o2b2o2b2o2b2o2b2o2b2o
2b2o82b2o2b2o2b2o2b2o2b2o2b2o2b2o2b2o2b2o2b2o2b2o2b2o2b2o2b2o2b2o2b2o
2b2o2b2o2b2o2b2o2b2o2b2o2b2o2b2o2b2o2b2o2b2o2b2o2b2o2b2o2b2o2b2o2b2o2b
2o2b2o2b2o2b2o2b2o2b2o2b2o2b2o2b2o2b2o2b2o2b2o2b2o2b2o2b2o2b2o2b2o2b2o
2b2o2b2o2b2o2b2o2b2o2b2o2b2o2b2o2b2o2b2o2b2o82b2o2b2o2b2o2b2o2b2o2b2o
2b2o2b2o2b2o2b2o2b2o2b2o2b2o2b2o2b2o2b2o2b2o2b2o2b2o2b2o2b2o2b2o2b2o2b
2o2b2o2b2o2b2o2b2o2b2o2b2o2b2o2b2o534bobo27bo5bo2bo2bo59bo2bo2bo5bo35b
o441bo5bo5bo80bo5bo5bo749b3o9b2o89bo5bo5bo80bo5bo5bo766bo5bo5bo80bo5bo
5bo749b3o9b2o89bo5bo5bo80bo5bo5bo466bo5bo5bo80bo5bo5bo749b3o9b2o89bo5b
o5bo80bo5bo5bo$1989bo61bo35b3o7bobo404b2o34bo2bo2bo5bo80bo5bo2bo2bo34b
2o780b2o34bo2bo2bo5bo80bo5bo2bo2bo34b2o694b2o34bo2bo2bo5bo80bo5bo2bo2b
o34b2o780b2o34bo2bo2bo5bo80bo5bo2bo2bo34b2o394b2o34bo2bo2bo5bo80bo5bo
2bo2bo34b2o780b2o34bo2bo2bo5bo80bo5bo2bo2bo34b2o$1984bo71bo27bo4bo6b2o
b2o403b2o35bo33bo35bo32bo35b2o780b2o35bo102bo35b2o694b2o35bo102bo35b2o
707bo72b2o35bo102bo35b2o394b2o35bo102bo35b2o707bo72b2o35bo32bo35bo33bo
35b2o$2o2b2o2b2o2b2o2b2o2b2o2b2o2b2o2b2o2b2o2b2o2b2o2b2o2b2o2b2o2b2o2b
2o2b2o2b2o2b2o2b2o2b2o2b2o2b2o2b2o2b2o2b2o2b2o2b2o2b2o2b2o2b2o2b2o350b
2o2b2o2b2o2b2o2b2o2b2o2b2o2b2o2b2o2b2o2b2o2b2o2b2o2b2o2b2o2b2o2b2o2b2o
2b2o2b2o2b2o2b2o2b2o2b2o2b2o2b2o2b2o2b2o2b2o2b2o2b2o2b2o146b2o2b2o2b2o
2b2o2b2o2b2o2b2o2b2o2b2o2b2o2b2o2b2o2b2o2b2o2b2o2b2o2b2o2b2o2b2o2b2o2b
2o2b2o2b2o2b2o2b2o2b2o2b2o2b2o2b2o2b2o2b2o2b2o86b2o2b2o2b2o2b2o2b2o2b
2o2b2o2b2o2b2o2b2o2b2o2b2o2b2o2b2o2b2o2b2o2b2o2b2o2b2o2b2o2b2o2b2o2b2o
2b2o2b2o2b2o2b2o2b2o2b2o2b2o2b2o2b2o2b2o2b2o2b2o2b2o2b2o2b2o2b2o2b2o2b
2o2b2o2b2o2b2o2b2o2b2o2b2o2b2o2b2o2b2o2b2o2b2o2b2o2b2o2b2o2b2o2b2o2b2o
2b2o2b2o86b2o2b2o2b2o2b2o2b2o2b2o2b2o2b2o2b2o2b2o2b2o2b2o2b2o2b2o2b2o
2b2o2b2o2b2o2b2o2b2o2b2o2b2o2b2o2b2o2b2o2b2o2b2o2b2o2b2o2b2o2b2o2b2o
569b2o71b2o25bo4bo6bo5bo444bo28b2o3b3o21b3o3b2o27bo864bo32b3o21b3o33bo
72bo705bo33b3o21b3o32bo748b2o114bo32b3o21b3o33bo72bo405bo33b3o21b3o32b
o748b2o114bo27b2o3b3o21b3o3b2o28bo72bo$2o2b2o2b2o2b2o2b2o2b2o2b2o2b2o
2b2o2b2o2b2o2b2o2b2o2b2o2b2o2b2o2b2o2b2o2b2o2b2o2b2o2b2o2b2o2b2o2b2o2b
2o2b2o2b2o2b2o2b2o2b2o2b2o2b2o350b2o2b2o2b2o2b2o2b2o2b2o2b2o2b2o2b2o2b
2o2b2o2b2o2b2o2b2o2b2o2b2o2b2o2b2o2b2o2b2o2b2o2b2o2b2o2b2o2b2o2b2o2b2o
2b2o2b2o2b2o2b2o2b2o146b2o2b2o2b2o2b2o2b2o2b2o2b2o2b2o2b2o2b2o2b2o2b2o
2b2o2b2o2b2o2b2o2b2o2b2o2b2o2b2o2b2o2b2o2b2o2b2o2b2o2b2o2b2o2b2o2b2o2b
2o2b2o2b2o86b2o2b2o2b2o2b2o2b2o2b2o2b2o2b2o2b2o2b2o2b2o2b2o2b2o2b2o2b
2o2b2o2b2o2b2o2b2o2b2o2b2o2b2o2b2o2b2o2b2o2b2o2b2o2b2o2b2o2b2o2b2o2b2o
2b2o2b2o2b2o2b2o2b2o2b2o2b2o2b2o2b2o2b2o2b2o2b2o2b2o2b2o2b2o2b2o2b2o2b
2o2b2o2b2o2b2o2b2o2b2o2b2o2b2o2b2o2b2o2b2o86b2o2b2o2b2o2b2o2b2o2b2o2b
2o2b2o2b2o2b2o2b2o2b2o2b2o2b2o2b2o2b2o2b2o2b2o2b2o2b2o2b2o2b2o2b2o2b2o
2b2o2b2o2b2o2b2o2b2o2b2o2b2o2b2o569b2o71b2o25bo14bo447b2o26bobo2bo2bo
21bo2bo2bobo25b2o864b2o30bo2bo21bo2bo31b2o72b3o703b2o31bo2bo21bo2bo30b
2o748bobo113b2o30bo2bo21bo2bo31b2o72b3o403b2o31bo2bo21bo2bo30b2o748bob
o113b2o25bobo2bo2bo21bo2bo2bobo26b2o72b3o$1981bo2b2o69b2o2bo24b2o3bo5b
2o3b2o444b2o34bo21bo33b2o864b2o13bobo17bo21bo17bobo14b2o75bo702b2o14bo
bo17bo21bo17bobo13b2o864b2o13bobo17bo21bo17bobo14b2o75bo402b2o14bobo
17bo21bo17bobo13b2o864b2o33bo21bo34b2o75bo$1951b3o4b2o22bobo71bobo28bo
bo455b2o2bo32bo21bo31bo2b2o747bo114b2o2bo10bo20bo21bo20bo11bo2b2o73b2o
6b2o693b2o2bo11bo20bo21bo20bo10bo2b2o862b2o2bo10bo20bo21bo20bo11bo2b2o
73b2o6b2o393b2o2bo11bo20bo21bo20bo10bo2b2o862b2o2bo31bo21bo32bo2b2o73b
2o6b2o$2o2b2o2b2o2b2o2b2o2b2o2b2o2b2o2b2o2b2o2b2o2b2o2b2o2b2o2b2o2b2o
2b2o2b2o2b2o2b2o2b2o2b2o2b2o2b2o2b2o2b2o2b2o2b2o2b2o2b2o2b2o2b2o2b2o
350b2o2b2o2b2o2b2o2b2o2b2o2b2o2b2o2b2o2b2o2b2o2b2o2b2o2b2o2b2o2b2o2b2o
2b2o2b2o2b2o2b2o2b2o2b2o2b2o2b2o2b2o2b2o2b2o2b2o2b2o2b2o2b2o146b2o2b2o
2b2o2b2o2b2o2b2o2b2o2b2o2b2o2b2o2b2o2b2o2b2o2b2o2b2o2b2o2b2o2b2o2b2o2b
2o2b2o2b2o2b2o2b2o2b2o2b2o2b2o2b2o2b2o2b2o2b2o2b2o90b2o2b2o2b2o2b2o2b
2o2b2o2b2o2b2o2b2o2b2o2b2o2b2o2b2o2b2o2b2o2b2o2b2o2b2o2b2o2b2o2b2o2b2o
2b2o2b2o2b2o2b2o2b2o2b2o2b2o2b2o2b2o2b2o2b2o2b2o2b2o2b2o2b2o2b2o2b2o2b
2o2b2o2b2o2b2o2b2o2b2o2b2o2b2o2b2o2b2o2b2o2b2o2b2o2b2o2b2o2b2o2b2o2b2o
2b2o90b2o2b2o2b2o2b2o2b2o2b2o2b2o2b2o2b2o2b2o2b2o2b2o2b2o2b2o2b2o2b2o
2b2o2b2o2b2o2b2o2b2o2b2o2b2o2b2o2b2o2b2o2b2o2b2o2b2o2b2o2b2o2b2o529b3o
7bo4b2o22b2o73b2o29bo457bobo30bobo23bobo29bobo748bobo113bobo11bo17bobo
23bobo17bo12bobo81bobo694bobo12bo17bobo23bobo17bo11bobo864bobo11bo17bo
bo23bobo17bo12bobo81bobo394bobo12bo17bobo23bobo17bo11bobo864bobo29bobo
23bobo30bobo81bobo$2o2b2o2b2o2b2o2b2o2b2o2b2o2b2o2b2o2b2o2b2o2b2o2b2o
2b2o2b2o2b2o2b2o2b2o2b2o2b2o2b2o2b2o2b2o2b2o2b2o2b2o2b2o2b2o2b2o2b2o2b
2o2b2o2b2o350b2o2b2o2b2o2b2o2b2o2b2o2b2o2b2o2b2o2b2o2b2o2b2o2b2o2b2o2b
2o2b2o2b2o2b2o2b2o2b2o2b2o2b2o2b2o2b2o2b2o2b2o2b2o2b2o2b2o2b2o2b2o2b2o
146b2o2b2o2b2o2b2o2b2o2b2o2b2o2b2o2b2o2b2o2b2o2b2o2b2o2b2o2b2o2b2o2b2o
2b2o2b2o2b2o2b2o2b2o2b2o2b2o2b2o2b2o2b2o2b2o2b2o2b2o2b2o2b2o90b2o2b2o
2b2o2b2o2b2o2b2o2b2o2b2o2b2o2b2o2b2o2b2o2b2o2b2o2b2o2b2o2b2o2b2o2b2o2b
2o2b2o2b2o2b2o2b2o2b2o2b2o2b2o2b2o2b2o2b2o2b2o2b2o2b2o2b2o2b2o2b2o2b2o
2b2o2b2o2b2o2b2o2b2o2b2o2b2o2b2o2b2o2b2o2b2o2b2o2b2o2b2o2b2o2b2o2b2o2b
2o2b2o2b2o2b2o90b2o2b2o2b2o2b2o2b2o2b2o2b2o2b2o2b2o2b2o2b2o2b2o2b2o2b
2o2b2o2b2o2b2o2b2o2b2o2b2o2b2o2b2o2b2o2b2o2b2o2b2o2b2o2b2o2b2o2b2o2b2o
2b2o528bo3bo5bo42b2o7bo31bo7b2o48b3o450b2o88b2o749b2o115b2o11bo2bo57bo
2bo12b2o83bo696b2o12bo2bo57bo2bo11b2o866b2o11bo2bo57bo2bo12b2o83bo396b
2o12bo2bo57bo2bo11b2o866b2o88b2o83bo$1941bo5bo46b2o7b3o29b3o7b2o46b2ob
o429bo7b2o114b2o7bo732b2o90bo7b2o24b3o59b3o25b2o7bo738bo7b2o25b3o59b3o
24b2o7bo732b2o5b3o82bo7b2o24b3o59b3o25b2o7bo438bo7b2o25b3o59b3o24b2o7b
o732b2o5b3o82bo7b2o114b2o7bo$1942bo3bo7b3o23b2o3b2o9bo5b5o27b5o5bo9b2o
3b2o32b2o430b3o7b2o30b2o49b2o29b2o7b3o731b2o89b3o7b2o112b2o7b3o736b3o
7b2o112b2o7b3o731b2o5bo83b3o7b2o112b2o7b3o55b2o379b3o7b2o112b2o7b3o
731b2o5bo83b3o7b2o29b2o49b2o30b2o7b3o$2o2b2o2b2o2b2o2b2o2b2o2b2o2b2o2b
2o2b2o2b2o2b2o2b2o2b2o2b2o2b2o2b2o2b2o2b2o2b2o2b2o2b2o2b2o2b2o2b2o2b2o
2b2o2b2o2b2o2b2o2b2o2b2o2b2o350b2o2b2o2b2o2b2o2b2o2b2o2b2o2b2o2b2o2b2o
2b2o2b2o2b2o2b2o2b2o2b2o2b2o2b2o2b2o2b2o2b2o2b2o2b2o2b2o2b2o2b2o2b2o2b
2o2b2o2b2o2b2o2b2o146b2o2b2o2b2o2b2o2b2o2b2o2b2o2b2o2b2o2b2o2b2o2b2o2b
2o2b2o2b2o2b2o2b2o2b2o2b2o2b2o2b2o2b2o2b2o2b2o2b2o2b2o2b2o2b2o2b2o2b2o
2b2o2b2o94b2o2b2o2b2o2b2o2b2o2b2o2b2o2b2o2b2o2b2o2b2o2b2o2b2o2b2o2b2o
2b2o2b2o2b2o2b2o2b2o2b2o2b2o2b2o2b2o2b2o2b2o2b2o2b2o2b2o2b2o2b2o2b2o2b
2o2b2o2b2o2b2o2b2o2b2o2b2o2b2o2b2o2b2o2b2o2b2o2b2o2b2o2b2o2b2o2b2o2b2o
2b2o2b2o2b2o2b2o2b2o2b2o94b2o2b2o2b2o2b2o2b2o2b2o2b2o2b2o2b2o2b2o2b2o
2b2o2b2o2b2o2b2o2b2o2b2o2b2o2b2o2b2o2b2o2b2o2b2o2b2o2b2o2b2o2b2o2b2o2b
2o2b2o2b2o2b2o529b3o8bo25b2o3b2o14b2o3b2o25b2o3b2o14b2o3b2o33b2o428b5o
5bo9b2o3b2o17b2o47b2o16b2o3b2o9bo5b5o820b5o5bo9b2o3b2o84b2o3b2o9bo5b5o
47b2o685b5o5bo9b2o3b2o84b2o3b2o9bo5b5o738bo81b5o5bo9b2o3b2o84b2o3b2o9b
o5b5o47b2o5b2o378b5o5bo9b2o3b2o84b2o3b2o9bo5b5o738bo81b5o5bo9b2o3b2o
16b2o47b2o17b2o3b2o9bo5b5o47b2o$2o2b2o2b2o2b2o2b2o2b2o2b2o2b2o2b2o2b2o
2b2o2b2o2b2o2b2o2b2o2b2o2b2o2b2o2b2o2b2o2b2o2b2o2b2o2b2o2b2o2b2o2b2o2b
2o2b2o2b2o2b2o2b2o2b2o350b2o2b2o2b2o2b2o2b2o2b2o2b2o2b2o2b2o2b2o2b2o2b
2o2b2o2b2o2b2o2b2o2b2o2b2o2b2o2b2o2b2o2b2o2b2o2b2o2b2o2b2o2b2o2b2o2b2o
2b2o2b2o2b2o146b2o2b2o2b2o2b2o2b2o2b2o2b2o2b2o2b2o2b2o2b2o2b2o2b2o2b2o
2b2o2b2o2b2o2b2o2b2o2b2o2b2o2b2o2b2o2b2o2b2o2b2o2b2o2b2o2b2o2b2o2b2o2b
2o94b2o2b2o2b2o2b2o2b2o2b2o2b2o2b2o2b2o2b2o2b2o2b2o2b2o2b2o2b2o2b2o2b
2o2b2o2b2o2b2o2b2o2b2o2b2o2b2o2b2o2b2o2b2o2b2o2b2o2b2o2b2o2b2o2b2o2b2o
2b2o2b2o2b2o2b2o2b2o2b2o2b2o2b2o2b2o2b2o2b2o2b2o2b2o2b2o2b2o2b2o2b2o2b
2o2b2o2b2o2b2o2b2o94b2o2b2o2b2o2b2o2b2o2b2o2b2o2b2o2b2o2b2o2b2o2b2o2b
2o2b2o2b2o2b2o2b2o2b2o2b2o2b2o2b2o2b2o2b2o2b2o2b2o2b2o2b2o2b2o2b2o2b2o
2b2o2b2o529bo2bo8bo125b2o12bobo425b2o3b2o14b2o3b2o16bo51bo15b2o3b2o14b
2o3b2o818b2o3b2o14b2o3b2o84b2o3b2o14b2o3b2o46b2o6b2o676b2o3b2o14b2o3b
2o84b2o3b2o14b2o3b2o818b2o3b2o14b2o3b2o84b2o3b2o14b2o3b2o46b2o384b2o3b
2o14b2o3b2o84b2o3b2o14b2o3b2o818b2o3b2o14b2o3b2o15bo51bo16b2o3b2o14b2o
3b2o46b2o6b2o$1944b3o35b3o71b3o23b2o11bo2b2o1281bo293b2o3358b2o$1944b
2obo34b3o16b2o35b2o16b3o22bo464b3o88b3o740bo123b3o88b3o778b3o88b3o864b
3o88b3o478b3o88b3o864b3o88b3o$2o2b2o2b2o2b2o2b2o2b2o2b2o2b2o2b2o2b2o2b
2o2b2o2b2o2b2o2b2o2b2o2b2o2b2o2b2o2b2o2b2o2b2o2b2o2b2o2b2o2b2o2b2o2b2o
2b2o2b2o2b2o2b2o2b2o350b2o2b2o2b2o2b2o2b2o2b2o2b2o2b2o2b2o2b2o2b2o2b2o
2b2o2b2o2b2o2b2o2b2o2b2o2b2o2b2o2b2o2b2o2b2o2b2o2b2o2b2o2b2o2b2o2b2o2b
2o2b2o2b2o146b2o2b2o2b2o2b2o2b2o2b2o2b2o2b2o2b2o2b2o2b2o2b2o2b2o2b2o2b
2o2b2o2b2o2b2o2b2o2b2o2b2o2b2o2b2o2b2o2b2o2b2o2b2o2b2o2b2o2b2o2b2o2b2o
98b2o2b2o2b2o2b2o2b2o2b2o2b2o2b2o2b2o2b2o2b2o2b2o2b2o2b2o2b2o2b2o2b2o
2b2o2b2o2b2o2b2o2b2o2b2o2b2o2b2o2b2o2b2o2b2o2b2o2b2o2b2o2b2o2b2o2b2o2b
2o2b2o2b2o2b2o2b2o2b2o2b2o2b2o2b2o2b2o2b2o2b2o2b2o2b2o2b2o2b2o2b2o2b2o
2b2o2b2o98b2o2b2o2b2o2b2o2b2o2b2o2b2o2b2o2b2o2b2o2b2o2b2o2b2o2b2o2b2o
2b2o2b2o2b2o2b2o2b2o2b2o2b2o2b2o2b2o2b2o2b2o2b2o2b2o2b2o2b2o2b2o2b2o
531bobo35bo16bo39bo16bo470b2o16b3o88b3o16b2o722b3o103b2o16b3o88b3o16b
2o68b2o672b2o16b3o88b3o16b2o828b2o16b3o88b3o16b2o68b2o372b2o16b3o88b3o
16b2o828b2o16b3o88b3o16b2o68b2o$2o2b2o2b2o2b2o2b2o2b2o2b2o2b2o2b2o2b2o
2b2o2b2o2b2o2b2o2b2o2b2o2b2o2b2o2b2o2b2o2b2o2b2o2b2o2b2o2b2o2b2o2b2o2b
2o2b2o2b2o2b2o2b2o2b2o350b2o2b2o2b2o2b2o2b2o2b2o2b2o2b2o2b2o2b2o2b2o2b
2o2b2o2b2o2b2o2b2o2b2o2b2o2b2o2b2o2b2o2b2o2b2o2b2o2b2o2b2o2b2o2b2o2b2o
2b2o2b2o2b2o146b2o2b2o2b2o2b2o2b2o2b2o2b2o2b2o2b2o2b2o2b2o2b2o2b2o2b2o
2b2o2b2o2b2o2b2o2b2o2b2o2b2o2b2o2b2o2b2o2b2o2b2o2b2o2b2o2b2o2b2o2b2o2b
2o98b2o2b2o2b2o2b2o2b2o2b2o2b2o2b2o2b2o2b2o2b2o2b2o2b2o2b2o2b2o2b2o2b
2o2b2o2b2o2b2o2b2o2b2o2b2o2b2o2b2o2b2o2b2o2b2o2b2o2b2o2b2o2b2o2b2o2b2o
2b2o2b2o2b2o2b2o2b2o2b2o2b2o2b2o2b2o2b2o2b2o2b2o2b2o2b2o2b2o2b2o2b2o2b
2o2b2o2b2o98b2o2b2o2b2o2b2o2b2o2b2o2b2o2b2o2b2o2b2o2b2o2b2o2b2o2b2o2b
2o2b2o2b2o2b2o2b2o2b2o2b2o2b2o2b2o2b2o2b2o2b2o2b2o2b2o2b2o2b2o2b2o2b2o
532bo56bo33bo492bo16bo90bo16bo832bo16bo90bo16bo70b2o674bo16bo90bo16bo
751b2o79bo16bo90bo16bo70b2o374bo16bo90bo16bo832bo16bo90bo16bo70b2o$
1962b2o36bo2bo33bo2bo486bo32bo65bo31bo826bo130bo125b2o613bo130bo748bob
o75bo130bo125b2o313bo130bo826bo31bo65bo32bo125b2o$1962bobo35b2ob2o31b
2ob2o486bo2bo29b2o18b3o21b3o18b2o28bo2bo826bo2bo48b3o21b3o49bo2bo52b2o
71b2o613bo2bo49b3o21b3o48bo2bo748bo77bo2bo48b3o21b3o49bo2bo52b2o71b2o
313bo2bo49b3o21b3o48bo2bo826bo2bo28b2o18b3o21b3o18b2o29bo2bo52b2o71b2o
$2o2b2o2b2o2b2o2b2o2b2o2b2o2b2o2b2o2b2o2b2o2b2o2b2o2b2o2b2o2b2o2b2o2b
2o2b2o2b2o2b2o2b2o2b2o2b2o2b2o2b2o2b2o2b2o2b2o2b2o2b2o2b2o2b2o350b2o2b
2o2b2o2b2o2b2o2b2o2b2o2b2o2b2o2b2o2b2o2b2o2b2o2b2o2b2o2b2o2b2o2b2o2b2o
2b2o2b2o2b2o2b2o2b2o2b2o2b2o2b2o2b2o2b2o2b2o2b2o2b2o146b2o2b2o2b2o2b2o
2b2o2b2o2b2o2b2o2b2o2b2o2b2o2b2o2b2o2b2o2b2o2b2o2b2o2b2o2b2o2b2o2b2o2b
2o2b2o2b2o2b2o2b2o2b2o2b2o2b2o2b2o2b2o2b2o102b2o2b2o2b2o2b2o2b2o2b2o2b
2o2b2o2b2o2b2o2b2o2b2o2b2o2b2o2b2o2b2o2b2o2b2o2b2o2b2o2b2o2b2o2b2o2b2o
2b2o2b2o2b2o2b2o2b2o2b2o2b2o2b2o2b2o2b2o2b2o2b2o2b2o2b2o2b2o2b2o2b2o2b
2o2b2o2b2o2b2o2b2o2b2o2b2o2b2o2b2o2b2o2b2o102b2o2b2o2b2o2b2o2b2o2b2o2b
2o2b2o2b2o2b2o2b2o2b2o2b2o2b2o2b2o2b2o2b2o2b2o2b2o2b2o2b2o2b2o2b2o2b2o
2b2o2b2o2b2o2b2o2b2o2b2o2b2o2b2o529b2o3b2o12bo39b2o33b2o35bo19b5o427b
2ob2o28bobo18bo2bo19bo2bo18bobo27b2ob2o824b2ob2o48bo2bo19bo2bo49b2ob2o
50bobo685b2ob2o49bo2bo19bo2bo48b2ob2o824b2ob2o48bo2bo19bo2bo49b2ob2o
50bobo385b2ob2o49bo2bo19bo2bo48b2ob2o824b2ob2o27bobo18bo2bo19bo2bo18bo
bo28b2ob2o50bobo$2o2b2o2b2o2b2o2b2o2b2o2b2o2b2o2b2o2b2o2b2o2b2o2b2o2b
2o2b2o2b2o2b2o2b2o2b2o2b2o2b2o2b2o2b2o2b2o2b2o2b2o2b2o2b2o2b2o2b2o2b2o
2b2o2b2o350b2o2b2o2b2o2b2o2b2o2b2o2b2o2b2o2b2o2b2o2b2o2b2o2b2o2b2o2b2o
2b2o2b2o2b2o2b2o2b2o2b2o2b2o2b2o2b2o2b2o2b2o2b2o2b2o2b2o2b2o2b2o2b2o
146b2o2b2o2b2o2b2o2b2o2b2o2b2o2b2o2b2o2b2o2b2o2b2o2b2o2b2o2b2o2b2o2b2o
2b2o2b2o2b2o2b2o2b2o2b2o2b2o2b2o2b2o2b2o2b2o2b2o2b2o2b2o2b2o102b2o2b2o
2b2o2b2o2b2o2b2o2b2o2b2o2b2o2b2o2b2o2b2o2b2o2b2o2b2o2b2o2b2o2b2o2b2o2b
2o2b2o2b2o2b2o2b2o2b2o2b2o2b2o2b2o2b2o2b2o2b2o2b2o2b2o2b2o2b2o2b2o2b2o
2b2o2b2o2b2o2b2o2b2o2b2o2b2o2b2o2b2o2b2o2b2o2b2o2b2o2b2o2b2o102b2o2b2o
2b2o2b2o2b2o2b2o2b2o2b2o2b2o2b2o2b2o2b2o2b2o2b2o2b2o2b2o2b2o2b2o2b2o2b
2o2b2o2b2o2b2o2b2o2b2o2b2o2b2o2b2o2b2o2b2o2b2o2b2o529bobobobo124b2o17b
ob3obo427b2o51bo25bo50b2o80b2o744b2o50bo25bo51b2o51bo688b2o51bo25bo50b
2o80b2o744b2o50bo25bo51b2o51bo388b2o51bo25bo50b2o80b2o744b2o50bo25bo
51b2o51bo$1944b5o34b2o71b2o15bobo18bo3bo481bo25bo132bo633bo163bo25bo
103b2o741bo25bo132bo797bo25bo103b2o441bo25bo132bo797bo25bo103b2o$1945b
3o35b2o14b2o3b2o29b2o3b2o14b2o37b3o439b2o8b2o21bo10bobo19bobo10bo21b2o
8b2o78b2o7bobo633bobo118b2o8b2o21bo10bobo19bobo10bo21b2o8b2o760b2o8b2o
21bo10bobo19bobo10bo21b2o8b2o78b2o7bobo754b2o8b2o21bo10bobo19bobo10bo
21b2o8b2o460b2o8b2o21bo10bobo19bobo10bo21b2o8b2o78b2o7bobo754b2o8b2o
21bo10bobo19bobo10bo21b2o8b2o$2o2b2o2b2o2b2o2b2o2b2o2b2o2b2o2b2o2b2o2b
2o2b2o2b2o2b2o2b2o2b2o2b2o2b2o2b2o2b2o2b2o2b2o2b2o2b2o2b2o2b2o2b2o2b2o
2b2o2b2o2b2o2b2o2b2o350b2o2b2o2b2o2b2o2b2o2b2o2b2o2b2o2b2o2b2o2b2o2b2o
2b2o2b2o2b2o2b2o2b2o2b2o2b2o2b2o2b2o2b2o2b2o2b2o2b2o2b2o2b2o2b2o2b2o2b
2o2b2o2b2o146b2o2b2o2b2o2b2o2b2o2b2o2b2o2b2o2b2o2b2o2b2o2b2o2b2o2b2o2b
2o2b2o2b2o2b2o2b2o2b2o2b2o2b2o2b2o2b2o2b2o2b2o2b2o2b2o2b2o2b2o2b2o2b2o
106b2o2b2o2b2o2b2o2b2o2b2o2b2o2b2o2b2o2b2o2b2o2b2o2b2o2b2o2b2o2b2o2b2o
2b2o2b2o2b2o2b2o2b2o2b2o2b2o2b2o2b2o2b2o2b2o2b2o2b2o2b2o2b2o2b2o2b2o2b
2o2b2o2b2o2b2o2b2o2b2o2b2o2b2o2b2o2b2o2b2o2b2o2b2o2b2o2b2o2b2o106b2o2b
2o2b2o2b2o2b2o2b2o2b2o2b2o2b2o2b2o2b2o2b2o2b2o2b2o2b2o2b2o2b2o2b2o2b2o
2b2o2b2o2b2o2b2o2b2o2b2o2b2o2b2o2b2o2b2o2b2o2b2o2b2o532bo52b2o3b2o29b
2o3b2o54bo428b2o3b2o5b2o8b2o19b3o45b3o19b2o8b2o4b2o3b2o67b2o7b2o634b2o
108b2o3b2o4b2o8b2o19b3o45b3o19b2o8b2o5b2o3b2o736b2o3b2o5b2o8b2o19b3o
45b3o19b2o8b2o4b2o3b2o67b2o7b2o744b2o3b2o4b2o8b2o19b3o45b3o19b2o8b2o5b
2o3b2o436b2o3b2o5b2o8b2o19b3o45b3o19b2o8b2o4b2o3b2o67b2o7b2o744b2o3b2o
4b2o8b2o19b3o45b3o19b2o8b2o5b2o3b2o$2o2b2o2b2o2b2o2b2o2b2o2b2o2b2o2b2o
2b2o2b2o2b2o2b2o2b2o2b2o2b2o2b2o2b2o2b2o2b2o2b2o2b2o2b2o2b2o2b2o2b2o2b
2o2b2o2b2o2b2o2b2o2b2o2b2o350b2o2b2o2b2o2b2o2b2o2b2o2b2o2b2o2b2o2b2o2b
2o2b2o2b2o2b2o2b2o2b2o2b2o2b2o2b2o2b2o2b2o2b2o2b2o2b2o2b2o2b2o2b2o2b2o
2b2o2b2o2b2o2b2o146b2o2b2o2b2o2b2o2b2o2b2o2b2o2b2o2b2o2b2o2b2o2b2o2b2o
2b2o2b2o2b2o2b2o2b2o2b2o2b2o2b2o2b2o2b2o2b2o2b2o2b2o2b2o2b2o2b2o2b2o2b
2o2b2o106b2o2b2o2b2o2b2o2b2o2b2o2b2o2b2o2b2o2b2o2b2o2b2o2b2o2b2o2b2o2b
2o2b2o2b2o2b2o2b2o2b2o2b2o2b2o2b2o2b2o2b2o2b2o2b2o2b2o2b2o2b2o2b2o2b2o
2b2o2b2o2b2o2b2o2b2o2b2o2b2o2b2o2b2o2b2o2b2o2b2o2b2o2b2o2b2o2b2o2b2o
106b2o2b2o2b2o2b2o2b2o2b2o2b2o2b2o2b2o2b2o2b2o2b2o2b2o2b2o2b2o2b2o2b2o
2b2o2b2o2b2o2b2o2b2o2b2o2b2o2b2o2b2o2b2o2b2o2b2o2b2o2b2o2b2o586b5o31b
5o484b2o3b2o35bo51bo34b2o3b2o54bo4bo10b2o750b2o3b2o34bo51bo35b2o3b2o
736b2o3b2o35bo51bo34b2o3b2o54bo4bo10b2o681b3o66b2o3b2o34bo51bo35b2o3b
2o436b2o3b2o35bo51bo34b2o3b2o54bo4bo10b2o750b2o3b2o34bo51bo35b2o3b2o$
1969b3o29bobo33bobo486b5o21b2o13b2o49b2o13b2o20b5o53bobo4bo10b3o750b5o
20b2o13b2o49b2o13b2o21b5o124bo613b5o21b2o13b2o49b2o13b2o20b5o53bobo4bo
10b3o680bo69b5o20b2o13b2o49b2o13b2o21b5o124bo313b5o21b2o13b2o49b2o13b
2o20b5o53bobo4bo10b3o750b5o20b2o13b2o49b2o13b2o21b5o124bo$1969bo557bob
o23b2o77b2o22bobo46b2o4b2o7bo10b2o752bobo22b2o77b2o23bobo124b3o613bobo
23b2o77b2o22bobo46b2o4b2o7bo10b2o682bo69bobo22b2o77b2o23bobo124b3o313b
obo23b2o77b2o22bobo46b2o4b2o7bo10b2o752bobo22b2o77b2o23bobo124b3o$2o2b
2o2b2o2b2o2b2o2b2o2b2o2b2o2b2o2b2o2b2o2b2o2b2o2b2o2b2o2b2o2b2o2b2o2b2o
2b2o2b2o2b2o2b2o2b2o2b2o2b2o2b2o2b2o2b2o2b2o2b2o2b2o2b2o350b2o2b2o2b2o
2b2o2b2o2b2o2b2o2b2o2b2o2b2o2b2o2b2o2b2o2b2o2b2o2b2o2b2o2b2o2b2o2b2o2b
2o2b2o2b2o2b2o2b2o2b2o2b2o2b2o2b2o2b2o2b2o2b2o146b2o2b2o2b2o2b2o2b2o2b
2o2b2o2b2o2b2o2b2o2b2o2b2o2b2o2b2o2b2o2b2o2b2o2b2o2b2o2b2o2b2o2b2o2b2o
2b2o2b2o2b2o2b2o2b2o2b2o2b2o2b2o2b2o110b2o2b2o2b2o2b2o2b2o2b2o2b2o2b2o
2b2o2b2o2b2o2b2o2b2o2b2o2b2o2b2o2b2o2b2o2b2o2b2o2b2o2b2o2b2o2b2o2b2o2b
2o2b2o2b2o2b2o2b2o2b2o2b2o2b2o2b2o2b2o2b2o2b2o2b2o2b2o2b2o2b2o2b2o2b2o
2b2o2b2o2b2o2b2o2b2o110b2o2b2o2b2o2b2o2b2o2b2o2b2o2b2o2b2o2b2o2b2o2b2o
2b2o2b2o2b2o2b2o2b2o2b2o2b2o2b2o2b2o2b2o2b2o2b2o2b2o2b2o2b2o2b2o2b2o2b
2o2b2o2b2o556bo30b3o33b3o26b2o28b2o454bo81bo70b2o4b2o11b2o2b2o779bo81b
o148b5o637bo81bo70b2o4b2o11b2o2b2o779bo81bo148b5o337bo81bo70b2o4b2o11b
2o2b2o779bo81bo148b5o$2o2b2o2b2o2b2o2b2o2b2o2b2o2b2o2b2o2b2o2b2o2b2o2b
2o2b2o2b2o2b2o2b2o2b2o2b2o2b2o2b2o2b2o2b2o2b2o2b2o2b2o2b2o2b2o2b2o2b2o
2b2o2b2o2b2o350b2o2b2o2b2o2b2o2b2o2b2o2b2o2b2o2b2o2b2o2b2o2b2o2b2o2b2o
2b2o2b2o2b2o2b2o2b2o2b2o2b2o2b2o2b2o2b2o2b2o2b2o2b2o2b2o2b2o2b2o2b2o2b
2o146b2o2b2o2b2o2b2o2b2o2b2o2b2o2b2o2b2o2b2o2b2o2b2o2b2o2b2o2b2o2b2o2b
2o2b2o2b2o2b2o2b2o2b2o2b2o2b2o2b2o2b2o2b2o2b2o2b2o2b2o2b2o2b2o110b2o2b
2o2b2o2b2o2b2o2b2o2b2o2b2o2b2o2b2o2b2o2b2o2b2o2b2o2b2o2b2o2b2o2b2o2b2o
2b2o2b2o2b2o2b2o2b2o2b2o2b2o2b2o2b2o2b2o2b2o2b2o2b2o2b2o2b2o2b2o2b2o2b
2o2b2o2b2o2b2o2b2o2b2o2b2o2b2o2b2o2b2o2b2o2b2o110b2o2b2o2b2o2b2o2b2o2b
2o2b2o2b2o2b2o2b2o2b2o2b2o2b2o2b2o2b2o2b2o2b2o2b2o2b2o2b2o2b2o2b2o2b2o
2b2o2b2o2b2o2b2o2b2o2b2o2b2o2b2o2b2o653b2o27b2o429b3o126b3o52b2o8b2o2b
o2b2o636bo118b3o126b3o27b2o93bobobobo611b3o126b3o52b2o8b2o2bo2b2o755b
3o126b3o27b2o93bobobobo311b3o126b3o52b2o8b2o2bo2b2o755b3o126b3o27b2o
93bobobobo$2066bo330bo315bobo5b4o640bo278b2o93b2o3b2o481bo315bobo5b4o
919b2o93b2o3b2o181bo315bobo5b4o919b2o93b2o3b2o$1945b2o450b3o315bo7bo
641b3o859b3o315bo7bo1203b3o315bo7bo$2o2b2o2b2o2b2o2b2o2b2o2b2o2b2o2b2o
2b2o2b2o2b2o2b2o2b2o2b2o2b2o2b2o2b2o2b2o2b2o2b2o2b2o2b2o2b2o2b2o2b2o2b
2o2b2o2b2o2b2o2b2o2b2o2b2o350b2o2b2o2b2o2b2o2b2o2b2o2b2o2b2o2b2o2b2o2b
2o2b2o2b2o2b2o2b2o2b2o2b2o2b2o2b2o2b2o2b2o2b2o2b2o2b2o2b2o2b2o2b2o2b2o
2b2o2b2o2b2o2b2o146b2o2b2o2b2o2b2o2b2o2b2o2b2o2b2o2b2o2b2o2b2o2b2o2b2o
2b2o2b2o2b2o2b2o2b2o2b2o2b2o2b2o2b2o2b2o2b2o2b2o2b2o2b2o2b2o2b2o2b2o2b
2o2b2o114b2o2b2o2b2o2b2o2b2o2b2o2b2o2b2o2b2o2b2o2b2o2b2o2b2o2b2o2b2o2b
2o2b2o2b2o2b2o2b2o2b2o2b2o2b2o2b2o2b2o2b2o2b2o2b2o2b2o2b2o2b2o2b2o2b2o
2b2o2b2o2b2o2b2o2b2o2b2o2b2o2b2o2b2o2b2o2b2o2b2o2b2o114b2o2b2o2b2o2b2o
2b2o2b2o2b2o2b2o2b2o2b2o2b2o2b2o2b2o2b2o2b2o2b2o2b2o2b2o2b2o2b2o2b2o2b
2o2b2o2b2o2b2o2b2o2b2o2b2o2b2o2b2o2b2o2b2o531b2o453bo163b3o53b3o898b3o
53b3o650bo163b3o53b3o799b2o97b3o53b3o350bo163b3o53b3o898b3o53b3o$2o2b
2o2b2o2b2o2b2o2b2o2b2o2b2o2b2o2b2o2b2o2b2o2b2o2b2o2b2o2b2o2b2o2b2o2b2o
2b2o2b2o2b2o2b2o2b2o2b2o2b2o2b2o2b2o2b2o2b2o2b2o2b2o2b2o350b2o2b2o2b2o
2b2o2b2o2b2o2b2o2b2o2b2o2b2o2b2o2b2o2b2o2b2o2b2o2b2o2b2o2b2o2b2o2b2o2b
2o2b2o2b2o2b2o2b2o2b2o2b2o2b2o2b2o2b2o2b2o2b2o146b2o2b2o2b2o2b2o2b2o2b
2o2b2o2b2o2b2o2b2o2b2o2b2o2b2o2b2o2b2o2b2o2b2o2b2o2b2o2b2o2b2o2b2o2b2o
2b2o2b2o2b2o2b2o2b2o2b2o2b2o2b2o2b2o114b2o2b2o2b2o2b2o2b2o2b2o2b2o2b2o
2b2o2b2o2b2o2b2o2b2o2b2o2b2o2b2o2b2o2b2o2b2o2b2o2b2o2b2o2b2o2b2o2b2o2b
2o2b2o2b2o2b2o2b2o2b2o2b2o2b2o2b2o2b2o2b2o2b2o2b2o2b2o2b2o2b2o2b2o2b2o
2b2o2b2o2b2o114b2o2b2o2b2o2b2o2b2o2b2o2b2o2b2o2b2o2b2o2b2o2b2o2b2o2b2o
2b2o2b2o2b2o2b2o2b2o2b2o2b2o2b2o2b2o2b2o2b2o2b2o2b2o2b2o2b2o2b2o2b2o2b
2o563b2o420b2o144bo17bo3bo51bo3bo17bo787b2o71bo17bo3bo51bo3bo17bo46bo
96bo486b2o144bo17bo3bo51bo3bo17bo780bobo4b2o71bo17bo3bo51bo3bo17bo46bo
96bo186b2o144bo17bo3bo51bo3bo17bo787b2o71bo17bo3bo51bo3bo17bo46bo96bo$
1977bobo21b2o35b2o495b2o3b2o3b2o15bo5bo11b3o21b3o11bo5bo15b2o3b2o3b2o
733b2o43bo61b2o3b2o3b2o15bo5bo11b3o21b3o11bo5bo15b2o3b2o3b2o35b3o94bob
o621b2o3b2o3b2o15bo5bo11b3o21b3o11bo5bo15b2o3b2o3b2o733b2o35bo7bo61b2o
3b2o3b2o15bo5bo11b3o21b3o11bo5bo15b2o3b2o3b2o35b3o94bobo321b2o3b2o3b2o
15bo5bo11b3o21b3o11bo5bo15b2o3b2o3b2o733b2o43bo61b2o3b2o3b2o15bo5bo11b
3o21b3o11bo5bo15b2o3b2o3b2o35b3o94bobo$1977bo23b2o35b2o19bo468b2o14bob
o15b2obob2o10bo2bo21bo2bo10b2obob2o15bobo14b2o71bobo651bo45bobo6bobo
43b2o14bobo15b2obob2o10bo2bo21bo2bo10b2obob2o15bobo14b2o27bo3bo93bob2o
613b2o14bobo15b2obob2o10bo2bo21bo2bo10b2obob2o15bobo14b2o71bobo651bo
45bobo6bobo43b2o14bobo15b2obob2o10bo2bo21bo2bo10b2obob2o15bobo14b2o27b
o3bo93bob2o313b2o14bobo15b2obob2o10bo2bo21bo2bo10b2obob2o15bobo14b2o
71bobo651bo45bobo6bobo43b2o14bobo15b2obob2o10bo2bo21bo2bo10b2obob2o15b
obo14b2o27bo3bo93bob2o$2o2b2o2b2o2b2o2b2o2b2o2b2o2b2o2b2o2b2o2b2o2b2o
2b2o2b2o2b2o2b2o2b2o2b2o2b2o2b2o2b2o2b2o2b2o2b2o2b2o2b2o2b2o2b2o2b2o2b
2o2b2o2b2o2b2o350b2o2b2o2b2o2b2o2b2o2b2o2b2o2b2o2b2o2b2o2b2o2b2o2b2o2b
2o2b2o2b2o2b2o2b2o2b2o2b2o2b2o2b2o2b2o2b2o2b2o2b2o2b2o2b2o2b2o2b2o2b2o
2b2o146b2o2b2o2b2o2b2o2b2o2b2o2b2o2b2o2b2o2b2o2b2o2b2o2b2o2b2o2b2o2b2o
2b2o2b2o2b2o2b2o2b2o2b2o2b2o2b2o2b2o2b2o2b2o2b2o2b2o2b2o2b2o2b2o118b2o
2b2o2b2o2b2o2b2o2b2o2b2o2b2o2b2o2b2o2b2o2b2o2b2o2b2o2b2o2b2o2b2o2b2o2b
2o2b2o2b2o2b2o2b2o2b2o2b2o2b2o2b2o2b2o2b2o2b2o2b2o2b2o2b2o2b2o2b2o2b2o
2b2o2b2o2b2o2b2o2b2o2b2o2b2o2b2o118b2o2b2o2b2o2b2o2b2o2b2o2b2o2b2o2b2o
2b2o2b2o2b2o2b2o2b2o2b2o2b2o2b2o2b2o2b2o2b2o2b2o2b2o2b2o2b2o2b2o2b2o2b
2o2b2o2b2o2b2o2b2o2b2o645b2o467b2o6bo3bo41bo21bo41bo3bo6b2o72b2o650bo
12b2o33b2o5bo2bo43b2o6bo3bo41bo21bo41bo3bo6b2o29bo96b3o613b2o6bo3bo41b
o21bo41bo3bo6b2o72b2o650bo12b2o33b2o5bo2bo43b2o6bo3bo41bo21bo41bo3bo6b
2o29bo96b3o313b2o6bo3bo41bo21bo41bo3bo6b2o72b2o650bo12b2o33b2o5bo2bo
43b2o6bo3bo41bo21bo41bo3bo6b2o29bo96b3o$2o2b2o2b2o2b2o2b2o2b2o2b2o2b2o
2b2o2b2o2b2o2b2o2b2o2b2o2b2o2b2o2b2o2b2o2b2o2b2o2b2o2b2o2b2o2b2o2b2o2b
2o2b2o2b2o2b2o2b2o2b2o2b2o2b2o350b2o2b2o2b2o2b2o2b2o2b2o2b2o2b2o2b2o2b
2o2b2o2b2o2b2o2b2o2b2o2b2o2b2o2b2o2b2o2b2o2b2o2b2o2b2o2b2o2b2o2b2o2b2o
2b2o2b2o2b2o2b2o2b2o146b2o2b2o2b2o2b2o2b2o2b2o2b2o2b2o2b2o2b2o2b2o2b2o
2b2o2b2o2b2o2b2o2b2o2b2o2b2o2b2o2b2o2b2o2b2o2b2o2b2o2b2o2b2o2b2o2b2o2b
2o2b2o2b2o118b2o2b2o2b2o2b2o2b2o2b2o2b2o2b2o2b2o2b2o2b2o2b2o2b2o2b2o2b
2o2b2o2b2o2b2o2b2o2b2o2b2o2b2o2b2o2b2o2b2o2b2o2b2o2b2o2b2o2b2o2b2o2b2o
2b2o2b2o2b2o2b2o2b2o2b2o2b2o2b2o2b2o2b2o2b2o2b2o118b2o2b2o2b2o2b2o2b2o
2b2o2b2o2b2o2b2o2b2o2b2o2b2o2b2o2b2o2b2o2b2o2b2o2b2o2b2o2b2o2b2o2b2o2b
2o2b2o2b2o2b2o2b2o2b2o2b2o2b2o2b2o2b2o644bobo341bo134b3o42bo21bo42b3o
81bo626bo14b2o8bo7bo4b2o39b2o10bo6bo37b3o42bo21bo42b3o35bo5bo93bo2bo
486bo134b3o42bo21bo42b3o81bo641b2o8bo7bo4b2o39b2o10bo6bo37b3o42bo21bo
42b3o35bo5bo93bo2bo186bo134b3o42bo21bo42b3o81bo641b2o8bo7bo4b2o39b2o
10bo6bo37b3o42bo21bo42b3o35bo5bo93bo2bo$2401b3o133b3o25bo13bobo23bobo
13bo25b3o708bobo12b2o8bo8b2o5b2o34b2o3bo8bo5bobo36b3o25bo13bobo23bobo
13bo25b3o35bo5bo94b3o485b3o133b3o25bo13bobo23bobo13bo25b3o723b2o8bo8b
2o5b2o34b2o3bo8bo5bobo36b3o25bo13bobo23bobo13bo25b3o35bo5bo94b3o185b3o
133b3o25bo13bobo23bobo13bo25b3o723b2o8bo8b2o5b2o34b2o3bo8bo5bobo36b3o
25bo13bobo23bobo13bo25b3o35bo5bo94b3o$2401b3o160bobo21b2o7b2o21bobo
735b2o24bo4b2o2bo5b3o5b2o28b2o9bo6b2obo4b2o56bobo21b2o7b2o21bobo63bo3b
o94bo3bo484b3o160bobo21b2o7b2o21bobo761bo4b2o2bo5b3o5b2o28b2o9bo6b2obo
4b2o56bobo21b2o7b2o21bobo63bo3bo94bo3bo184b3o160bobo21b2o7b2o21bobo
761bo4b2o2bo5b3o5b2o28b2o9bo6b2obo4b2o56bobo21b2o7b2o21bobo63bo3bo94bo
3bo$2o2b2o2b2o2b2o2b2o2b2o2b2o2b2o2b2o2b2o2b2o2b2o2b2o2b2o2b2o2b2o2b2o
2b2o2b2o2b2o2b2o2b2o2b2o2b2o2b2o2b2o2b2o2b2o2b2o2b2o2b2o2b2o2b2o350b2o
2b2o2b2o2b2o2b2o2b2o2b2o2b2o2b2o2b2o2b2o2b2o2b2o2b2o2b2o2b2o2b2o2b2o2b
2o2b2o2b2o2b2o2b2o2b2o2b2o2b2o2b2o2b2o2b2o2b2o2b2o2b2o146b2o2b2o2b2o2b
2o2b2o2b2o2b2o2b2o2b2o2b2o2b2o2b2o2b2o2b2o2b2o2b2o2b2o2b2o2b2o2b2o2b2o
2b2o2b2o2b2o2b2o2b2o2b2o2b2o2b2o2b2o2b2o2b2o122b2o2b2o2b2o2b2o2b2o2b2o
2b2o2b2o2b2o2b2o2b2o2b2o2b2o2b2o2b2o2b2o2b2o2b2o2b2o2b2o2b2o2b2o2b2o2b
2o2b2o2b2o2b2o2b2o2b2o2b2o2b2o2b2o2b2o2b2o2b2o2b2o2b2o2b2o2b2o2b2o2b2o
2b2o122b2o2b2o2b2o2b2o2b2o2b2o2b2o2b2o2b2o2b2o2b2o2b2o2b2o2b2o2b2o2b2o
2b2o2b2o2b2o2b2o2b2o2b2o2b2o2b2o2b2o2b2o2b2o2b2o2b2o2b2o2b2o2b2o1150bo
bo21b2o7b2o21bobo762b2ob5o6b2o6b2o29bo2bo2b2o9b2ob2o3b2o56bobo21b2o7b
2o21bobo64b3o94bo5bo646bobo21b2o7b2o21bobo762b2ob5o6b2o6b2o20b3o6bo2bo
2b2o9b2ob2o3b2o56bobo21b2o7b2o21bobo64b3o94bo5bo346bobo21b2o7b2o21bobo
762b2ob5o6b2o6b2o29bo2bo2b2o9b2ob2o3b2o56bobo21b2o7b2o21bobo64b3o94bo
5bo$2o2b2o2b2o2b2o2b2o2b2o2b2o2b2o2b2o2b2o2b2o2b2o2b2o2b2o2b2o2b2o2b2o
2b2o2b2o2b2o2b2o2b2o2b2o2b2o2b2o2b2o2b2o2b2o2b2o2b2o2b2o2b2o2b2o350b2o
2b2o2b2o2b2o2b2o2b2o2b2o2b2o2b2o2b2o2b2o2b2o2b2o2b2o2b2o2b2o2b2o2b2o2b
2o2b2o2b2o2b2o2b2o2b2o2b2o2b2o2b2o2b2o2b2o2b2o2b2o2b2o146b2o2b2o2b2o2b
2o2b2o2b2o2b2o2b2o2b2o2b2o2b2o2b2o2b2o2b2o2b2o2b2o2b2o2b2o2b2o2b2o2b2o
2b2o2b2o2b2o2b2o2b2o2b2o2b2o2b2o2b2o2b2o2b2o122b2o2b2o2b2o2b2o2b2o2b2o
2b2o2b2o2b2o2b2o2b2o2b2o2b2o2b2o2b2o2b2o2b2o2b2o2b2o2b2o2b2o2b2o2b2o2b
2o2b2o2b2o2b2o2b2o2b2o2b2o2b2o2b2o2b2o2b2o2b2o2b2o2b2o2b2o2b2o2b2o2b2o
2b2o122b2o2b2o2b2o2b2o2b2o2b2o2b2o2b2o2b2o2b2o2b2o2b2o2b2o2b2o2b2o2b2o
2b2o2b2o2b2o2b2o2b2o2b2o2b2o2b2o2b2o2b2o2b2o2b2o2b2o2b2o2b2o2b2o570b3o
412b2o3b2o134bo23b2o55b2o23bo744bo4b2o41bobo2bo2b3o5b2obo38bo23b2o55b
2o23bo132bo5bo3bo482b2o3b2o134bo23b2o55b2o23bo744bo4b2o31bo9bobo2bo2b
3o5b2obo38bo23b2o55b2o23bo132bo5bo3bo182b2o3b2o134bo23b2o55b2o23bo744b
o4b2o41bobo2bo2b3o5b2obo38bo23b2o55b2o23bo132bo5bo3bo$1984bo414b2o3b2o
133b3o21bo59bo21b3o90bo657b2o46b4o7bobo38b3o21bo59bo21b3o130bo7b3o483b
2o3b2o133b3o21bo59bo21b3o90bo657b2o32bo13b4o7bobo38b3o21bo59bo21b3o
130bo7b3o183b2o3b2o133b3o21bo59bo21b3o90bo657b2o46b4o7bobo38b3o21bo59b
o21b3o130bo7b3o$1985bo65b2o485bo3bo19b3o57b3o19bo3bo64bo25b2o643bobo
58b2o9bo38bo3bo19b3o57b3o19bo3bo129b3o630bo3bo19b3o57b3o19bo3bo64bo25b
2o13bo2bo26bo2bo26bo2bo26bo2bo26bo2bo26bo2bo26bo2bo26bo2bo26bo2bo26bo
2bo26bo2bo26bo2bo26bo2bo26bo2bo26bo2bo26bo2bo26bo2bo26bo2bo26bo2bo26bo
2bo26bo2bo26bobo58b2o9bo38bo3bo19b3o57b3o19bo3bo129b3o330bo3bo19b3o57b
3o19bo3bo64bo25b2o13bo2bo26bo2bo26bo2bo26bo2bo26bo2bo26bo2bo26bo2bo26b
o2bo26bo2bo26bo2bo26bo2bo26bo2bo26bo2bo26bo2bo26bo2bo26bo2bo26bo2bo26b
o2bo26bo2bo26bo2bo26bo2bo26bobo58b2o9bo38bo3bo19b3o57b3o19bo3bo129b3o$
2o2b2o2b2o2b2o2b2o2b2o2b2o2b2o2b2o2b2o2b2o2b2o2b2o2b2o2b2o2b2o2b2o2b2o
2b2o2b2o2b2o2b2o2b2o2b2o2b2o2b2o2b2o2b2o2b2o2b2o2b2o2b2o2b2o350b2o2b2o
2b2o2b2o2b2o2b2o2b2o2b2o2b2o2b2o2b2o2b2o2b2o2b2o2b2o2b2o2b2o2b2o2b2o2b
2o2b2o2b2o2b2o2b2o2b2o2b2o2b2o2b2o2b2o2b2o2b2o2b2o146b2o2b2o2b2o2b2o2b
2o2b2o2b2o2b2o2b2o2b2o2b2o2b2o2b2o2b2o2b2o2b2o2b2o2b2o2b2o2b2o2b2o2b2o
2b2o2b2o2b2o2b2o2b2o2b2o2b2o2b2o2b2o2b2o126b2o2b2o2b2o2b2o2b2o2b2o2b2o
2b2o2b2o2b2o2b2o2b2o2b2o2b2o2b2o2b2o2b2o2b2o2b2o2b2o2b2o2b2o2b2o2b2o2b
2o2b2o2b2o2b2o2b2o2b2o2b2o2b2o2b2o2b2o2b2o2b2o2b2o2b2o2b2o2b2o126b2o2b
2o2b2o2b2o2b2o2b2o2b2o2b2o2b2o2b2o2b2o2b2o2b2o2b2o2b2o2b2o2b2o2b2o2b2o
2b2o2b2o2b2o2b2o2b2o2b2o2b2o2b2o2b2o2b2o2b2o2b2o2b2o638b2o486bo20bo3bo
55bo3bo20bo65bobo23b2o628b4o11bo113bo20bo3bo55bo3bo20bo24bo741bo20bo3b
o55bo3bo20bo65bobo23b2o13bo14b4o11bo14b4o11bo14b4o11bo14b4o11bo14b4o
11bo14b4o11bo14b4o11bo14b4o11bo14b4o11bo14b4o11bo14b4o11bo14b4o11bo14b
4o11bo14b4o11bo14b4o11bo14b4o11bo14b4o11bo14b4o11bo14b4o11bo14b4o11bo
14b4o11bo113bo20bo3bo55bo3bo20bo24bo441bo20bo3bo55bo3bo20bo65bobo23b2o
13bo14b4o11bo14b4o11bo14b4o11bo14b4o11bo14b4o11bo14b4o11bo14b4o11bo14b
4o11bo14b4o11bo14b4o11bo14b4o11bo14b4o11bo14b4o11bo14b4o11bo14b4o11bo
14b4o11bo14b4o11bo14b4o11bo14b4o11bo14b4o11bo14b4o11bo113bo20bo3bo55bo
3bo20bo24bo$2o2b2o2b2o2b2o2b2o2b2o2b2o2b2o2b2o2b2o2b2o2b2o2b2o2b2o2b2o
2b2o2b2o2b2o2b2o2b2o2b2o2b2o2b2o2b2o2b2o2b2o2b2o2b2o2b2o2b2o2b2o2b2o2b
2o350b2o2b2o2b2o2b2o2b2o2b2o2b2o2b2o2b2o2b2o2b2o2b2o2b2o2b2o2b2o2b2o2b
2o2b2o2b2o2b2o2b2o2b2o2b2o2b2o2b2o2b2o2b2o2b2o2b2o2b2o2b2o2b2o146b2o2b
2o2b2o2b2o2b2o2b2o2b2o2b2o2b2o2b2o2b2o2b2o2b2o2b2o2b2o2b2o2b2o2b2o2b2o
2b2o2b2o2b2o2b2o2b2o2b2o2b2o2b2o2b2o2b2o2b2o2b2o2b2o126b2o2b2o2b2o2b2o
2b2o2b2o2b2o2b2o2b2o2b2o2b2o2b2o2b2o2b2o2b2o2b2o2b2o2b2o2b2o2b2o2b2o2b
2o2b2o2b2o2b2o2b2o2b2o2b2o2b2o2b2o2b2o2b2o2b2o2b2o2b2o2b2o2b2o2b2o2b2o
2b2o126b2o2b2o2b2o2b2o2b2o2b2o2b2o2b2o2b2o2b2o2b2o2b2o2b2o2b2o2b2o2b2o
2b2o2b2o2b2o2b2o2b2o2b2o2b2o2b2o2b2o2b2o2b2o2b2o2b2o2b2o2b2o2b2o637bo
349b2o134bo5bo16bob3obo53bob3obo16bo5bo62b2obo7b2o625b2o2b2obo10bo3bo
10bo3bo106bo5bo16bob3obo53bob3obo16bo5bo21bo14bo587b2o134bo5bo16bob3ob
o53bob3obo16bo5bo62b2obo7b2o28bo3bo10bo3bo10bo3bo10bo3bo10bo3bo10bo3bo
10bo3bo10bo3bo10bo3bo10bo3bo10bo3bo10bo3bo10bo3bo10bo3bo10bo3bo10bo3bo
10bo3bo10bo3bo10bo3bo10bo3bo10bo3bo10bo3bo10bo3bo10bo3bo10bo3bo10bo3bo
10bo3bo10bo3bo10bo3bo10bo3bo10bo3bo10bo3bo10bo3bo10bo3bo10bo3bo10bo3bo
10bo3bo10bo3bo10bo3bo10bo3bo10bo3bo10bo3bo10bo3bo106bo5bo16bob3obo53bo
b3obo16bo5bo21bo14bo287b2o134bo5bo16bob3obo53bob3obo16bo5bo62b2obo7b2o
28bo3bo10bo3bo10bo3bo10bo3bo10bo3bo10bo3bo10bo3bo10bo3bo10bo3bo10bo3bo
10bo3bo10bo3bo10bo3bo10bo3bo10bo3bo10bo3bo10bo3bo10bo3bo10bo3bo10bo3bo
10bo3bo10bo3bo10bo3bo10bo3bo10bo3bo10bo3bo10bo3bo10bo3bo10bo3bo10bo3bo
10bo3bo10bo3bo10bo3bo10bo3bo10bo3bo10bo3bo10bo3bo10bo3bo10bo3bo10bo3bo
10bo3bo10bo3bo10bo3bo106bo5bo16bob3obo53bob3obo16bo5bo21bo14bo$2174bo
226bobo133bo5bo17b5o4bo45bo4b5o17bo5bo45bo16b2ob2o6bobo624b4o14bo14b4o
107bo5bo17b5o4bo45bo4b5o17bo5bo624bobo133bo5bo17b5o4bo45bo4b5o17bo5bo
45bo16b2ob2o6bobo27b4o11bo14b4o11bo14b4o11bo14b4o11bo14b4o11bo14b4o11b
o14b4o11bo14b4o11bo14b4o11bo14b4o11bo14b4o11bo14b4o11bo14b4o11bo14b4o
11bo14b4o11bo14b4o11bo14b4o11bo14b4o11bo14b4o11bo14b4o11bo14b4o11bo14b
4o107bo5bo17b5o4bo45bo4b5o17bo5bo324bobo133bo5bo17b5o4bo45bo4b5o17bo5b
o45bo16b2ob2o6bobo27b4o11bo14b4o11bo14b4o11bo14b4o11bo14b4o11bo14b4o
11bo14b4o11bo14b4o11bo14b4o11bo14b4o11bo14b4o11bo14b4o11bo14b4o11bo14b
4o11bo14b4o11bo14b4o11bo14b4o11bo14b4o11bo14b4o11bo14b4o11bo14b4o11bo
14b4o107bo5bo17b5o4bo45bo4b5o17bo5bo$2174b3o223bo2b2o133bo3bo28b2o41b
2o28bo3bo46b2o15b2obob3o6bo625b2o15bo2bo65bo56bo3bo28b2o41b2o28bo3bo
22bo601bo2b2o133bo3bo28b2o41b2o28bo3bo46b2o15b2obob3o6bo17bo24bo2bo26b
o2bo26bo2bo26bo2bo26bo2bo26bo2bo26bo2bo26bo2bo26bo2bo26bo2bo26bo2bo26b
o2bo26bo2bo26bo2bo26bo2bo26bo2bo26bo2bo26bo2bo26bo2bo26bo2bo26bo2bo64b
2o2b2o52bo3bo28b2o41b2o28bo3bo22bo301bo2b2o133bo3bo28b2o41b2o28bo3bo
46b2o15b2obob3o6bo17bo24bo2bo26bo2bo26bo2bo26bo2bo26bo2bo26bo2bo26bo2b
o26bo2bo26bo2bo26bo2bo26bo2bo26bo2bo26bo2bo26bo2bo26bo2bo26bo2bo26bo2b
o26bo2bo26bo2bo26bo2bo26bo2bo65bo56bo3bo28b2o41b2o28bo3bo22bo$2o2b2o2b
2o2b2o2b2o2b2o2b2o2b2o2b2o2b2o2b2o2b2o2b2o2b2o2b2o2b2o2b2o2b2o2b2o2b2o
2b2o2b2o2b2o2b2o2b2o2b2o2b2o2b2o2b2o2b2o2b2o2b2o2b2o350b2o2b2o2b2o2b2o
2b2o2b2o2b2o2b2o2b2o2b2o2b2o2b2o2b2o2b2o2b2o2b2o2b2o2b2o2b2o2b2o2b2o2b
2o2b2o2b2o2b2o2b2o2b2o2b2o2b2o2b2o2b2o2b2o146b2o2b2o2b2o2b2o2b2o2b2o2b
2o2b2o2b2o2b2o2b2o2b2o2b2o2b2o2b2o2b2o2b2o2b2o2b2o2b2o2b2o2b2o2b2o2b2o
2b2o2b2o2b2o2b2o2b2o2b2o2b2o2b2o130b2o2b2o2b2o2b2o2b2o2b2o2b2o2b2o2b2o
2b2o2b2o2b2o2b2o2b2o2b2o2b2o2b2o2b2o2b2o2b2o2b2o2b2o2b2o2b2o2b2o2b2o2b
2o2b2o2b2o2b2o2b2o2b2o2b2o2b2o2b2o2b2o2b2o2b2o130b2o2b2o2b2o2b2o2b2o2b
2o2b2o2b2o2b2o2b2o2b2o2b2o2b2o2b2o2b2o2b2o2b2o2b2o2b2o2b2o2b2o2b2o2b2o
2b2o2b2o2b2o2b2o2b2o2b2o2b2o2b2o2b2o578b2o183bo224b2o135b3o28b2o43b2o
28b3o35b2o11b2o14bobo2bo2bo2bo2bo709b2o58b3o28b2o43b2o28b3o22bobo13bo
588b2o135b3o28b2o43b2o28b3o35b2o11b2o14bobo2bo2bo2bo2bo17bo692bobo3bo
52b3o28b2o43b2o28b3o22bobo13bo288b2o135b3o28b2o43b2o28b3o35b2o11b2o14b
obo2bo2bo2bo2bo17bo691b2o58b3o28b2o43b2o28b3o22bobo13bo$2o2b2o2b2o2b2o
2b2o2b2o2b2o2b2o2b2o2b2o2b2o2b2o2b2o2b2o2b2o2b2o2b2o2b2o2b2o2b2o2b2o2b
2o2b2o2b2o2b2o2b2o2b2o2b2o2b2o2b2o2b2o2b2o2b2o350b2o2b2o2b2o2b2o2b2o2b
2o2b2o2b2o2b2o2b2o2b2o2b2o2b2o2b2o2b2o2b2o2b2o2b2o2b2o2b2o2b2o2b2o2b2o
2b2o2b2o2b2o2b2o2b2o2b2o2b2o2b2o2b2o146b2o2b2o2b2o2b2o2b2o2b2o2b2o2b2o
2b2o2b2o2b2o2b2o2b2o2b2o2b2o2b2o2b2o2b2o2b2o2b2o2b2o2b2o2b2o2b2o2b2o2b
2o2b2o2b2o2b2o2b2o2b2o2b2o130b2o2b2o2b2o2b2o2b2o2b2o2b2o2b2o2b2o2b2o2b
2o2b2o2b2o2b2o2b2o2b2o2b2o2b2o2b2o2b2o2b2o2b2o2b2o2b2o2b2o2b2o2b2o2b2o
2b2o2b2o2b2o2b2o2b2o2b2o2b2o2b2o2b2o2b2o130b2o2b2o2b2o2b2o2b2o2b2o2b2o
2b2o2b2o2b2o2b2o2b2o2b2o2b2o2b2o2b2o2b2o2b2o2b2o2b2o2b2o2b2o2b2o2b2o2b
2o2b2o2b2o2b2o2b2o2b2o2b2o2b2o578bobo181b2o6b2o216b2o27bo148b3o5b3o5b
3o5b3o75b3o3bo7b3o14bo4b2o6bo710b2o98b3o5b3o5b3o5b3o79bobo82bo503b2o
27bo148b3o5b3o5b3o5b3o75b3o3bo7b3o14bo4b2o6bo710bo4bo94b3o5b3o5b3o5b3o
79bobo82bo203b2o27bo148b3o5b3o5b3o5b3o75b3o3bo7b3o14bo4b2o6bo710b2o98b
3o5b3o5b3o5b3o79bobo82bo$1992bo51bo138bobo217bo25b3o148bo2bo3bo3bo3bo
3bo3bo2bo72bob2o4b4o5b2o25bobo6b2o11bobo647bo141bo2bo3bo3bo3bo3bo3bo2b
o63b3o13b2o83bobo15b2o485bo25b3o148bo2bo3bo3bo3bo3bo3bo2bo72bob2o4b4o
5b2o25bobo6b2o661bo141bo2bo3bo3bo3bo3bo3bo2bo63b3o13b2o83bobo15b2o185b
o25b3o148bo2bo3bo3bo3bo3bo3bo2bo72bob2o4b4o5b2o25bobo6b2o661bo141bo2bo
3bo3bo3bo3bo3bo2bo63b3o13b2o83bobo15b2o$2044b2o138bo243bo151bo5bo5bobo
5bo5bo65b2o5bo2bo4bo4bo2b2o26b2o7bobo11b2o646b2o141bo5bo5bobo5bo5bo
164b2o16bo511bo151bo5bo5bobo5bo5bo65b2o5bo2bo4bo4bo2b2o26b2o7bobo659b
2o45bo95bo5bo5bobo5bo5bo164b2o16bo211bo151bo5bo5bobo5bo5bo65b2o5bo2bo
4bo4bo2b2o26b2o7bobo659b2o141bo5bo5bobo5bo5bo164b2o16bo$2o2b2o2b2o2b2o
2b2o2b2o2b2o2b2o2b2o2b2o2b2o2b2o2b2o2b2o2b2o2b2o2b2o2b2o2b2o2b2o2b2o2b
2o2b2o2b2o2b2o2b2o2b2o2b2o2b2o2b2o2b2o2b2o2b2o350b2o2b2o2b2o2b2o2b2o2b
2o2b2o2b2o2b2o2b2o2b2o2b2o2b2o2b2o2b2o2b2o2b2o2b2o2b2o2b2o2b2o2b2o2b2o
2b2o2b2o2b2o2b2o2b2o2b2o2b2o2b2o2b2o146b2o2b2o2b2o2b2o2b2o2b2o2b2o2b2o
2b2o2b2o2b2o2b2o2b2o2b2o2b2o2b2o2b2o2b2o2b2o2b2o2b2o2b2o2b2o2b2o2b2o2b
2o2b2o2b2o2b2o2b2o2b2o2b2o134b2o2b2o2b2o2b2o2b2o2b2o2b2o2b2o2b2o2b2o2b
2o2b2o2b2o2b2o2b2o2b2o2b2o2b2o2b2o2b2o2b2o2b2o2b2o2b2o2b2o2b2o2b2o2b2o
2b2o2b2o2b2o2b2o2b2o2b2o2b2o2b2o134b2o2b2o2b2o2b2o2b2o2b2o2b2o2b2o2b2o
2b2o2b2o2b2o2b2o2b2o2b2o2b2o2b2o2b2o2b2o2b2o2b2o2b2o2b2o2b2o2b2o2b2o2b
2o2b2o2b2o2b2o2b2o2b2o629bobo351bo5bo24b2o150bo2bo2bo5bobo5bo2bo2bo65b
2o5bob2o5bo3bo2bo38bo11bo647bobo42b2o96bo2bo2bo5bobo5bo2bo2bo183b3o
477bo5bo24b2o150bo2bo2bo5bobo5bo2bo2bo65b2o5bob2o5bo3bo2bo38bo659bobo
41bo2bo95bo2bo2bo5bobo5bo2bo2bo183b3o177bo5bo24b2o150bo2bo2bo5bobo5bo
2bo2bo65b2o5bob2o5bo3bo2bo38bo659bobo42b2o96bo2bo2bo5bobo5bo2bo2bo183b
3o$2o2b2o2b2o2b2o2b2o2b2o2b2o2b2o2b2o2b2o2b2o2b2o2b2o2b2o2b2o2b2o2b2o
2b2o2b2o2b2o2b2o2b2o2b2o2b2o2b2o2b2o2b2o2b2o2b2o2b2o2b2o2b2o2b2o350b2o
2b2o2b2o2b2o2b2o2b2o2b2o2b2o2b2o2b2o2b2o2b2o2b2o2b2o2b2o2b2o2b2o2b2o2b
2o2b2o2b2o2b2o2b2o2b2o2b2o2b2o2b2o2b2o2b2o2b2o2b2o2b2o146b2o2b2o2b2o2b
2o2b2o2b2o2b2o2b2o2b2o2b2o2b2o2b2o2b2o2b2o2b2o2b2o2b2o2b2o2b2o2b2o2b2o
2b2o2b2o2b2o2b2o2b2o2b2o2b2o2b2o2b2o2b2o2b2o134b2o2b2o2b2o2b2o2b2o2b2o
2b2o2b2o2b2o2b2o2b2o2b2o2b2o2b2o2b2o2b2o2b2o2b2o2b2o2b2o2b2o2b2o2b2o2b
2o2b2o2b2o2b2o2b2o2b2o2b2o2b2o2b2o2b2o2b2o2b2o2b2o134b2o2b2o2b2o2b2o2b
2o2b2o2b2o2b2o2b2o2b2o2b2o2b2o2b2o2b2o2b2o2b2o2b2o2b2o2b2o2b2o2b2o2b2o
2b2o2b2o2b2o2b2o2b2o2b2o2b2o2b2o2b2o2b2o764b2o217bo5bo177bo23bo76b3o3b
2obo18bobo21b2o683b2o18b2o97bo23bo64b3o87b2o30bo477bo5bo177bo23bo76b3o
3b2obo18bobo21b2o683b2o18b2o8bo88bo23bo64b3o87b2o30bo177bo5bo177bo23bo
76b3o3b2obo18bobo21b2o683b2o18b2o97bo23bo64b3o87b2o30bo$2171b2o5b2o
218bo3bo6bo176bo13bo82b2o25b2o669bo37bo123bo13bo86b2o3b2o66b2o509bo3bo
6bo176bo13bo82b2o25b2o669bo37bo28b2o93bo13bo86b2o3b2o66b2o209bo3bo6bo
176bo13bo82b2o25b2o669bo37bo123bo13bo86b2o3b2o66b2o$2171b2o226b3o5bobo
176b2o11b2o110bo669b2o25b2o7bobo9bobo111b2o11b2o69bobo6bo592b3o5bobo
176b2o11b2o110bo669b2o25b2o7bobo28bobo92b2o11b2o69bobo6bo292b3o5bobo
176b2o11b2o110bo669b2o25b2o7bobo9bobo111b2o11b2o69bobo6bo$2o2b2o2b2o2b
2o2b2o2b2o2b2o2b2o2b2o2b2o2b2o2b2o2b2o2b2o2b2o2b2o2b2o2b2o2b2o2b2o2b2o
2b2o2b2o2b2o2b2o2b2o2b2o2b2o2b2o2b2o2b2o2b2o2b2o350b2o2b2o2b2o2b2o2b2o
2b2o2b2o2b2o2b2o2b2o2b2o2b2o2b2o2b2o2b2o2b2o2b2o2b2o2b2o2b2o2b2o2b2o2b
2o2b2o2b2o2b2o2b2o2b2o2b2o2b2o2b2o2b2o146b2o2b2o2b2o2b2o2b2o2b2o2b2o2b
2o2b2o2b2o2b2o2b2o2b2o2b2o2b2o2b2o2b2o2b2o2b2o2b2o2b2o2b2o2b2o2b2o2b2o
2b2o2b2o2b2o2b2o2b2o2b2o2b2o138b2o2b2o2b2o2b2o2b2o2b2o2b2o2b2o2b2o2b2o
2b2o2b2o2b2o2b2o2b2o2b2o2b2o2b2o2b2o2b2o2b2o2b2o2b2o2b2o2b2o2b2o2b2o2b
2o2b2o2b2o2b2o2b2o2b2o2b2o138b2o2b2o2b2o2b2o2b2o2b2o2b2o2b2o2b2o2b2o2b
2o2b2o2b2o2b2o2b2o2b2o2b2o2b2o2b2o2b2o2b2o2b2o2b2o2b2o2b2o2b2o2b2o2b2o
2b2o2b2o2b2o2b2o585b3o406b2o176b2o11b2o779bobo18bob2o3b3o6b2o10b2o112b
2o11b2o70bo6bo9bo3bo71bo516b2o176b2o11b2o779bobo18bob2o3b3o6b2o124b2o
11b2o70bo6bo9bo3bo71bo216b2o176b2o11b2o779bobo18bob2o3b3o6b2o10b2o112b
2o11b2o70bo6bo9bo3bo71bo$2o2b2o2b2o2b2o2b2o2b2o2b2o2b2o2b2o2b2o2b2o2b
2o2b2o2b2o2b2o2b2o2b2o2b2o2b2o2b2o2b2o2b2o2b2o2b2o2b2o2b2o2b2o2b2o2b2o
2b2o2b2o2b2o2b2o350b2o2b2o2b2o2b2o2b2o2b2o2b2o2b2o2b2o2b2o2b2o2b2o2b2o
2b2o2b2o2b2o2b2o2b2o2b2o2b2o2b2o2b2o2b2o2b2o2b2o2b2o2b2o2b2o2b2o2b2o2b
2o2b2o146b2o2b2o2b2o2b2o2b2o2b2o2b2o2b2o2b2o2b2o2b2o2b2o2b2o2b2o2b2o2b
2o2b2o2b2o2b2o2b2o2b2o2b2o2b2o2b2o2b2o2b2o2b2o2b2o2b2o2b2o2b2o2b2o138b
2o2b2o2b2o2b2o2b2o2b2o2b2o2b2o2b2o2b2o2b2o2b2o2b2o2b2o2b2o2b2o2b2o2b2o
2b2o2b2o2b2o2b2o2b2o2b2o2b2o2b2o2b2o2b2o2b2o2b2o2b2o2b2o2b2o2b2o138b2o
2b2o2b2o2b2o2b2o2b2o2b2o2b2o2b2o2b2o2b2o2b2o2b2o2b2o2b2o2b2o2b2o2b2o2b
2o2b2o2b2o2b2o2b2o2b2o2b2o2b2o2b2o2b2o2b2o2b2o2b2o2b2o585bo539b2o44b2o
2bo7bo2b2o44b2o48bobo54bo643bo2bo3bo5b2obo16bo65b2o44b2o2bo7bo2b2o44b
2o30b3o8b3o71bo648b2o44b2o2bo7bo2b2o44b2o48bobo698bo2bo3bo5b2obo82b2o
44b2o2bo7bo2b2o44b2o30b3o8b3o71bo348b2o44b2o2bo7bo2b2o44b2o48bobo698bo
2bo3bo5b2obo16bo65b2o44b2o2bo7bo2b2o44b2o30b3o8b3o71bo$2000bo35b2o150b
2o233b2o3b2o109b2o45bobo9bobo45b2o26bo22b2o55b2o612b2o26b2o2bo4bo4bo2b
o82b2o45bobo9bobo45b2o23bo17b3o71b3o530b2o3b2o109b2o45bobo9bobo45b2o
26bo22b2o669b2o26b2o2bo4bo4bo2bo82b2o45bobo9bobo45b2o23bo17b3o71b3o
230b2o3b2o109b2o45bobo9bobo45b2o26bo22b2o669b2o26b2o2bo4bo4bo2bo82b2o
45bobo9bobo45b2o23bo17b3o71b3o$2037b2o149b2o233bo5bo157b2o9b2o72bobo
22bo55b2o612bobo25b2o5b4o4b2obo130b2o9b2o71bo87b3o534bo5bo157b2o9b2o
72bobo22bo669bobo25b2o5b4o4b2obo130b2o9b2o71bo87b3o234bo5bo157b2o9b2o
72bobo22bo669bobo25b2o5b4o4b2obo130b2o9b2o71bo87b3o$2o2b2o2b2o2b2o2b2o
2b2o2b2o2b2o2b2o2b2o2b2o2b2o2b2o2b2o2b2o2b2o2b2o2b2o2b2o2b2o2b2o2b2o2b
2o2b2o2b2o2b2o2b2o2b2o2b2o2b2o2b2o2b2o2b2o350b2o2b2o2b2o2b2o2b2o2b2o2b
2o2b2o2b2o2b2o2b2o2b2o2b2o2b2o2b2o2b2o2b2o2b2o2b2o2b2o2b2o2b2o2b2o2b2o
2b2o2b2o2b2o2b2o2b2o2b2o2b2o2b2o146b2o2b2o2b2o2b2o2b2o2b2o2b2o2b2o2b2o
2b2o2b2o2b2o2b2o2b2o2b2o2b2o2b2o2b2o2b2o2b2o2b2o2b2o2b2o2b2o2b2o2b2o2b
2o2b2o2b2o2b2o2b2o2b2o142b2o2b2o2b2o2b2o2b2o2b2o2b2o2b2o2b2o2b2o2b2o2b
2o2b2o2b2o2b2o2b2o2b2o2b2o2b2o2b2o2b2o2b2o2b2o2b2o2b2o2b2o2b2o2b2o2b2o
2b2o2b2o2b2o142b2o2b2o2b2o2b2o2b2o2b2o2b2o2b2o2b2o2b2o2b2o2b2o2b2o2b2o
2b2o2b2o2b2o2b2o2b2o2b2o2b2o2b2o2b2o2b2o2b2o2b2o2b2o2b2o2b2o2b2o2b2o2b
2o622bo214bo314bo7b2o35b2o7bo41b2o6b2o12b2o671b2o7bo6b2o4bo14b3o7bo3b
3o112bo7b2o35b2o7bo138bo679bo7b2o35b2o7bo41b2o6b2o12b2o671b2o7bo6b2o4b
o14b3o7bo3b3o112bo7b2o35b2o7bo138bo379bo7b2o35b2o7bo41b2o6b2o12b2o671b
2o7bo6b2o4bo14b3o7bo3b3o112bo7b2o35b2o7bo138bo$2o2b2o2b2o2b2o2b2o2b2o
2b2o2b2o2b2o2b2o2b2o2b2o2b2o2b2o2b2o2b2o2b2o2b2o2b2o2b2o2b2o2b2o2b2o2b
2o2b2o2b2o2b2o2b2o2b2o2b2o2b2o2b2o2b2o350b2o2b2o2b2o2b2o2b2o2b2o2b2o2b
2o2b2o2b2o2b2o2b2o2b2o2b2o2b2o2b2o2b2o2b2o2b2o2b2o2b2o2b2o2b2o2b2o2b2o
2b2o2b2o2b2o2b2o2b2o2b2o2b2o146b2o2b2o2b2o2b2o2b2o2b2o2b2o2b2o2b2o2b2o
2b2o2b2o2b2o2b2o2b2o2b2o2b2o2b2o2b2o2b2o2b2o2b2o2b2o2b2o2b2o2b2o2b2o2b
2o2b2o2b2o2b2o2b2o142b2o2b2o2b2o2b2o2b2o2b2o2b2o2b2o2b2o2b2o2b2o2b2o2b
2o2b2o2b2o2b2o2b2o2b2o2b2o2b2o2b2o2b2o2b2o2b2o2b2o2b2o2b2o2b2o2b2o2b2o
2b2o2b2o142b2o2b2o2b2o2b2o2b2o2b2o2b2o2b2o2b2o2b2o2b2o2b2o2b2o2b2o2b2o
2b2o2b2o2b2o2b2o2b2o2b2o2b2o2b2o2b2o2b2o2b2o2b2o2b2o2b2o2b2o2b2o2b2o
597b2o160b2o74b3o164bo7bo3bo136b3o7b2o33b2o7b3o39bo3bo4b2o12b2o671b2o
7bo2bo2bo2bo2bobo14b2o11b2o112b3o7b2o33b2o7b3o138bo528bo7bo3bo136b3o7b
2o33b2o7b3o39bo3bo4b2o12b2o671b2o7bo2bo2bo2bo2bobo14b2o11b2o46b2o64b3o
7b2o33b2o7b3o138bo228bo7bo3bo136b3o7b2o33b2o7b3o39bo3bo4b2o12b2o671b2o
7bo2bo2bo2bo2bobo14b2o11b2o112b3o7b2o33b2o7b3o138bo$2012bo159bobo73bo
168bo7b3o136b5o5bo9b2o3b2o5b2o3b2o9bo5b5o27b2o8bo5bo3b2o48bo2bo26bo2bo
612bo6b3obob2o15b2o25bo97b5o5bo9b2o3b2o5b2o3b2o9bo5b5o667bo7b3o136b5o
5bo9b2o3b2o5b2o3b2o9bo5b5o27b2o8bo5bo3b2o48bo2bo26bo2bo26bo2bo26bo2bo
26bo2bo26bo2bo26bo2bo26bo2bo26bo2bo26bo2bo26bo2bo26bo2bo26bo2bo26bo2bo
26bo2bo26bo2bo26bo2bo26bo2bo26bo2bo26bo2bo26bo2bo42bo6b3obob2o15b2o57b
2o64b5o5bo9b2o3b2o5b2o3b2o9bo5b5o46bo320bo7b3o136b5o5bo9b2o3b2o5b2o3b
2o9bo5b5o27b2o8bo5bo3b2o48bo2bo26bo2bo26bo2bo26bo2bo26bo2bo26bo2bo26bo
2bo26bo2bo26bo2bo26bo2bo26bo2bo26bo2bo26bo2bo26bo2bo26bo2bo26bo2bo26bo
2bo26bo2bo26bo2bo26bo2bo26bo2bo42bo6b3obob2o15b2o25bo97b5o5bo9b2o3b2o
5b2o3b2o9bo5b5o$2007b2o3bobo7bo149bo75b2o165b3o145b2o3b2o14b2o3b2o5b2o
3b2o14b2o3b2o26b2o8bo3bob2o4bobo31b4o14bo11b4o14bo612bobo6b2ob2o16bo
23b2o97b2o3b2o14b2o3b2o5b2o3b2o14b2o3b2o47bo14b3o63bobo18b2o513b3o145b
2o3b2o14b2o3b2o5b2o3b2o14b2o3b2o26b2o8bo3bob2o4bobo31b4o14bo11b4o14bo
11b4o14bo11b4o14bo11b4o14bo11b4o14bo11b4o14bo11b4o14bo11b4o14bo11b4o
14bo11b4o14bo11b4o14bo11b4o14bo11b4o14bo11b4o14bo11b4o14bo11b4o14bo11b
4o14bo11b4o14bo11b4o14bo11b4o14bo11b4o27bobo6b2ob2o16bo59bo62b2o3b2o
14b2o3b2o5b2o3b2o14b2o3b2o43b2o17b3o63bobo18b2o213b3o145b2o3b2o14b2o3b
2o5b2o3b2o14b2o3b2o26b2o8bo3bob2o4bobo31b4o14bo11b4o14bo11b4o14bo11b4o
14bo11b4o14bo11b4o14bo11b4o14bo11b4o14bo11b4o14bo11b4o14bo11b4o14bo11b
4o14bo11b4o14bo11b4o14bo11b4o14bo11b4o14bo11b4o14bo11b4o14bo11b4o14bo
11b4o14bo11b4o14bo11b4o27bobo6b2ob2o16bo23b2o97b2o3b2o14b2o3b2o5b2o3b
2o14b2o3b2o47bo14b3o63bobo18b2o$2o2b2o2b2o2b2o2b2o2b2o2b2o2b2o2b2o2b2o
2b2o2b2o2b2o2b2o2b2o2b2o2b2o2b2o2b2o2b2o2b2o2b2o2b2o2b2o2b2o2b2o2b2o2b
2o2b2o2b2o2b2o2b2o2b2o350b2o2b2o2b2o2b2o2b2o2b2o2b2o2b2o2b2o2b2o2b2o2b
2o2b2o2b2o2b2o2b2o2b2o2b2o2b2o2b2o2b2o2b2o2b2o2b2o2b2o2b2o2b2o2b2o2b2o
2b2o2b2o2b2o146b2o2b2o2b2o2b2o2b2o2b2o2b2o2b2o2b2o2b2o2b2o2b2o2b2o2b2o
2b2o2b2o2b2o2b2o2b2o2b2o2b2o2b2o2b2o2b2o2b2o2b2o2b2o2b2o2b2o2b2o2b2o2b
2o146b2o2b2o2b2o2b2o2b2o2b2o2b2o2b2o2b2o2b2o2b2o2b2o2b2o2b2o2b2o2b2o2b
2o2b2o2b2o2b2o2b2o2b2o2b2o2b2o2b2o2b2o2b2o2b2o2b2o2b2o146b2o2b2o2b2o2b
2o2b2o2b2o2b2o2b2o2b2o2b2o2b2o2b2o2b2o2b2o2b2o2b2o2b2o2b2o2b2o2b2o2b2o
2b2o2b2o2b2o2b2o2b2o2b2o2b2o2b2o2b2o2b2o2b2o593bobo3b2o4b4o3bob2o141b
2o227b2o258bo5bo7bo30bo3bo10bo3bo10bo3bo10bo3bo613b2o7bob2o41b2o204bob
ob3o8b3o63b2o14bo4b2o498b2o258bo5bo7bo30bo3bo10bo3bo10bo3bo10bo3bo10bo
3bo10bo3bo10bo3bo10bo3bo10bo3bo10bo3bo10bo3bo10bo3bo10bo3bo10bo3bo10bo
3bo10bo3bo10bo3bo10bo3bo10bo3bo10bo3bo10bo3bo10bo3bo10bo3bo10bo3bo10bo
3bo10bo3bo10bo3bo10bo3bo10bo3bo10bo3bo10bo3bo10bo3bo10bo3bo10bo3bo10bo
3bo10bo3bo10bo3bo10bo3bo10bo3bo10bo3bo10bo3bo10bo3bo10bo3bo28b2o7bob2o
244b2o5b3o8b3o63b2o14bo4b2o198b2o258bo5bo7bo30bo3bo10bo3bo10bo3bo10bo
3bo10bo3bo10bo3bo10bo3bo10bo3bo10bo3bo10bo3bo10bo3bo10bo3bo10bo3bo10bo
3bo10bo3bo10bo3bo10bo3bo10bo3bo10bo3bo10bo3bo10bo3bo10bo3bo10bo3bo10bo
3bo10bo3bo10bo3bo10bo3bo10bo3bo10bo3bo10bo3bo10bo3bo10bo3bo10bo3bo10bo
3bo10bo3bo10bo3bo10bo3bo10bo3bo10bo3bo10bo3bo10bo3bo10bo3bo10bo3bo28b
2o7bob2o41b2o204bobob3o8b3o63b2o14bo4b2o$2o2b2o2b2o2b2o2b2o2b2o2b2o2b
2o2b2o2b2o2b2o2b2o2b2o2b2o2b2o2b2o2b2o2b2o2b2o2b2o2b2o2b2o2b2o2b2o2b2o
2b2o2b2o2b2o2b2o2b2o2b2o2b2o2b2o350b2o2b2o2b2o2b2o2b2o2b2o2b2o2b2o2b2o
2b2o2b2o2b2o2b2o2b2o2b2o2b2o2b2o2b2o2b2o2b2o2b2o2b2o2b2o2b2o2b2o2b2o2b
2o2b2o2b2o2b2o2b2o2b2o146b2o2b2o2b2o2b2o2b2o2b2o2b2o2b2o2b2o2b2o2b2o2b
2o2b2o2b2o2b2o2b2o2b2o2b2o2b2o2b2o2b2o2b2o2b2o2b2o2b2o2b2o2b2o2b2o2b2o
2b2o2b2o2b2o146b2o2b2o2b2o2b2o2b2o2b2o2b2o2b2o2b2o2b2o2b2o2b2o2b2o2b2o
2b2o2b2o2b2o2b2o2b2o2b2o2b2o2b2o2b2o2b2o2b2o2b2o2b2o2b2o2b2o2b2o146b2o
2b2o2b2o2b2o2b2o2b2o2b2o2b2o2b2o2b2o2b2o2b2o2b2o2b2o2b2o2b2o2b2o2b2o2b
2o2b2o2b2o2b2o2b2o2b2o2b2o2b2o2b2o2b2o2b2o2b2o2b2o2b2o593bo10b4o4bobob
2o2b2o364b2o184b3o9b3o60bo3bo43bo11b4o14bo11b4o623bobo162b3o9b3o70b2o
2bo9bo3bo63bo8b2ob5o6b2o495b2o184b3o9b3o60bo3bo43bo11b4o14bo11b4o14bo
11b4o14bo11b4o14bo11b4o14bo11b4o14bo11b4o14bo11b4o14bo11b4o14bo11b4o
14bo11b4o14bo11b4o14bo11b4o14bo11b4o14bo11b4o14bo11b4o14bo11b4o14bo11b
4o14bo11b4o14bo11b4o14bo11b4o14bo38bobo162b3o9b3o74bo9bo3bo63bo8b2ob5o
6b2o195b2o184b3o9b3o60bo3bo43bo11b4o14bo11b4o14bo11b4o14bo11b4o14bo11b
4o14bo11b4o14bo11b4o14bo11b4o14bo11b4o14bo11b4o14bo11b4o14bo11b4o14bo
11b4o14bo11b4o14bo11b4o14bo11b4o14bo11b4o14bo11b4o14bo11b4o14bo11b4o
14bo11b4o14bo38bobo162b3o9b3o70b2o2bo9bo3bo63bo8b2ob5o6b2o$2018bo2bo3b
2obob2o2bobo531b2o16b3o9b3o16b2o43b2o42bobo26bo2bo614b2o24bo145b2o16b
3o9b3o16b2o57bo50bo33bo4b2o2bo5b3o5b2o655b2o16b3o9b3o16b2o43b2o42bobo
26bo2bo26bo2bo26bo2bo26bo2bo26bo2bo26bo2bo26bo2bo26bo2bo26bo2bo26bo2bo
26bo2bo26bo2bo26bo2bo26bo2bo26bo2bo26bo2bo26bo2bo26bo2bo26bo2bo26bo2bo
26bo2bo14b2o24bo145b2o16b3o9b3o16b2o57bo50bo33bo4b2o2bo5b3o5b2o355b2o
16b3o9b3o16b2o43b2o42bobo26bo2bo26bo2bo26bo2bo26bo2bo26bo2bo26bo2bo26b
o2bo26bo2bo26bo2bo26bo2bo26bo2bo26bo2bo26bo2bo26bo2bo26bo2bo26bo2bo26b
o2bo26bo2bo26bo2bo26bo2bo26bo2bo14b2o24bo145b2o16b3o9b3o16b2o57bo50bo
33bo4b2o2bo5b3o5b2o$2018b4o3b2o8b3o7b2o523bo16bo11bo16bo56bo21b2o656bo
bo171bo16bo11bo16bo54bo12b2o3b2o36bobo30bo8b2o5b2o6b2o657bo16bo11bo16b
o56bo21b2o656bobo171bo16bo11bo16bo54bo12b2o3b2o36bobo30bo8b2o5b2o6b2o
357bo16bo11bo16bo56bo21b2o656bobo171bo16bo11bo16bo54bo12b2o3b2o36bobo
30bo8b2o5b2o6b2o$2o2b2o2b2o2b2o2b2o2b2o2b2o2b2o2b2o2b2o2b2o2b2o2b2o2b
2o2b2o2b2o2b2o2b2o2b2o2b2o2b2o2b2o2b2o2b2o2b2o2b2o2b2o2b2o2b2o2b2o2b2o
2b2o2b2o350b2o2b2o2b2o2b2o2b2o2b2o2b2o2b2o2b2o2b2o2b2o2b2o2b2o2b2o2b2o
2b2o2b2o2b2o2b2o2b2o2b2o2b2o2b2o2b2o2b2o2b2o2b2o2b2o2b2o2b2o2b2o2b2o
146b2o2b2o2b2o2b2o2b2o2b2o2b2o2b2o2b2o2b2o2b2o2b2o2b2o2b2o2b2o2b2o2b2o
2b2o2b2o2b2o2b2o2b2o2b2o2b2o2b2o2b2o2b2o2b2o2b2o2b2o2b2o2b2o150b2o2b2o
2b2o2b2o2b2o2b2o2b2o2b2o2b2o2b2o2b2o2b2o2b2o2b2o2b2o2b2o2b2o2b2o2b2o2b
2o2b2o2b2o2b2o2b2o2b2o2b2o2b2o2b2o150b2o2b2o2b2o2b2o2b2o2b2o2b2o2b2o2b
2o2b2o2b2o2b2o2b2o2b2o2b2o2b2o2b2o2b2o2b2o2b2o2b2o2b2o2b2o2b2o2b2o2b2o
2b2o2b2o2b2o2b2o2b2o2b2o605b4o3b2o8b3o6b2o378b3o139bo51bo54b2o19b2o4bo
653bo168bo51bo51bo38b2o18b2o28bo7bo4b2o523b3o139bo51bo54b2o19b2o4bo
653bo108bo59bo51bo51bo38b2o18b2o28bo7bo4b2o223b3o139bo51bo54b2o19b2o4b
o653bo168bo51bo51bo38b2o18b2o28bo7bo4b2o$2o2b2o2b2o2b2o2b2o2b2o2b2o2b
2o2b2o2b2o2b2o2b2o2b2o2b2o2b2o2b2o2b2o2b2o2b2o2b2o2b2o2b2o2b2o2b2o2b2o
2b2o2b2o2b2o2b2o2b2o2b2o2b2o2b2o350b2o2b2o2b2o2b2o2b2o2b2o2b2o2b2o2b2o
2b2o2b2o2b2o2b2o2b2o2b2o2b2o2b2o2b2o2b2o2b2o2b2o2b2o2b2o2b2o2b2o2b2o2b
2o2b2o2b2o2b2o2b2o2b2o146b2o2b2o2b2o2b2o2b2o2b2o2b2o2b2o2b2o2b2o2b2o2b
2o2b2o2b2o2b2o2b2o2b2o2b2o2b2o2b2o2b2o2b2o2b2o2b2o2b2o2b2o2b2o2b2o2b2o
2b2o2b2o2b2o150b2o2b2o2b2o2b2o2b2o2b2o2b2o2b2o2b2o2b2o2b2o2b2o2b2o2b2o
2b2o2b2o2b2o2b2o2b2o2b2o2b2o2b2o2b2o2b2o2b2o2b2o2b2o2b2o150b2o2b2o2b2o
2b2o2b2o2b2o2b2o2b2o2b2o2b2o2b2o2b2o2b2o2b2o2b2o2b2o2b2o2b2o2b2o2b2o2b
2o2b2o2b2o2b2o2b2o2b2o2b2o2b2o2b2o2b2o2b2o2b2o608bo12b3o387b2o140bo2bo
45bo2bo53b2o17b2o6b5ob2o647b2o167bo2bo45bo2bo88bo3bo17b2o4b2o22bo12b2o
523b2o140bo2bo45bo2bo53b2o17b2o6b5ob2o647b2o106b2o59bo2bo45bo2bo88bo3b
o17b2o4b2o22bo12b2o223b2o140bo2bo45bo2bo53b2o17b2o6b5ob2o647b2o167bo2b
o45bo2bo88bo3bo17b2o4b2o22bo12b2o$2007bo26bobo209bo319b2ob2o45b2ob2o
63b2o5b3o5bo2b2o4bo705bobo106b2ob2o45b2ob2o50bo35bo5bo16b2o4b2o8bo5b2o
7bo677b2ob2o45b2ob2o63b2o5b3o5bo2b2o4bo754bobo57b2ob2o45b2ob2o39bobo8b
o35bo5bo16b2o4b2o8bo5b2o7bo377b2ob2o45b2ob2o63b2o5b3o5bo2b2o4bo705bobo
106b2ob2o45b2ob2o50bo35bo5bo16b2o4b2o8bo5b2o7bo$2007b3o4b3o17b2o112b2o
95b3o319b2o49b2o64b2o6b2o5b2o8bo8b2o694b2o108b2o49b2o50bobo10b2o17b2o
2b2obo3bo8bo4bobo14b2o5bobo8b2o676b2o49b2o64b2o6b2o5b2o8bo8b2o804b2o
49b2o40b2o8bobo10b2o17b2o2b2obo3bo8bo4bobo14b2o5bobo8b2o376b2o49b2o64b
2o6b2o5b2o8bo8b2o694b2o108b2o49b2o50bobo10b2o17b2o2b2obo3bo8bo4bobo14b
2o5bobo8b2o$2o2b2o2b2o2b2o2b2o2b2o2b2o2b2o2b2o2b2o2b2o2b2o2b2o2b2o2b2o
2b2o2b2o2b2o2b2o2b2o2b2o2b2o2b2o2b2o2b2o2b2o2b2o2b2o2b2o2b2o2b2o2b2o2b
2o350b2o2b2o2b2o2b2o2b2o2b2o2b2o2b2o2b2o2b2o2b2o2b2o2b2o2b2o2b2o2b2o2b
2o2b2o2b2o2b2o2b2o2b2o2b2o2b2o2b2o2b2o2b2o2b2o2b2o2b2o2b2o2b2o146b2o2b
2o2b2o2b2o2b2o2b2o2b2o2b2o2b2o2b2o2b2o2b2o2b2o2b2o2b2o2b2o2b2o2b2o2b2o
2b2o2b2o2b2o2b2o2b2o2b2o2b2o2b2o2b2o2b2o2b2o2b2o2b2o154b2o2b2o2b2o2b2o
2b2o2b2o2b2o2b2o2b2o2b2o2b2o2b2o2b2o2b2o2b2o2b2o2b2o2b2o2b2o2b2o2b2o2b
2o2b2o2b2o2b2o2b2o154b2o2b2o2b2o2b2o2b2o2b2o2b2o2b2o2b2o2b2o2b2o2b2o2b
2o2b2o2b2o2b2o2b2o2b2o2b2o2b2o2b2o2b2o2b2o2b2o2b2o2b2o2b2o2b2o2b2o2b2o
2b2o2b2o596bo3bo133b2o94b5o446b2o4bo7bo8b2o695bo224bobo16b2o3bo5bo9bo
3bo17b2o4bo816b2o4bo7bo8b2o898bo21bobo16b2o3bo5bo9bo3bo17b2o4bo516b2o
4bo7bo8b2o695bo224bobo16b2o3bo5bo9bo3bo17b2o4bo$2o2b2o2b2o2b2o2b2o2b2o
2b2o2b2o2b2o2b2o2b2o2b2o2b2o2b2o2b2o2b2o2b2o2b2o2b2o2b2o2b2o2b2o2b2o2b
2o2b2o2b2o2b2o2b2o2b2o2b2o2b2o2b2o2b2o350b2o2b2o2b2o2b2o2b2o2b2o2b2o2b
2o2b2o2b2o2b2o2b2o2b2o2b2o2b2o2b2o2b2o2b2o2b2o2b2o2b2o2b2o2b2o2b2o2b2o
2b2o2b2o2b2o2b2o2b2o2b2o2b2o146b2o2b2o2b2o2b2o2b2o2b2o2b2o2b2o2b2o2b2o
2b2o2b2o2b2o2b2o2b2o2b2o2b2o2b2o2b2o2b2o2b2o2b2o2b2o2b2o2b2o2b2o2b2o2b
2o2b2o2b2o2b2o2b2o154b2o2b2o2b2o2b2o2b2o2b2o2b2o2b2o2b2o2b2o2b2o2b2o2b
2o2b2o2b2o2b2o2b2o2b2o2b2o2b2o2b2o2b2o2b2o2b2o2b2o2b2o154b2o2b2o2b2o2b
2o2b2o2b2o2b2o2b2o2b2o2b2o2b2o2b2o2b2o2b2o2b2o2b2o2b2o2b2o2b2o2b2o2b2o
2b2o2b2o2b2o2b2o2b2o2b2o2b2o2b2o2b2o2b2o2b2o595b2o4bo227b2o3b2o174bo
161b2o11b2o94b2o12bo833b2o11b2o69b3o10bo24bo3bo5bo2b3o26b2o545bo161b2o
11b2o94b2o12bo833b2o11b2o69b3o10bo24bo3bo5bo2b3o26b2o245bo161b2o11b2o
94b2o12bo833b2o11b2o69b3o10bo24bo3bo5bo2b3o26b2o$2244b5o174b3o106bo32b
2o3b2o14b2o11b2o14b2o3b2o86bo726b2o85b2o3b2o14b2o11b2o14b2o3b2o88b2o
584b3o106bo32b2o3b2o14b2o11b2o14b2o3b2o86bo726b2o85b2o3b2o14b2o11b2o
14b2o3b2o88b2o284b3o106bo32b2o3b2o14b2o11b2o14b2o3b2o86bo726b2o85b2o3b
2o14b2o11b2o14b2o3b2o88b2o$2244bo3bo173b5o103b3o32b2o3b2o43b2o3b2o58bo
bo23b2o726bo87b2o3b2o43b2o3b2o673b5o103b3o32b2o3b2o43b2o3b2o58bobo23b
2o726bo87b2o3b2o43b2o3b2o373b5o103b3o32b2o3b2o43b2o3b2o58bobo23b2o726b
o87b2o3b2o43b2o3b2o$2o2b2o2b2o2b2o2b2o2b2o2b2o2b2o2b2o2b2o2b2o2b2o2b2o
2b2o2b2o2b2o2b2o2b2o2b2o2b2o2b2o2b2o2b2o2b2o2b2o2b2o2b2o2b2o2b2o2b2o2b
2o2b2o2b2o350b2o2b2o2b2o2b2o2b2o2b2o2b2o2b2o2b2o2b2o2b2o2b2o2b2o2b2o2b
2o2b2o2b2o2b2o2b2o2b2o2b2o2b2o2b2o2b2o2b2o2b2o2b2o2b2o2b2o2b2o2b2o2b2o
146b2o2b2o2b2o2b2o2b2o2b2o2b2o2b2o2b2o2b2o2b2o2b2o2b2o2b2o2b2o2b2o2b2o
2b2o2b2o2b2o2b2o2b2o2b2o2b2o2b2o2b2o2b2o2b2o2b2o2b2o2b2o2b2o158b2o2b2o
2b2o2b2o2b2o2b2o2b2o2b2o2b2o2b2o2b2o2b2o2b2o2b2o2b2o2b2o2b2o2b2o2b2o2b
2o2b2o2b2o2b2o2b2o158b2o2b2o2b2o2b2o2b2o2b2o2b2o2b2o2b2o2b2o2b2o2b2o2b
2o2b2o2b2o2b2o2b2o2b2o2b2o2b2o2b2o2b2o2b2o2b2o2b2o2b2o2b2o2b2o2b2o2b2o
2b2o2b2o735bo95bobo173b2o3b2o101bo36b5o45b5o60b2o750bo12b2o75b5o45b5o
49b3o10bo610b2o3b2o101bo36b5o45b5o60b2o750bo12b2o23b2o50b5o45b5o49b3o
10bo310b2o3b2o101bo36b5o45b5o60b2o750bo12b2o75b5o45b5o49b3o10bo$2o2b2o
2b2o2b2o2b2o2b2o2b2o2b2o2b2o2b2o2b2o2b2o2b2o2b2o2b2o2b2o2b2o2b2o2b2o2b
2o2b2o2b2o2b2o2b2o2b2o2b2o2b2o2b2o2b2o2b2o2b2o2b2o2b2o350b2o2b2o2b2o2b
2o2b2o2b2o2b2o2b2o2b2o2b2o2b2o2b2o2b2o2b2o2b2o2b2o2b2o2b2o2b2o2b2o2b2o
2b2o2b2o2b2o2b2o2b2o2b2o2b2o2b2o2b2o2b2o2b2o146b2o2b2o2b2o2b2o2b2o2b2o
2b2o2b2o2b2o2b2o2b2o2b2o2b2o2b2o2b2o2b2o2b2o2b2o2b2o2b2o2b2o2b2o2b2o2b
2o2b2o2b2o2b2o2b2o2b2o2b2o2b2o2b2o158b2o2b2o2b2o2b2o2b2o2b2o2b2o2b2o2b
2o2b2o2b2o2b2o2b2o2b2o2b2o2b2o2b2o2b2o2b2o2b2o2b2o2b2o2b2o2b2o158b2o2b
2o2b2o2b2o2b2o2b2o2b2o2b2o2b2o2b2o2b2o2b2o2b2o2b2o2b2o2b2o2b2o2b2o2b2o
2b2o2b2o2b2o2b2o2b2o2b2o2b2o2b2o2b2o2b2o2b2o2b2o2b2o598bo135bobo95bo
175b5o94b2o6b2o36bobo47bobo61bo726bo14b2o8bo7bo4b2o76bobo47bobo675b5o
94b2o6b2o36bobo47bobo61bo741b2o8bo7bo4b2o22b2o52bobo47bobo34bo340b5o
94b2o6b2o36bobo47bobo61bo726bo14b2o8bo7bo4b2o76bobo47bobo$2011b3o7b2o
35b2o87bo3bo270bo3bo94bobo882b2o15b2o8bo8b2o5b2o176bobo64bobo555bo3bo
94bobo899b2o8bo8b2o5b2o21bo136b2o16bobo64bobo255bo3bo94bobo882b2o15b2o
8bo8b2o5b2o176bobo64bobo$2011b3o6bo2bo34bo89b3o272bobo96bo44b3o47b3o
787b2o25bo4b2o2bo5b3o5b2o65b3o23b2o22b3o51bo58bo6b2o557bobo96bo44b3o
47b3o814bo4b2o2bo5b3o5b2o65b3o23b2o22b3o33b2o16bo58bo6b2o257bobo96bo
44b3o47b3o787b2o25bo4b2o2bo5b3o5b2o65b3o23b2o22b3o51bo58bo6b2o$2o2b2o
2b2o2b2o2b2o2b2o2b2o2b2o2b2o2b2o2b2o2b2o2b2o2b2o2b2o2b2o2b2o2b2o2b2o2b
2o2b2o2b2o2b2o2b2o2b2o2b2o2b2o2b2o2b2o2b2o2b2o2b2o2b2o350b2o2b2o2b2o2b
2o2b2o2b2o2b2o2b2o2b2o2b2o2b2o2b2o2b2o2b2o2b2o2b2o2b2o2b2o2b2o2b2o2b2o
2b2o2b2o2b2o2b2o2b2o2b2o2b2o2b2o2b2o2b2o2b2o146b2o2b2o2b2o2b2o2b2o2b2o
2b2o2b2o2b2o2b2o2b2o2b2o2b2o2b2o2b2o2b2o2b2o2b2o2b2o2b2o2b2o2b2o2b2o2b
2o2b2o2b2o2b2o2b2o2b2o2b2o2b2o2b2o162b2o2b2o2b2o2b2o2b2o2b2o2b2o2b2o2b
2o2b2o2b2o2b2o2b2o2b2o2b2o2b2o2b2o2b2o2b2o2b2o2b2o2b2o162b2o2b2o2b2o2b
2o2b2o2b2o2b2o2b2o2b2o2b2o2b2o2b2o2b2o2b2o2b2o2b2o2b2o2b2o2b2o2b2o2b2o
2b2o2b2o2b2o2b2o2b2o2b2o2b2o2b2o2b2o2b2o2b2o607bob2ob2o17b2o9bobo87b2o
3b2o95bo175bo1010b2ob5o6b2o6b2o91bo134bobo7bo558bo1010b2ob5o6b2o6b2o
91bo134bobo7bo258bo1010b2ob5o6b2o6b2o91bo134bobo7bo$2o2b2o2b2o2b2o2b2o
2b2o2b2o2b2o2b2o2b2o2b2o2b2o2b2o2b2o2b2o2b2o2b2o2b2o2b2o2b2o2b2o2b2o2b
2o2b2o2b2o2b2o2b2o2b2o2b2o2b2o2b2o2b2o2b2o350b2o2b2o2b2o2b2o2b2o2b2o2b
2o2b2o2b2o2b2o2b2o2b2o2b2o2b2o2b2o2b2o2b2o2b2o2b2o2b2o2b2o2b2o2b2o2b2o
2b2o2b2o2b2o2b2o2b2o2b2o2b2o2b2o146b2o2b2o2b2o2b2o2b2o2b2o2b2o2b2o2b2o
2b2o2b2o2b2o2b2o2b2o2b2o2b2o2b2o2b2o2b2o2b2o2b2o2b2o2b2o2b2o2b2o2b2o2b
2o2b2o2b2o2b2o2b2o2b2o162b2o2b2o2b2o2b2o2b2o2b2o2b2o2b2o2b2o2b2o2b2o2b
2o2b2o2b2o2b2o2b2o2b2o2b2o2b2o2b2o2b2o2b2o162b2o2b2o2b2o2b2o2b2o2b2o2b
2o2b2o2b2o2b2o2b2o2b2o2b2o2b2o2b2o2b2o2b2o2b2o2b2o2b2o2b2o2b2o2b2o2b2o
2b2o2b2o2b2o2b2o2b2o2b2o2b2o2b2o595b2o3b2o7bo2b2o15bo3bo8b2o188b2ob2o
1190bo4b2o92b2o6bobo77bo12b3o42b2o1583bo4b2o92b2o6bobo77bo12b3o42b2o
1283bo4b2o92b2o6bobo77bo12b3o42b2o$2009b2o3b2o6bo19bo5bo192bo292b2o
152bo757b2o91bobo5b3o78bo11bo3bo54b2o663b2o910b2o91bobo5b3o78bo11bo3bo
54b2o363b2o910b2o91bobo5b3o78bo11bo3bo54b2o$2022bo14b2o2b2obo3bo191bo
4bo5bo172b2o100b2o6b2o127bo25b2o713bo2bo26bobo101bo6b3o91bo5bo53b2o
553b2o100b2o6b2o127bo50bo2bo26bo2bo26bo2bo26bo2bo26bo2bo26bo2bo26bo2bo
26bo2bo26bo2bo26bo2bo26bo2bo26bo2bo26bo2bo26bo2bo26bo2bo26bo2bo26bo2bo
26bo2bo26bo2bo26bo2bo26bo2bo26bo2bo26bo2bo26bo2bo26bobo42bo58bo6b3o91b
o5bo53b2o253b2o100b2o6b2o127bo50bo2bo26bo2bo26bo2bo26bo2bo26bo2bo26bo
2bo26bo2bo26bo2bo26bo2bo26bo2bo26bo2bo26bo2bo26bo2bo26bo2bo26bo2bo26bo
2bo26bo2bo26bo2bo26bo2bo26bo2bo26bo2bo26bo2bo26bo2bo26bo2bo26bobo101bo
6b3o91bo5bo53b2o$2o2b2o2b2o2b2o2b2o2b2o2b2o2b2o2b2o2b2o2b2o2b2o2b2o2b
2o2b2o2b2o2b2o2b2o2b2o2b2o2b2o2b2o2b2o2b2o2b2o2b2o2b2o2b2o2b2o2b2o2b2o
2b2o2b2o350b2o2b2o2b2o2b2o2b2o2b2o2b2o2b2o2b2o2b2o2b2o2b2o2b2o2b2o2b2o
2b2o2b2o2b2o2b2o2b2o2b2o2b2o2b2o2b2o2b2o2b2o2b2o2b2o2b2o2b2o2b2o2b2o
146b2o2b2o2b2o2b2o2b2o2b2o2b2o2b2o2b2o2b2o2b2o2b2o2b2o2b2o2b2o2b2o2b2o
2b2o2b2o2b2o2b2o2b2o2b2o2b2o2b2o2b2o2b2o2b2o2b2o2b2o2b2o2b2o166b2o2b2o
2b2o2b2o2b2o2b2o2b2o2b2o2b2o2b2o2b2o2b2o2b2o2b2o2b2o2b2o2b2o2b2o2b2o2b
2o166b2o2b2o2b2o2b2o2b2o2b2o2b2o2b2o2b2o2b2o2b2o2b2o2b2o2b2o2b2o2b2o2b
2o2b2o2b2o2b2o2b2o2b2o2b2o2b2o2b2o2b2o2b2o2b2o2b2o2b2o2b2o2b2o608bo14b
2o3bo5bo191b3o181b2o100b2o134bobo23b2o713bo14b4o11bo104bo2bo2bo2bo91bo
5bo608b2o100b2o134bobo33b4o11bo14b4o11bo14b4o11bo14b4o11bo14b4o11bo14b
4o11bo14b4o11bo14b4o11bo14b4o11bo14b4o11bo14b4o11bo14b4o11bo14b4o11bo
14b4o11bo14b4o11bo14b4o11bo14b4o11bo14b4o11bo14b4o11bo14b4o11bo14b4o
11bo14b4o11bo14b4o11bo14b4o11bo14b4o11bo44b2o58bo2bo2bo2bo91bo5bo308b
2o100b2o134bobo33b4o11bo14b4o11bo14b4o11bo14b4o11bo14b4o11bo14b4o11bo
14b4o11bo14b4o11bo14b4o11bo14b4o11bo14b4o11bo14b4o11bo14b4o11bo14b4o
11bo14b4o11bo14b4o11bo14b4o11bo14b4o11bo14b4o11bo14b4o11bo14b4o11bo14b
4o11bo14b4o11bo14b4o11bo14b4o11bo104bo2bo2bo2bo91bo5bo$2o2b2o2b2o2b2o
2b2o2b2o2b2o2b2o2b2o2b2o2b2o2b2o2b2o2b2o2b2o2b2o2b2o2b2o2b2o2b2o2b2o2b
2o2b2o2b2o2b2o2b2o2b2o2b2o2b2o2b2o2b2o2b2o2b2o350b2o2b2o2b2o2b2o2b2o2b
2o2b2o2b2o2b2o2b2o2b2o2b2o2b2o2b2o2b2o2b2o2b2o2b2o2b2o2b2o2b2o2b2o2b2o
2b2o2b2o2b2o2b2o2b2o2b2o2b2o2b2o2b2o146b2o2b2o2b2o2b2o2b2o2b2o2b2o2b2o
2b2o2b2o2b2o2b2o2b2o2b2o2b2o2b2o2b2o2b2o2b2o2b2o2b2o2b2o2b2o2b2o2b2o2b
2o2b2o2b2o2b2o2b2o2b2o2b2o166b2o2b2o2b2o2b2o2b2o2b2o2b2o2b2o2b2o2b2o2b
2o2b2o2b2o2b2o2b2o2b2o2b2o2b2o2b2o2b2o166b2o2b2o2b2o2b2o2b2o2b2o2b2o2b
2o2b2o2b2o2b2o2b2o2b2o2b2o2b2o2b2o2b2o2b2o2b2o2b2o2b2o2b2o2b2o2b2o2b2o
2b2o2b2o2b2o2b2o2b2o2b2o2b2o600b2o27bo3bo103bo93b2obob2o316b2o47b2o43b
2obo7b2o724bobobo3bo10bo3bo10bo3bo86b2o12bo6b2o28b2o65bo755b2o47b2o43b
2obo7b2o23bo3bo10bo3bo10bo3bo10bo3bo10bo3bo10bo3bo10bo3bo10bo3bo10bo3b
o10bo3bo10bo3bo10bo3bo10bo3bo10bo3bo10bo3bo10bo3bo10bo3bo10bo3bo10bo3b
o10bo3bo10bo3bo10bo3bo10bo3bo10bo3bo10bo3bo10bo3bo10bo3bo10bo3bo10bo3b
o10bo3bo10bo3bo10bo3bo10bo3bo10bo3bo10bo3bo10bo3bo10bo3bo10bo3bo10bo3b
o10bo3bo10bo3bo10bo3bo10bo3bo10bo3bo10bo3bo10bo3bo10bo3bo10bo3bo10bo3b
o10bo3bo40bobo43b2o12bo6b2o28b2o25bobo37bo455b2o47b2o43b2obo7b2o23bo3b
o10bo3bo10bo3bo10bo3bo10bo3bo10bo3bo10bo3bo10bo3bo10bo3bo10bo3bo10bo3b
o10bo3bo10bo3bo10bo3bo10bo3bo10bo3bo10bo3bo10bo3bo10bo3bo10bo3bo10bo3b
o10bo3bo10bo3bo10bo3bo10bo3bo10bo3bo10bo3bo10bo3bo10bo3bo10bo3bo10bo3b
o10bo3bo10bo3bo10bo3bo10bo3bo10bo3bo10bo3bo10bo3bo10bo3bo10bo3bo10bo3b
o10bo3bo10bo3bo10bo3bo10bo3bo10bo3bo10bo3bo10bo3bo10bo3bo10bo3bo86b2o
12bo6b2o28b2o65bo$2014bobo28b2o5bo98bo365b2o49b2o47b2o26bo16b2ob2o6bob
o723b2o2b4o11bo14b4o87b2o5b2o6bobo33b2o63bo3bo63b2o637b2o49b2o47b2o26b
o16b2ob2o6bobo22bo14b4o11bo14b4o11bo14b4o11bo14b4o11bo14b4o11bo14b4o
11bo14b4o11bo14b4o11bo14b4o11bo14b4o11bo14b4o11bo14b4o11bo14b4o11bo14b
4o11bo14b4o11bo14b4o11bo14b4o11bo14b4o11bo14b4o11bo14b4o11bo14b4o11bo
14b4o11bo14b4o11bo14b4o11bo14b4o87b2o5b2o6bobo33b2o25b2o36bo3bo63b2o
337b2o49b2o47b2o26bo16b2ob2o6bobo22bo14b4o11bo14b4o11bo14b4o11bo14b4o
11bo14b4o11bo14b4o11bo14b4o11bo14b4o11bo14b4o11bo14b4o11bo14b4o11bo14b
4o11bo14b4o11bo14b4o11bo14b4o11bo14b4o11bo14b4o11bo14b4o11bo14b4o11bo
14b4o11bo14b4o11bo14b4o11bo14b4o11bo14b4o11bo14b4o87b2o5b2o6bobo33b2o
63bo3bo63b2o$2016b2o34bobo92b3obo365b2o126b2o15b2obob3o6bo723bo18bo2bo
107bobo7b2o99b3o63bobo637b2o126b2o15b2obob3o6bo22bo2bo26bo2bo26bo2bo
26bo2bo26bo2bo26bo2bo26bo2bo26bo2bo26bo2bo26bo2bo26bo2bo26bo2bo26bo2bo
26bo2bo26bo2bo26bo2bo26bo2bo26bo2bo26bo2bo26bo2bo26bo2bo26bo2bo26bo2bo
26bo2bo26bo2bo107bobo7b2o6b3o52bo37b3o63bobo337b2o126b2o15b2obob3o6bo
22bo2bo26bo2bo26bo2bo26bo2bo26bo2bo26bo2bo26bo2bo26bo2bo26bo2bo26bo2bo
26bo2bo26bo2bo26bo2bo26bo2bo26bo2bo26bo2bo26bo2bo26bo2bo26bo2bo26bo2bo
26bo2bo26bo2bo26bo2bo26bo2bo26bo2bo107bobo7b2o99b3o63bobo$2o2b2o2b2o2b
2o2b2o2b2o2b2o2b2o2b2o2b2o2b2o2b2o2b2o2b2o2b2o2b2o2b2o2b2o2b2o2b2o2b2o
2b2o2b2o2b2o2b2o2b2o2b2o2b2o2b2o2b2o2b2o2b2o2b2o350b2o2b2o2b2o2b2o2b2o
2b2o2b2o2b2o2b2o2b2o2b2o2b2o2b2o2b2o2b2o2b2o2b2o2b2o2b2o2b2o2b2o2b2o2b
2o2b2o2b2o2b2o2b2o2b2o2b2o2b2o2b2o2b2o146b2o2b2o2b2o2b2o2b2o2b2o2b2o2b
2o2b2o2b2o2b2o2b2o2b2o2b2o2b2o2b2o2b2o2b2o2b2o2b2o2b2o2b2o2b2o2b2o2b2o
2b2o2b2o2b2o2b2o2b2o2b2o2b2o170b2o2b2o2b2o2b2o2b2o2b2o2b2o2b2o2b2o2b2o
2b2o2b2o2b2o2b2o2b2o2b2o2b2o2b2o170b2o2b2o2b2o2b2o2b2o2b2o2b2o2b2o2b2o
2b2o2b2o2b2o2b2o2b2o2b2o2b2o2b2o2b2o2b2o2b2o2b2o2b2o2b2o2b2o2b2o2b2o2b
2o2b2o2b2o2b2o2b2o2b2o601b2o35b2o77b3o499b2o11b2o14bobo2bo2bo2bo2bo
853bo111bo41b2o22bo754b2o11b2o14bobo2bo2bo2bo2bo853bo17bo93bo41b2o22bo
454b2o11b2o14bobo2bo2bo2bo2bo853bo111bo41b2o22bo$2o2b2o2b2o2b2o2b2o2b
2o2b2o2b2o2b2o2b2o2b2o2b2o2b2o2b2o2b2o2b2o2b2o2b2o2b2o2b2o2b2o2b2o2b2o
2b2o2b2o2b2o2b2o2b2o2b2o2b2o2b2o2b2o2b2o350b2o2b2o2b2o2b2o2b2o2b2o2b2o
2b2o2b2o2b2o2b2o2b2o2b2o2b2o2b2o2b2o2b2o2b2o2b2o2b2o2b2o2b2o2b2o2b2o2b
2o2b2o2b2o2b2o2b2o2b2o2b2o2b2o146b2o2b2o2b2o2b2o2b2o2b2o2b2o2b2o2b2o2b
2o2b2o2b2o2b2o2b2o2b2o2b2o2b2o2b2o2b2o2b2o2b2o2b2o2b2o2b2o2b2o2b2o2b2o
2b2o2b2o2b2o2b2o2b2o170b2o2b2o2b2o2b2o2b2o2b2o2b2o2b2o2b2o2b2o2b2o2b2o
2b2o2b2o2b2o2b2o2b2o2b2o170b2o2b2o2b2o2b2o2b2o2b2o2b2o2b2o2b2o2b2o2b2o
2b2o2b2o2b2o2b2o2b2o2b2o2b2o2b2o2b2o2b2o2b2o2b2o2b2o2b2o2b2o2b2o2b2o2b
2o2b2o2b2o2b2o601b2o12bo102bo13bo385b2o98b3o3bo7b3o14bo4b2o6bo852b2o
153bo677b2o98b3o3bo7b3o14bo4b2o6bo852b2o18bo134bo377b2o98b3o3bo7b3o14b
o4b2o6bo852b2o153bo$2011b3o14b2o31b2o69bo13b2obo83bo298bobo94bob2o4b4o
5b2o25bobo6b2o11bobo747bo56b2o169b2o7bobo677bobo94bob2o4b4o5b2o25bobo
6b2o761bo56b2o169b2o7bobo377bobo94bob2o4b4o5b2o25bobo6b2o761bo56b2o
169b2o7bobo$2028bobo29b2o69b3o14b2o83bobo298bo87b2o5bo2bo4bo4bo2b2o26b
2o7bobo11b2o746b2o56b2o137b2o30bobo6b2o680bo87b2o5bo2bo4bo4bo2b2o26b2o
7bobo759b2o40b2o14b2o37bo99b2o30bobo6b2o18b2o360bo87b2o5bo2bo4bo4bo2b
2o26b2o7bobo759b2o56b2o137b2o30bobo6b2o$2o2b2o2b2o2b2o2b2o2b2o2b2o2b2o
2b2o2b2o2b2o2b2o2b2o2b2o2b2o2b2o2b2o2b2o2b2o2b2o2b2o2b2o2b2o2b2o2b2o2b
2o2b2o2b2o2b2o2b2o2b2o2b2o2b2o350b2o2b2o2b2o2b2o2b2o2b2o2b2o2b2o2b2o2b
2o2b2o2b2o2b2o2b2o2b2o2b2o2b2o2b2o2b2o2b2o2b2o2b2o2b2o2b2o2b2o2b2o2b2o
2b2o2b2o2b2o2b2o2b2o146b2o2b2o2b2o2b2o2b2o2b2o2b2o2b2o2b2o2b2o2b2o2b2o
2b2o2b2o2b2o2b2o2b2o2b2o2b2o2b2o2b2o2b2o2b2o2b2o2b2o2b2o2b2o2b2o2b2o2b
2o2b2o2b2o174b2o2b2o2b2o2b2o2b2o2b2o2b2o2b2o2b2o2b2o2b2o2b2o2b2o2b2o2b
2o2b2o174b2o2b2o2b2o2b2o2b2o2b2o2b2o2b2o2b2o2b2o2b2o2b2o2b2o2b2o2b2o2b
2o2b2o2b2o2b2o2b2o2b2o2b2o2b2o2b2o2b2o2b2o2b2o2b2o2b2o2b2o2b2o2b2o648b
o170b2o15b2o282b2o86b2o5bob2o5bo3bo2bo38bo11bo747bobo194b2o20bo4b2o4b
3o27b2o658b2o86b2o5bob2o5bo3bo2bo38bo759bobo38b2o52b2o55bo44b2o20bo4b
2o4b3o25b2o360b2o86b2o5bob2o5bo3bo2bo38bo759bobo194b2o20bo4b2o4b3o27b
2o$2o2b2o2b2o2b2o2b2o2b2o2b2o2b2o2b2o2b2o2b2o2b2o2b2o2b2o2b2o2b2o2b2o
2b2o2b2o2b2o2b2o2b2o2b2o2b2o2b2o2b2o2b2o2b2o2b2o2b2o2b2o2b2o2b2o350b2o
2b2o2b2o2b2o2b2o2b2o2b2o2b2o2b2o2b2o2b2o2b2o2b2o2b2o2b2o2b2o2b2o2b2o2b
2o2b2o2b2o2b2o2b2o2b2o2b2o2b2o2b2o2b2o2b2o2b2o2b2o2b2o146b2o2b2o2b2o2b
2o2b2o2b2o2b2o2b2o2b2o2b2o2b2o2b2o2b2o2b2o2b2o2b2o2b2o2b2o2b2o2b2o2b2o
2b2o2b2o2b2o2b2o2b2o2b2o2b2o2b2o2b2o2b2o2b2o174b2o2b2o2b2o2b2o2b2o2b2o
2b2o2b2o2b2o2b2o2b2o2b2o2b2o2b2o2b2o2b2o174b2o2b2o2b2o2b2o2b2o2b2o2b2o
2b2o2b2o2b2o2b2o2b2o2b2o2b2o2b2o2b2o2b2o2b2o2b2o2b2o2b2o2b2o2b2o2b2o2b
2o2b2o2b2o2b2o2b2o2b2o2b2o2b2o631bo85b3o116bo381b3o3b2obo18bobo21b2o
976bobob2o2bo4b3o26b2o756b3o3b2obo18bobo21b2o801bo52b2o52b2o66bobob2o
2bo4b3o484b3o3b2obo18bobo21b2o976bobob2o2bo4b3o26b2o$2044bo86b3o14b2o
3b2o96b3o379b2o25b2o769bo218b2o9bo3bob3o4b3o32b2o752b2o25b2o769bo124b
2o37b2o53b2o9bo3bob3o4b3o32b2o452b2o25b2o769bo218b2o9bo3bob3o4b3o32b2o
$2011b2o3b2o26b3o101b2o3b2o66b2o30bo407bo769b2o25b2o190b2o9bo3bob2o4bo
bo33bobo779bo769b2o25b2o96bobo91b2o9bo3bob2o4bobo33bobo479bo769b2o25b
2o190b2o9bo3bob2o4bobo33bobo$2o2b2o2b2o2b2o2b2o2b2o2b2o2b2o2b2o2b2o2b
2o2b2o2b2o2b2o2b2o2b2o2b2o2b2o2b2o2b2o2b2o2b2o2b2o2b2o2b2o2b2o2b2o2b2o
2b2o2b2o2b2o2b2o2b2o2b2o2b2o2b2o2b2o2b2o2b2o2b2o2b2o2b2o2b2o2b2o2b2o2b
2o2b2o2b2o2b2o2b2o2b2o2b2o2b2o2b2o2b2o2b2o2b2o2b2o2b2o2b2o2b2o2b2o2b2o
2b2o2b2o2b2o2b2o2b2o2b2o2b2o2b2o2b2o2b2o2b2o2b2o2b2o2b2o2b2o2b2o2b2o2b
2o2b2o2b2o2b2o2b2o2b2o2b2o2b2o2b2o2b2o2b2o2b2o2b2o2b2o2b2o2b2o2b2o2b2o
2b2o2b2o2b2o2b2o2b2o2b2o2b2o2b2o2b2o2b2o2b2o2b2o2b2o2b2o2b2o2b2o2b2o2b
2o2b2o2b2o2b2o2b2o2b2o2b2o2b2o2b2o2b2o2b2o2b2o2b2o2b2o2b2o2b2o2b2o2b2o
2b2o2b2o2b2o2b2o2b2o2b2o2b2o2b2o2b2o2b2o2b2o2b2o2b2o2b2o2b2o2b2o2b2o2b
2o2b2o146b2o2b2o2b2o2b2o2b2o2b2o2b2o2b2o2b2o2b2o2b2o2b2o2b2o2b2o2b2o2b
2o2b2o2b2o2b2o2b2o2b2o2b2o2b2o2b2o2b2o2b2o2b2o2b2o2b2o2b2o2b2o2b2o178b
2o2b2o2b2o2b2o2b2o2b2o2b2o2b2o2b2o2b2o2b2o2b2o2b2o2b2o178b2o2b2o2b2o2b
2o2b2o2b2o2b2o2b2o2b2o2b2o2b2o2b2o2b2o2b2o2b2o2b2o2b2o2b2o2b2o2b2o2b2o
2b2o2b2o2b2o2b2o2b2o2b2o2b2o2b2o2b2o2b2o2b2o717b3o7bo7b5o67b2o1207bobo
18bob2o3b3o200bo3b2o6b2o36bo1548bobo18bob2o3b3o95bo104bo3b2o6b2o36bo
1248bobo18bob2o3b3o200bo3b2o6b2o36bo$2o2b2o2b2o2b2o2b2o2b2o2b2o2b2o2b
2o2b2o2b2o2b2o2b2o2b2o2b2o2b2o2b2o2b2o2b2o2b2o2b2o2b2o2b2o2b2o2b2o2b2o
2b2o2b2o2b2o2b2o2b2o2b2o2b2o2b2o2b2o2b2o2b2o2b2o2b2o2b2o2b2o2b2o2b2o2b
2o2b2o2b2o2b2o2b2o2b2o2b2o2b2o2b2o2b2o2b2o2b2o2b2o2b2o2b2o2b2o2b2o2b2o
2b2o2b2o2b2o2b2o2b2o2b2o2b2o2b2o2b2o2b2o2b2o2b2o2b2o2b2o2b2o2b2o2b2o2b
2o2b2o2b2o2b2o2b2o2b2o2b2o2b2o2b2o2b2o2b2o2b2o2b2o2b2o2b2o2b2o2b2o2b2o
2b2o2b2o2b2o2b2o2b2o2b2o2b2o2b2o2b2o2b2o2b2o2b2o2b2o2b2o2b2o2b2o2b2o2b
2o2b2o2b2o2b2o2b2o2b2o2b2o2b2o2b2o2b2o2b2o2b2o2b2o2b2o2b2o2b2o2b2o2b2o
2b2o2b2o2b2o2b2o2b2o2b2o2b2o2b2o2b2o2b2o2b2o2b2o2b2o2b2o2b2o2b2o2b2o2b
2o2b2o2b2o2b2o146b2o2b2o2b2o2b2o2b2o2b2o2b2o2b2o2b2o2b2o2b2o2b2o2b2o2b
2o2b2o2b2o2b2o2b2o2b2o2b2o2b2o2b2o2b2o2b2o2b2o2b2o2b2o2b2o2b2o2b2o2b2o
2b2o178b2o2b2o2b2o2b2o2b2o2b2o2b2o2b2o2b2o2b2o2b2o2b2o2b2o2b2o178b2o2b
2o2b2o2b2o2b2o2b2o2b2o2b2o2b2o2b2o2b2o2b2o2b2o2b2o2b2o2b2o2b2o2b2o2b2o
2b2o2b2o2b2o2b2o2b2o2b2o2b2o2b2o2b2o2b2o2b2o2b2o2b2o598bo3bo19b2o31bo
62bo7bo9bobo73bo419bobo54bo743bo2bo3bo5b2obo5b2o191bobo31b2o13b2o763bo
bo798bo2bo3bo5b2obo5b2o191bobo31b2o13b2o463bobo798bo2bo3bo5b2obo5b2o
191bobo31b2o13b2o$2013b3o19b2o31b2o62bo7b3o82bo421b2o55b2o712b2o26b2o
2bo4bo4bo2bo5b2o32bo159bo33bo779b2o769b2o26b2o2bo4bo4bo2bo5b2o23bo8bo
159bo33bo479b2o769b2o26b2o2bo4bo4bo2bo5b2o32bo159bo33bo$2013b3o14bo6bo
30bobo60b3o16b3o72b3o329b2o88bo55b2o712bobo25b2o5b4o4b2obo38b3o162b3o
24b3o6b2o682b2o88bo769bobo25b2o5b4o4b2obo29b2o7b3o27bobo132b3o24b3o6b
2o382b2o88bo769bobo25b2o5b4o4b2obo38b3o162b3o24b3o6b2o$2o2b2o2b2o2b2o
2b2o2b2o2b2o2b2o2b2o2b2o2b2o2b2o2b2o2b2o2b2o2b2o2b2o2b2o2b2o2b2o2b2o2b
2o2b2o2b2o2b2o2b2o2b2o2b2o2b2o2b2o2b2o2b2o2b2o2b2o2b2o2b2o2b2o2b2o2b2o
2b2o2b2o2b2o2b2o2b2o2b2o2b2o2b2o2b2o2b2o2b2o2b2o2b2o2b2o2b2o2b2o2b2o2b
2o2b2o2b2o2b2o2b2o2b2o2b2o2b2o2b2o2b2o2b2o2b2o2b2o2b2o2b2o2b2o2b2o2b2o
2b2o2b2o2b2o2b2o2b2o2b2o2b2o2b2o2b2o2b2o2b2o2b2o2b2o2b2o2b2o2b2o2b2o2b
2o2b2o2b2o2b2o2b2o2b2o2b2o2b2o2b2o2b2o2b2o2b2o2b2o2b2o2b2o2b2o2b2o2b2o
2b2o2b2o2b2o2b2o2b2o2b2o2b2o2b2o2b2o2b2o2b2o2b2o2b2o2b2o2b2o2b2o2b2o2b
2o2b2o2b2o2b2o2b2o2b2o2b2o2b2o2b2o2b2o2b2o2b2o2b2o2b2o2b2o2b2o2b2o2b2o
2b2o2b2o2b2o2b2o2b2o2b2o2b2o2b2o146b2o2b2o2b2o2b2o2b2o2b2o2b2o2b2o2b2o
2b2o2b2o2b2o2b2o2b2o2b2o2b2o2b2o2b2o2b2o2b2o2b2o2b2o2b2o2b2o2b2o2b2o2b
2o2b2o2b2o2b2o2b2o2b2o182b2o2b2o2b2o2b2o2b2o2b2o2b2o2b2o2b2o2b2o2b2o2b
2o182b2o2b2o2b2o2b2o2b2o2b2o2b2o2b2o2b2o2b2o2b2o2b2o2b2o2b2o2b2o2b2o2b
2o2b2o2b2o2b2o2b2o2b2o2b2o2b2o2b2o2b2o2b2o2b2o2b2o2b2o2b2o2b2o616b2o
525b2o848b2o7bo6b2o4bo14b3o7bo3b3o40b5o161bo26bo8b2o682b2o848b2o7bo6b
2o4bo14b3o7bo3b3o32bobo5b5o26b2o53bobo77bo26bo8b2o382b2o848b2o7bo6b2o
4bo14b3o7bo3b3o40b5o161bo26bo8b2o$2o2b2o2b2o2b2o2b2o2b2o2b2o2b2o2b2o2b
2o2b2o2b2o2b2o2b2o2b2o2b2o2b2o2b2o2b2o2b2o2b2o2b2o2b2o2b2o2b2o2b2o2b2o
2b2o2b2o2b2o2b2o2b2o2b2o2b2o2b2o2b2o2b2o2b2o2b2o2b2o2b2o2b2o2b2o2b2o2b
2o2b2o2b2o2b2o2b2o2b2o2b2o2b2o2b2o2b2o2b2o2b2o2b2o2b2o2b2o2b2o2b2o2b2o
2b2o2b2o2b2o2b2o2b2o2b2o2b2o2b2o2b2o2b2o2b2o2b2o2b2o2b2o2b2o2b2o2b2o2b
2o2b2o2b2o2b2o2b2o2b2o2b2o2b2o2b2o2b2o2b2o2b2o2b2o2b2o2b2o2b2o2b2o2b2o
2b2o2b2o2b2o2b2o2b2o2b2o2b2o2b2o2b2o2b2o2b2o2b2o2b2o2b2o2b2o2b2o2b2o2b
2o2b2o2b2o2b2o2b2o2b2o2b2o2b2o2b2o2b2o2b2o2b2o2b2o2b2o2b2o2b2o2b2o2b2o
2b2o2b2o2b2o2b2o2b2o2b2o2b2o2b2o2b2o2b2o2b2o2b2o2b2o2b2o2b2o2b2o2b2o2b
2o2b2o2b2o146b2o2b2o2b2o2b2o2b2o2b2o2b2o2b2o2b2o2b2o2b2o2b2o2b2o2b2o2b
2o2b2o2b2o2b2o2b2o2b2o2b2o2b2o2b2o2b2o2b2o2b2o2b2o2b2o2b2o2b2o2b2o2b2o
182b2o2b2o2b2o2b2o2b2o2b2o2b2o2b2o2b2o2b2o2b2o2b2o182b2o2b2o2b2o2b2o2b
2o2b2o2b2o2b2o2b2o2b2o2b2o2b2o2b2o2b2o2b2o2b2o2b2o2b2o2b2o2b2o2b2o2b2o
2b2o2b2o2b2o2b2o2b2o2b2o2b2o2b2o2b2o2b2o607b2o2b2o4b2o17bo1356b2o7bo2b
o2bo2bo2bobo14b2o11b2o40bobobobo161bo1568b2o7bo2bo2bo2bo2bobo14b2o11b
2o40bobobobo26bo53b2o79bo1268b2o7bo2bo2bo2bo2bobo14b2o11b2o40bobobobo
161bo$2021b2o2b2o4b3o16b3o168b3o446bo2bo26bo2bo712bo6b3obob2o15b2o52b
2o3b2o993bo2bo26bo2bo26bo2bo26bo2bo26bo2bo26bo2bo26bo2bo26bo2bo26bo2bo
26bo2bo26bo2bo26bo2bo26bo2bo26bo2bo26bo2bo26bo2bo26bo2bo26bo2bo26bo2bo
26bo2bo26bo2bo26bo2bo26bo2bo26bo2bo26bo2bo22bo6b3obob2o15b2o52b2o3b2o
56b3o22bo611bo2bo26bo2bo26bo2bo26bo2bo26bo2bo26bo2bo26bo2bo26bo2bo26bo
2bo26bo2bo26bo2bo26bo2bo26bo2bo26bo2bo26bo2bo26bo2bo26bo2bo26bo2bo26bo
2bo26bo2bo26bo2bo26bo2bo26bo2bo26bo2bo26bo2bo22bo6b3obob2o15b2o52b2o3b
2o$2025b2o4b2o20bo37b2o38bo89bo335bo98b4o14bo11b4o14bo712bobo6b2ob2o
16bo939bo98b4o14bo11b4o14bo11b4o14bo11b4o14bo11b4o14bo11b4o14bo11b4o
14bo11b4o14bo11b4o14bo11b4o14bo11b4o14bo11b4o14bo11b4o14bo11b4o14bo11b
4o14bo11b4o14bo11b4o14bo11b4o14bo11b4o14bo11b4o14bo11b4o14bo11b4o14bo
11b4o14bo11b4o14bo11b4o14bo22bobo6b2ob2o16bo115bo523bo98b4o14bo11b4o
14bo11b4o14bo11b4o14bo11b4o14bo11b4o14bo11b4o14bo11b4o14bo11b4o14bo11b
4o14bo11b4o14bo11b4o14bo11b4o14bo11b4o14bo11b4o14bo11b4o14bo11b4o14bo
11b4o14bo11b4o14bo11b4o14bo11b4o14bo11b4o14bo11b4o14bo11b4o14bo11b4o
14bo22bobo6b2ob2o16bo$2o2b2o2b2o2b2o2b2o2b2o2b2o2b2o2b2o2b2o2b2o2b2o2b
2o2b2o2b2o2b2o2b2o2b2o2b2o2b2o2b2o2b2o2b2o2b2o2b2o2b2o2b2o2b2o2b2o2b2o
2b2o2b2o2b2o2b2o2b2o2b2o2b2o2b2o2b2o2b2o2b2o2b2o2b2o2b2o2b2o2b2o2b2o2b
2o2b2o2b2o2b2o2b2o2b2o2b2o2b2o2b2o2b2o2b2o2b2o2b2o2b2o2b2o2b2o2b2o2b2o
2b2o2b2o2b2o2b2o2b2o2b2o2b2o2b2o2b2o2b2o2b2o2b2o2b2o2b2o2b2o2b2o2b2o2b
2o2b2o2b2o2b2o2b2o2b2o2b2o2b2o2b2o2b2o2b2o2b2o2b2o2b2o2b2o2b2o2b2o2b2o
2b2o2b2o2b2o2b2o2b2o2b2o2b2o2b2o2b2o2b2o2b2o2b2o2b2o2b2o2b2o2b2o2b2o2b
2o2b2o2b2o2b2o2b2o2b2o2b2o2b2o2b2o2b2o2b2o2b2o2b2o2b2o2b2o2b2o2b2o2b2o
2b2o2b2o2b2o2b2o2b2o2b2o2b2o2b2o2b2o2b2o2b2o2b2o2b2o2b2o2b2o2b2o2b2o
146b2o2b2o2b2o2b2o2b2o2b2o2b2o2b2o2b2o2b2o2b2o2b2o2b2o2b2o2b2o2b2o2b2o
2b2o2b2o2b2o2b2o2b2o2b2o2b2o2b2o2b2o2b2o2b2o2b2o2b2o2b2o2b2o186b2o2b2o
2b2o2b2o2b2o2b2o2b2o2b2o2b2o2b2o186b2o2b2o2b2o2b2o2b2o2b2o2b2o2b2o2b2o
2b2o2b2o2b2o2b2o2b2o2b2o2b2o2b2o2b2o2b2o2b2o2b2o2b2o2b2o2b2o2b2o2b2o2b
2o2b2o2b2o2b2o2b2o2b2o600b2o14b2o8b2o10b2o37b2o36b2o83bobo5bo333b3o96b
o3bo10bo3bo10bo3bo10bo3bo713b2o7bob2o955b3o96bo3bo10bo3bo10bo3bo10bo3b
o10bo3bo10bo3bo10bo3bo10bo3bo10bo3bo10bo3bo10bo3bo10bo3bo10bo3bo10bo3b
o10bo3bo10bo3bo10bo3bo10bo3bo10bo3bo10bo3bo10bo3bo10bo3bo10bo3bo10bo3b
o10bo3bo10bo3bo10bo3bo10bo3bo10bo3bo10bo3bo10bo3bo10bo3bo10bo3bo10bo3b
o10bo3bo10bo3bo10bo3bo10bo3bo10bo3bo10bo3bo10bo3bo10bo3bo10bo3bo10bo3b
o10bo3bo10bo3bo10bo3bo10bo3bo10bo3bo10bo3bo23b2o7bob2o133bo521b3o96bo
3bo10bo3bo10bo3bo10bo3bo10bo3bo10bo3bo10bo3bo10bo3bo10bo3bo10bo3bo10bo
3bo10bo3bo10bo3bo10bo3bo10bo3bo10bo3bo10bo3bo10bo3bo10bo3bo10bo3bo10bo
3bo10bo3bo10bo3bo10bo3bo10bo3bo10bo3bo10bo3bo10bo3bo10bo3bo10bo3bo10bo
3bo10bo3bo10bo3bo10bo3bo10bo3bo10bo3bo10bo3bo10bo3bo10bo3bo10bo3bo10bo
3bo10bo3bo10bo3bo10bo3bo10bo3bo10bo3bo10bo3bo10bo3bo10bo3bo10bo3bo23b
2o7bob2o$2o2b2o2b2o2b2o2b2o2b2o2b2o2b2o2b2o2b2o2b2o2b2o2b2o2b2o2b2o2b
2o2b2o2b2o2b2o2b2o2b2o2b2o2b2o2b2o2b2o2b2o2b2o2b2o2b2o2b2o2b2o2b2o2b2o
2b2o2b2o2b2o2b2o2b2o2b2o2b2o2b2o2b2o2b2o2b2o2b2o2b2o2b2o2b2o2b2o2b2o2b
2o2b2o2b2o2b2o2b2o2b2o2b2o2b2o2b2o2b2o2b2o2b2o2b2o2b2o2b2o2b2o2b2o2b2o
2b2o2b2o2b2o2b2o2b2o2b2o2b2o2b2o2b2o2b2o2b2o2b2o2b2o2b2o2b2o2b2o2b2o2b
2o2b2o2b2o2b2o2b2o2b2o2b2o2b2o2b2o2b2o2b2o2b2o2b2o2b2o2b2o2b2o2b2o2b2o
2b2o2b2o2b2o2b2o2b2o2b2o2b2o2b2o2b2o2b2o2b2o2b2o2b2o2b2o2b2o2b2o2b2o2b
2o2b2o2b2o2b2o2b2o2b2o2b2o2b2o2b2o2b2o2b2o2b2o2b2o2b2o2b2o2b2o2b2o2b2o
2b2o2b2o2b2o2b2o2b2o2b2o2b2o2b2o2b2o2b2o2b2o2b2o2b2o2b2o146b2o2b2o2b2o
2b2o2b2o2b2o2b2o2b2o2b2o2b2o2b2o2b2o2b2o2b2o2b2o2b2o2b2o2b2o2b2o2b2o2b
2o2b2o2b2o2b2o2b2o2b2o2b2o2b2o2b2o2b2o2b2o2b2o186b2o2b2o2b2o2b2o2b2o2b
2o2b2o2b2o2b2o2b2o186b2o2b2o2b2o2b2o2b2o2b2o2b2o2b2o2b2o2b2o2b2o2b2o2b
2o2b2o2b2o2b2o2b2o2b2o2b2o2b2o2b2o2b2o2b2o2b2o2b2o2b2o2b2o2b2o2b2o2b2o
2b2o2b2o600b2o14bo9bobo33b2o52b2o82b2o18bo320bo3bo99bo11b4o14bo11b4o
723bobo69b2o883bo3bo99bo11b4o14bo11b4o14bo11b4o14bo11b4o14bo11b4o14bo
11b4o14bo11b4o14bo11b4o14bo11b4o14bo11b4o14bo11b4o14bo11b4o14bo11b4o
14bo11b4o14bo11b4o14bo11b4o14bo11b4o14bo11b4o14bo11b4o14bo11b4o14bo11b
4o14bo11b4o14bo11b4o14bo11b4o14bo11b4o33bobo69b2o583bo3bo99bo11b4o14bo
11b4o14bo11b4o14bo11b4o14bo11b4o14bo11b4o14bo11b4o14bo11b4o14bo11b4o
14bo11b4o14bo11b4o14bo11b4o14bo11b4o14bo11b4o14bo11b4o14bo11b4o14bo11b
4o14bo11b4o14bo11b4o14bo11b4o14bo11b4o14bo11b4o14bo11b4o14bo11b4o14bo
11b4o33bobo69b2o$2042bo32b2o70b3o65bo18b2o321bo98bobo26bo2bo712b2o26bo
70b2o4bo168b2o710bo98bobo26bo2bo26bo2bo26bo2bo26bo2bo26bo2bo26bo2bo26b
o2bo26bo2bo26bo2bo26bo2bo26bo2bo26bo2bo26bo2bo26bo2bo26bo2bo26bo2bo26b
o2bo26bo2bo26bo2bo26bo2bo26bo2bo26bo2bo26bo2bo26bo2bo22b2o26bo70b2o24b
o148b2o410bo98bobo26bo2bo26bo2bo26bo2bo26bo2bo26bo2bo26bo2bo26bo2bo26b
o2bo26bo2bo26bo2bo26bo2bo26bo2bo26bo2bo26bo2bo26bo2bo26bo2bo26bo2bo26b
o2bo26bo2bo26bo2bo26bo2bo26bo2bo26bo2bo26bo2bo22b2o26bo70b2o4bo168b2o$
2042b2o33bo59b3o83bo5b2o4b2o317bo5bo84b2o754bobo95bo5bob2o166bobo706bo
5bo84b2o754bobo95bo24b2o55bo93bobo406bo5bo84b2o754bobo95bo5bob2o166bob
o$2o2b2o2b2o2b2o2b2o2b2o2b2o2b2o2b2o2b2o2b2o2b2o2b2o2b2o2b2o2b2o2b2o2b
2o2b2o2b2o2b2o2b2o2b2o2b2o2b2o2b2o2b2o2b2o2b2o2b2o2b2o2b2o2b2o2b2o2b2o
2b2o2b2o2b2o2b2o2b2o2b2o2b2o2b2o2b2o2b2o2b2o2b2o2b2o2b2o2b2o2b2o2b2o2b
2o2b2o2b2o2b2o2b2o2b2o2b2o2b2o2b2o2b2o2b2o2b2o2b2o2b2o2b2o2b2o2b2o2b2o
2b2o2b2o2b2o2b2o2b2o2b2o2b2o2b2o2b2o2b2o2b2o2b2o2b2o2b2o2b2o2b2o2b2o2b
2o2b2o2b2o2b2o2b2o2b2o2b2o2b2o2b2o2b2o2b2o2b2o2b2o2b2o2b2o2b2o2b2o2b2o
2b2o2b2o2b2o2b2o2b2o2b2o2b2o2b2o2b2o2b2o2b2o2b2o2b2o2b2o2b2o2b2o2b2o2b
2o2b2o2b2o2b2o2b2o2b2o2b2o2b2o2b2o2b2o2b2o2b2o2b2o2b2o2b2o2b2o2b2o2b2o
2b2o2b2o2b2o2b2o2b2o2b2o2b2o2b2o2b2o2b2o2b2o2b2o146b2o2b2o2b2o2b2o2b2o
2b2o2b2o2b2o2b2o2b2o2b2o2b2o2b2o2b2o2b2o2b2o2b2o2b2o2b2o2b2o2b2o2b2o2b
2o2b2o2b2o2b2o2b2o2b2o2b2o2b2o2b2o2b2o190b2o2b2o2b2o2b2o2b2o2b2o2b2o2b
2o190b2o2b2o2b2o2b2o2b2o2b2o2b2o2b2o2b2o2b2o2b2o2b2o2b2o2b2o2b2o2b2o2b
2o2b2o2b2o2b2o2b2o2b2o2b2o2b2o2b2o2b2o2b2o2b2o2b2o2b2o2b2o2b2o723bo9bo
bo36b2o35bobo3b2o4b3o7b2o307bo5bo84b2o4bo751bo95b3ob4o168bo23b2o683bo
5bo84b2o4bo751bo95b3o23b2o52b2o94bo23b2o383bo5bo84b2o4bo751bo95b3ob4o
168bo23b2o$2o2b2o2b2o2b2o2b2o2b2o2b2o2b2o2b2o2b2o2b2o2b2o2b2o2b2o2b2o
2b2o2b2o2b2o2b2o2b2o2b2o2b2o2b2o2b2o2b2o2b2o2b2o2b2o2b2o2b2o2b2o2b2o2b
2o2b2o2b2o2b2o2b2o2b2o2b2o2b2o2b2o2b2o2b2o2b2o2b2o2b2o2b2o2b2o2b2o2b2o
2b2o2b2o2b2o2b2o2b2o2b2o2b2o2b2o2b2o2b2o2b2o2b2o2b2o2b2o2b2o2b2o2b2o2b
2o2b2o2b2o2b2o2b2o2b2o2b2o2b2o2b2o2b2o2b2o2b2o2b2o2b2o2b2o2b2o2b2o2b2o
2b2o2b2o2b2o2b2o2b2o2b2o2b2o2b2o2b2o2b2o2b2o2b2o2b2o2b2o2b2o2b2o2b2o2b
2o2b2o2b2o2b2o2b2o2b2o2b2o2b2o2b2o2b2o2b2o2b2o2b2o2b2o2b2o2b2o2b2o2b2o
2b2o2b2o2b2o2b2o2b2o2b2o2b2o2b2o2b2o2b2o2b2o2b2o2b2o2b2o2b2o2b2o2b2o2b
2o2b2o2b2o2b2o2b2o2b2o2b2o2b2o2b2o2b2o2b2o2b2o2b2o2b2o2b2o146b2o2b2o2b
2o2b2o2b2o2b2o2b2o2b2o2b2o2b2o2b2o2b2o2b2o2b2o2b2o2b2o2b2o2b2o2b2o2b2o
2b2o2b2o2b2o2b2o2b2o2b2o2b2o2b2o2b2o2b2o2b2o2b2o190b2o2b2o2b2o2b2o2b2o
2b2o2b2o2b2o190b2o2b2o2b2o2b2o2b2o2b2o2b2o2b2o2b2o2b2o2b2o2b2o2b2o2b2o
2b2o2b2o2b2o2b2o2b2o2b2o2b2o2b2o2b2o2b2o2b2o2b2o2b2o2b2o2b2o2b2o2b2o2b
2o640b3o81bo7b5o35b3o35bobo2b2o4b2o8b2o224bo83bo3bo74b2o6b2o6b5ob2o
745b2o110b2o182bo601bo83bo3bo74b2o6b2o6b5ob2o745b2o98bo11b2o54b2o7b2o
117bo301bo83bo3bo74b2o6b2o6b5ob2o745b2o110b2o182bo$2053bo3bo87b2o3b2o
20bo15b2obo32bo2bo6b2o234bobo83b3o75b2o5b3o5bo2b2o4bo840b5o11b2o171b2o
7bobo600bobo83b3o75b2o5b3o5bo2b2o4bo840b5o11b2o54bobo114b2o7bobo300bob
o83b3o75b2o5b3o5bo2b2o4bo840b5o11b2o171b2o7bobo$2020b2o100bobo6b3o11b
2o3b2o18bobo4b3o8bo2bo5b2o9bo15bobo7bo225b2o6b2o3bo118b2o48b2o5b2o8bo
8b2o831b2o47b2o136bobo6b2o591b2o6b2o3bo118b2o48b2o5b2o8bo8b2o831b2o47b
2o19bo116bobo6b2o291b2o6b2o3bo118b2o48b2o5b2o8bo8b2o831b2o47b2o136bobo
6b2o$2o2b2o2b2o2b2o2b2o2b2o2b2o2b2o2b2o2b2o2b2o2b2o2b2o2b2o2b2o2b2o2b
2o2b2o2b2o2b2o2b2o2b2o2b2o2b2o2b2o2b2o2b2o2b2o2b2o2b2o2b2o2b2o2b2o2b2o
2b2o2b2o2b2o2b2o2b2o2b2o2b2o2b2o2b2o2b2o2b2o2b2o2b2o2b2o2b2o2b2o2b2o2b
2o2b2o2b2o2b2o2b2o2b2o2b2o2b2o2b2o2b2o2b2o2b2o2b2o2b2o2b2o2b2o2b2o2b2o
2b2o2b2o2b2o2b2o2b2o2b2o2b2o2b2o2b2o2b2o2b2o2b2o2b2o2b2o2b2o2b2o2b2o2b
2o2b2o2b2o2b2o2b2o2b2o2b2o2b2o2b2o2b2o2b2o2b2o2b2o2b2o2b2o2b2o2b2o2b2o
2b2o2b2o2b2o2b2o2b2o2b2o2b2o2b2o2b2o2b2o2b2o2b2o2b2o2b2o2b2o2b2o2b2o2b
2o2b2o2b2o2b2o2b2o2b2o2b2o2b2o2b2o2b2o2b2o2b2o2b2o2b2o2b2o2b2o2b2o2b2o
2b2o2b2o2b2o2b2o2b2o2b2o2b2o2b2o2b2o2b2o2b2o2b2o2b2o146b2o2b2o2b2o2b2o
2b2o2b2o2b2o2b2o2b2o2b2o2b2o2b2o2b2o2b2o2b2o2b2o2b2o2b2o2b2o2b2o2b2o2b
2o2b2o2b2o2b2o2b2o2b2o2b2o2b2o2b2o2b2o2b2o194b2o2b2o2b2o2b2o2b2o2b2o
194b2o2b2o2b2o2b2o2b2o2b2o2b2o2b2o2b2o2b2o2b2o2b2o2b2o2b2o2b2o2b2o2b2o
2b2o2b2o2b2o2b2o2b2o2b2o2b2o2b2o2b2o2b2o2b2o2b2o2b2o2b2o2b2o606b2o30bo
5bo25bo37b2o8bo36bobo16b2obo5b2o7b2o5b2o8bobo233bobo4b2obo3bo9b2o107b
2o51b2o4bo7bo8b2o868b2o10b2o14b2o110bo4b2o4b3o597bobo4b2obo3bo9b2o107b
2o51b2o4bo7bo8b2o845bo22b2o10b2o14b2o110bo4b2o4b3o297bobo4b2obo3bo9b2o
107b2o51b2o4bo7bo8b2o868b2o10b2o14b2o110bo4b2o4b3o$2o2b2o2b2o2b2o2b2o
2b2o2b2o2b2o2b2o2b2o2b2o2b2o2b2o2b2o2b2o2b2o2b2o2b2o2b2o2b2o2b2o2b2o2b
2o2b2o2b2o2b2o2b2o2b2o2b2o2b2o2b2o2b2o2b2o2b2o2b2o2b2o2b2o2b2o2b2o2b2o
2b2o2b2o2b2o2b2o2b2o2b2o2b2o2b2o2b2o2b2o2b2o2b2o2b2o2b2o2b2o2b2o2b2o2b
2o2b2o2b2o2b2o2b2o2b2o2b2o2b2o2b2o2b2o2b2o2b2o2b2o2b2o2b2o2b2o2b2o2b2o
2b2o2b2o2b2o2b2o2b2o2b2o2b2o2b2o2b2o2b2o2b2o2b2o2b2o2b2o2b2o2b2o2b2o2b
2o2b2o2b2o2b2o2b2o2b2o2b2o2b2o2b2o2b2o2b2o2b2o2b2o2b2o2b2o2b2o2b2o2b2o
2b2o2b2o2b2o2b2o2b2o2b2o2b2o2b2o2b2o2b2o2b2o2b2o2b2o2b2o2b2o2b2o2b2o2b
2o2b2o2b2o2b2o2b2o2b2o2b2o2b2o2b2o2b2o2b2o2b2o2b2o2b2o2b2o2b2o2b2o2b2o
2b2o2b2o2b2o2b2o2b2o2b2o2b2o146b2o2b2o2b2o2b2o2b2o2b2o2b2o2b2o2b2o2b2o
2b2o2b2o2b2o2b2o2b2o2b2o2b2o2b2o2b2o2b2o2b2o2b2o2b2o2b2o2b2o2b2o2b2o2b
2o2b2o2b2o2b2o2b2o194b2o2b2o2b2o2b2o2b2o2b2o194b2o2b2o2b2o2b2o2b2o2b2o
2b2o2b2o2b2o2b2o2b2o2b2o2b2o2b2o2b2o2b2o2b2o2b2o2b2o2b2o2b2o2b2o2b2o2b
2o2b2o2b2o2b2o2b2o2b2o2b2o2b2o2b2o638b2o3b2o24b2o7bo30bo8bo30b2o3bo2bo
7bo2b2o2b3o18b2o3bobo8bo234b3o4b3obo3bo9b2o160b2o12bo854bo23b2o26bo2bo
107bobob2o2bo4b3o595b3o4b3obo3bo9b2o160b2o12bo854b3o21b2o26bo2bo107bob
ob2o2bo4b3o295b3o4b3obo3bo9b2o160b2o12bo854bo23b2o26bo2bo107bobob2o2bo
4b3o$2083bobo5b3o37b3o11b2o16b2o4bobo7bo3bo2b2o24bo244b3o4bo2b2obobo
101bo83bo839b2o3b2o8b2o43b5o7bo94b2o9bo3bob3o4b3o595b3o4bo2b2obobo101b
o83bo839b2o3b2o8bo3b3o38b5o7bo94b2o9bo3bob3o4b3o295b3o4bo2b2obobo101bo
83bo839b2o3b2o8b2o43b5o7bo94b2o9bo3bob3o4b3o$2016b2o2b2o2b2o64b5o48b2o
bo23bobo6bo2bo28b2o245b3o4b2o4bo87bo14bo13b2o2b2o2b2o58b2o841b5o9bobo
30b2o2b2o2b2obo5bo6bo94b2o9bo3bob2o4bobo597b3o4b2o4bo87bo14bo13b2o2b2o
2b2o58b2o841b5o9bobo30b2o2b2o2b2obo5bo6bo94b2o9bo3bob2o4bobo297b3o4b2o
4bo87bo14bo13b2o2b2o2b2o58b2o841b5o9bobo30b2o2b2o2b2obo5bo6bo94b2o9bo
3bob2o4bobo$2o2b2o2b2o2b2o2b2o2b2o2b2o2b2o2b2o2b2o2b2o2b2o2b2o2b2o2b2o
2b2o2b2o2b2o2b2o2b2o2b2o2b2o2b2o2b2o2b2o2b2o2b2o2b2o2b2o2b2o2b2o2b2o2b
2o2b2o2b2o2b2o2b2o2b2o2b2o2b2o2b2o2b2o2b2o2b2o2b2o2b2o2b2o2b2o2b2o2b2o
2b2o2b2o2b2o2b2o2b2o2b2o2b2o2b2o2b2o2b2o2b2o2b2o2b2o2b2o2b2o2b2o2b2o2b
2o2b2o2b2o2b2o2b2o2b2o2b2o2b2o2b2o2b2o2b2o2b2o2b2o2b2o2b2o2b2o2b2o2b2o
2b2o2b2o2b2o2b2o2b2o2b2o2b2o2b2o2b2o2b2o2b2o2b2o2b2o2b2o2b2o2b2o2b2o2b
2o2b2o2b2o2b2o2b2o2b2o2b2o2b2o2b2o2b2o2b2o2b2o2b2o2b2o2b2o2b2o2b2o2b2o
2b2o2b2o2b2o2b2o2b2o2b2o2b2o2b2o2b2o2b2o2b2o2b2o2b2o2b2o2b2o2b2o2b2o2b
2o2b2o2b2o2b2o2b2o2b2o2b2o2b2o2b2o2b2o2b2o2b2o2b2o2b2o2b2o146b2o2b2o2b
2o2b2o2b2o2b2o2b2o2b2o2b2o2b2o2b2o2b2o2b2o2b2o2b2o2b2o2b2o2b2o2b2o2b2o
2b2o2b2o2b2o2b2o2b2o2b2o2b2o2b2o2b2o2b2o2b2o2b2o198b2o2b2o2b2o2b2o198b
2o2b2o2b2o2b2o2b2o2b2o2b2o2b2o2b2o2b2o2b2o2b2o2b2o2b2o2b2o2b2o2b2o2b2o
2b2o2b2o2b2o2b2o2b2o2b2o2b2o2b2o2b2o2b2o2b2o2b2o2b2o2b2o602b2o2b2o2b2o
29bo33b2o3b2o35b3o9bo28bo8b2o268b2o6bobo126b2o2b2o2b2o901b2ob2o42b2o2b
2o2b2obo3b2o7bo105bo3b2o6b2o591b2o6bobo126b2o2b2o2b2o901b2ob2o10bo31b
2o2b2o2b2obo3b2o7bo105bo3b2o6b2o291b2o6bobo126b2o2b2o2b2o901b2ob2o42b
2o2b2o2b2obo3b2o7bo105bo3b2o6b2o$2o2b2o2b2o2b2o2b2o2b2o2b2o2b2o2b2o2b
2o2b2o2b2o2b2o2b2o2b2o2b2o2b2o2b2o2b2o2b2o2b2o2b2o2b2o2b2o2b2o2b2o2b2o
2b2o2b2o2b2o2b2o2b2o2b2o2b2o2b2o2b2o2b2o2b2o2b2o2b2o2b2o2b2o2b2o2b2o2b
2o2b2o2b2o2b2o2b2o2b2o2b2o2b2o2b2o2b2o2b2o2b2o2b2o2b2o2b2o2b2o2b2o2b2o
2b2o2b2o2b2o2b2o2b2o2b2o2b2o2b2o2b2o2b2o2b2o2b2o2b2o2b2o2b2o2b2o2b2o2b
2o2b2o2b2o2b2o2b2o2b2o2b2o2b2o2b2o2b2o2b2o2b2o2b2o2b2o2b2o2b2o2b2o2b2o
2b2o2b2o2b2o2b2o2b2o2b2o2b2o2b2o2b2o2b2o2b2o2b2o2b2o2b2o2b2o2b2o2b2o2b
2o2b2o2b2o2b2o2b2o2b2o2b2o2b2o2b2o2b2o2b2o2b2o2b2o2b2o2b2o2b2o2b2o2b2o
2b2o2b2o2b2o2b2o2b2o2b2o2b2o2b2o2b2o2b2o2b2o2b2o2b2o2b2o2b2o2b2o2b2o2b
2o2b2o2b2o146b2o2b2o2b2o2b2o2b2o2b2o2b2o2b2o2b2o2b2o2b2o2b2o2b2o2b2o2b
2o2b2o2b2o2b2o2b2o2b2o2b2o2b2o2b2o2b2o2b2o2b2o2b2o2b2o2b2o2b2o2b2o2b2o
198b2o2b2o2b2o2b2o198b2o2b2o2b2o2b2o2b2o2b2o2b2o2b2o2b2o2b2o2b2o2b2o2b
2o2b2o2b2o2b2o2b2o2b2o2b2o2b2o2b2o2b2o2b2o2b2o2b2o2b2o2b2o2b2o2b2o2b2o
2b2o2b2o615bo24bob2o32b5o36b3o316bobo7b2o112bo81b2o841b2ob2o54bo7bo2bo
6b2o99bobo600bobo7b2o112bo81b2o841b2ob2o54bo7bo2bo6b2o99bobo300bobo7b
2o112bo81b2o841b2ob2o54bo7bo2bo6b2o99bobo$2029b3o22bo35b5o21bo27b3obo
301bo108bo13bobo82bo841b3o63b2o8bobo99bo601bo108bo13bobo82bo841b3o63b
2o8bobo99bo301bo108bo13bobo82bo841b3o63b2o8bobo99bo$2020b2o10bo21bo3bo
31bo2bo20b2o15b3o14bo50bobo247b2o23bo82bobo32b2o51b2o12bo862bo7bo19b2o
26bo700b2o23bo82bobo32b2o51b2o12bo862bo7bo19b2o26bo400b2o23bo82bobo32b
2o51b2o12bo862bo7bo19b2o26bo$2o2b2o2b2o2b2o2b2o2b2o2b2o2b2o2b2o2b2o2b
2o2b2o2b2o2b2o2b2o2b2o2b2o2b2o2b2o2b2o2b2o2b2o2b2o2b2o2b2o2b2o2b2o2b2o
2b2o2b2o2b2o2b2o2b2o2b2o2b2o2b2o2b2o2b2o2b2o2b2o2b2o2b2o2b2o2b2o2b2o2b
2o2b2o2b2o2b2o2b2o2b2o2b2o2b2o2b2o2b2o2b2o2b2o2b2o2b2o2b2o2b2o2b2o2b2o
2b2o2b2o2b2o2b2o2b2o2b2o2b2o2b2o2b2o2b2o2b2o2b2o2b2o2b2o2b2o2b2o2b2o2b
2o2b2o2b2o2b2o2b2o2b2o2b2o2b2o2b2o2b2o2b2o2b2o2b2o2b2o2b2o2b2o2b2o2b2o
2b2o2b2o2b2o2b2o2b2o2b2o2b2o2b2o2b2o2b2o2b2o2b2o2b2o2b2o2b2o2b2o2b2o2b
2o2b2o2b2o2b2o2b2o2b2o2b2o2b2o2b2o2b2o2b2o2b2o2b2o2b2o2b2o2b2o2b2o2b2o
2b2o2b2o2b2o2b2o2b2o2b2o2b2o2b2o2b2o2b2o2b2o2b2o2b2o2b2o2b2o2b2o2b2o2b
2o2b2o146b2o2b2o2b2o2b2o2b2o2b2o2b2o2b2o2b2o2b2o2b2o2b2o2b2o2b2o2b2o2b
2o2b2o2b2o2b2o2b2o2b2o2b2o2b2o2b2o2b2o2b2o2b2o2b2o2b2o2b2o2b2o2b2o202b
2o2b2o202b2o2b2o2b2o2b2o2b2o2b2o2b2o2b2o2b2o2b2o2b2o2b2o2b2o2b2o2b2o2b
2o2b2o2b2o2b2o2b2o2b2o2b2o2b2o2b2o2b2o2b2o2b2o2b2o2b2o2b2o2b2o2b2o606b
2o9b2o22bo2bo30bo3bo21b2o15bo15bo41bo8b2o271bobo83b2o13b3o16b2o51b2o4b
o7bo8b2o851b4o5bobo17b2o26b2o722bobo83b2o13b3o16b2o51b2o4bo7bo8b2o836b
o14b4o5bobo17b2o26b2o422bobo83b2o13b3o16b2o51b2o4bo7bo8b2o851b4o5bobo
17b2o26b2o$2o2b2o2b2o2b2o2b2o2b2o2b2o2b2o2b2o2b2o2b2o2b2o2b2o2b2o2b2o
2b2o2b2o2b2o2b2o2b2o2b2o2b2o2b2o2b2o2b2o2b2o2b2o2b2o2b2o2b2o2b2o2b2o2b
2o2b2o2b2o2b2o2b2o2b2o2b2o2b2o2b2o2b2o2b2o2b2o2b2o2b2o2b2o2b2o2b2o2b2o
2b2o2b2o2b2o2b2o2b2o2b2o2b2o2b2o2b2o2b2o2b2o2b2o2b2o2b2o2b2o2b2o2b2o2b
2o2b2o2b2o2b2o2b2o2b2o2b2o2b2o2b2o2b2o2b2o2b2o2b2o2b2o2b2o2b2o2b2o2b2o
2b2o2b2o2b2o2b2o2b2o2b2o2b2o2b2o2b2o2b2o2b2o2b2o2b2o2b2o2b2o2b2o2b2o2b
2o2b2o2b2o2b2o2b2o2b2o2b2o2b2o2b2o2b2o2b2o2b2o2b2o2b2o2b2o2b2o2b2o2b2o
2b2o2b2o2b2o2b2o2b2o2b2o2b2o2b2o2b2o2b2o2b2o2b2o2b2o2b2o2b2o2b2o2b2o2b
2o2b2o2b2o2b2o2b2o2b2o2b2o2b2o2b2o2b2o2b2o2b2o2b2o2b2o2b2o146b2o2b2o2b
2o2b2o2b2o2b2o2b2o2b2o2b2o2b2o2b2o2b2o2b2o2b2o2b2o2b2o2b2o2b2o2b2o2b2o
2b2o2b2o2b2o2b2o2b2o2b2o2b2o2b2o2b2o2b2o2b2o2b2o202b2o2b2o202b2o2b2o2b
2o2b2o2b2o2b2o2b2o2b2o2b2o2b2o2b2o2b2o2b2o2b2o2b2o2b2o2b2o2b2o2b2o2b2o
2b2o2b2o2b2o2b2o2b2o2b2o2b2o2b2o2b2o2b2o2b2o2b2o641b5o29bo42bo55bobo9b
o272b2o167b2o5b2o8bo8b2o846b2o2bo2b2o8b2o4b2o762b2o167b2o5b2o8bo8b2o
836bobo7b2o2bo2b2o8b2o4b2o462b2o167b2o5b2o8bo8b2o846b2o2bo2b2o8b2o4b2o
$2055b5o29bob2o11b2o25b3o55b2o443b2o5b3o5bo2b2o4bo839b2o16b2o2b2o11b2o
4b2o33b2o888b2o5b3o5bo2b2o4bo839b2o6b2o8b2o2b2o11b2o4b2o33b2o588b2o5b
3o5bo2b2o4bo839b2o16b2o2b2o11b2o4b2o33b2o$2054b2o3b2o29bo13b2o378b2o
87b3o58b2o6b2o6b5ob2o745b2o94bo13b2o10bo7b2o39bo739b2o87b3o58b2o6b2o6b
5ob2o745b2o94bo13b2o10bo7b2o39bo439b2o87b3o58b2o6b2o6b5ob2o745b2o94bo
13b2o10bo7b2o39bo$2o2b2o2b2o2b2o2b2o2b2o2b2o2b2o2b2o2b2o2b2o2b2o2b2o2b
2o2b2o2b2o2b2o2b2o2b2o2b2o2b2o2b2o2b2o2b2o2b2o2b2o2b2o2b2o2b2o2b2o2b2o
2b2o2b2o2b2o2b2o2b2o2b2o2b2o2b2o2b2o2b2o2b2o2b2o2b2o2b2o2b2o2b2o2b2o2b
2o2b2o2b2o2b2o2b2o2b2o2b2o2b2o2b2o2b2o2b2o2b2o2b2o2b2o2b2o2b2o2b2o2b2o
2b2o2b2o2b2o2b2o2b2o2b2o2b2o2b2o2b2o2b2o2b2o2b2o2b2o2b2o2b2o2b2o2b2o2b
2o2b2o2b2o2b2o2b2o2b2o2b2o2b2o2b2o2b2o2b2o2b2o2b2o2b2o2b2o2b2o2b2o2b2o
2b2o2b2o2b2o2b2o2b2o2b2o2b2o2b2o2b2o2b2o2b2o2b2o2b2o2b2o2b2o2b2o2b2o2b
2o2b2o2b2o2b2o2b2o2b2o2b2o2b2o2b2o2b2o2b2o2b2o2b2o2b2o2b2o2b2o2b2o2b2o
2b2o2b2o2b2o2b2o2b2o2b2o2b2o2b2o2b2o2b2o2b2o2b2o2b2o2b2o2b2o2b2o146b2o
2b2o2b2o2b2o2b2o2b2o2b2o2b2o2b2o2b2o2b2o2b2o2b2o2b2o2b2o2b2o2b2o2b2o2b
2o2b2o2b2o2b2o2b2o2b2o2b2o2b2o2b2o2b2o2b2o2b2o2b2o2b2o410b2o2b2o2b2o2b
2o2b2o2b2o2b2o2b2o2b2o2b2o2b2o2b2o2b2o2b2o2b2o2b2o2b2o2b2o2b2o2b2o2b2o
2b2o2b2o2b2o2b2o2b2o2b2o2b2o2b2o2b2o2b2o2b2o641b5o143b2o279b2o66b2o3b
2o86b2o4bo751bo92b3o13b3o10bo4bobo30bobo6bobo739b2o66b2o3b2o86b2o4bo
751bo92b3o13b3o10bo4bobo30bobo6bobo439b2o66b2o3b2o86b2o4bo751bo92b3o
13b3o10bo4bobo30bobo6bobo$2o2b2o2b2o2b2o2b2o2b2o2b2o2b2o2b2o2b2o2b2o2b
2o2b2o2b2o2b2o2b2o2b2o2b2o2b2o2b2o2b2o2b2o2b2o2b2o2b2o2b2o2b2o2b2o2b2o
2b2o2b2o2b2o2b2o2b2o2b2o2b2o2b2o2b2o2b2o2b2o2b2o2b2o2b2o2b2o2b2o2b2o2b
2o2b2o2b2o2b2o2b2o2b2o2b2o2b2o2b2o2b2o2b2o2b2o2b2o2b2o2b2o2b2o2b2o2b2o
2b2o2b2o2b2o2b2o2b2o2b2o2b2o2b2o2b2o2b2o2b2o2b2o2b2o2b2o2b2o2b2o2b2o2b
2o2b2o2b2o2b2o2b2o2b2o2b2o2b2o2b2o2b2o2b2o2b2o2b2o2b2o2b2o2b2o2b2o2b2o
2b2o2b2o2b2o2b2o2b2o2b2o2b2o2b2o2b2o2b2o2b2o2b2o2b2o2b2o2b2o2b2o2b2o2b
2o2b2o2b2o2b2o2b2o2b2o2b2o2b2o2b2o2b2o2b2o2b2o2b2o2b2o2b2o2b2o2b2o2b2o
2b2o2b2o2b2o2b2o2b2o2b2o2b2o2b2o2b2o2b2o2b2o2b2o2b2o2b2o2b2o2b2o2b2o2b
2o146b2o2b2o2b2o2b2o2b2o2b2o2b2o2b2o2b2o2b2o2b2o2b2o2b2o2b2o2b2o2b2o2b
2o2b2o2b2o2b2o2b2o2b2o2b2o2b2o2b2o2b2o2b2o2b2o2b2o2b2o2b2o2b2o410b2o2b
2o2b2o2b2o2b2o2b2o2b2o2b2o2b2o2b2o2b2o2b2o2b2o2b2o2b2o2b2o2b2o2b2o2b2o
2b2o2b2o2b2o2b2o2b2o2b2o2b2o2b2o2b2o2b2o2b2o2b2o2b2o634bobo5b3o84b2o3b
2o53b2o361bo6bobo69b2o754bobo92bo16b2o10bo4bo32bo3bo4b2o822bo6bobo69b
2o754bobo92bo16b2o10bo4bo32bo3bo4b2o522bo6bobo69b2o754bobo92bo16b2o10b
o4bo32bo3bo4b2o$2014b2o32b2o7bo29b2o3b2o13bobo35b3o333bo71bo3bo9bo6bo
23b2o56bobo26bo2bo712b2o26bo77b2o7b2o26b2o21bo743bo71bo3bo9bo6bo23b2o
56bobo26bo2bo26bo2bo26bo2bo26bo2bo26bo2bo26bo2bo26bo2bo26bo2bo26bo2bo
26bo2bo26bo2bo26bo2bo26bo2bo26bo2bo26bo2bo26bo2bo26bo2bo26bo2bo26bo2bo
26bo2bo26bo2bo26bo2bo26bo2bo26bo2bo22b2o26bo77b2o7b2o26b2o21bo443bo71b
o3bo9bo6bo23b2o56bobo26bo2bo26bo2bo26bo2bo26bo2bo26bo2bo26bo2bo26bo2bo
26bo2bo26bo2bo26bo2bo26bo2bo26bo2bo26bo2bo26bo2bo26bo2bo26bo2bo26bo2bo
26bo2bo26bo2bo26bo2bo26bo2bo26bo2bo26bo2bo26bo2bo22b2o26bo77b2o7b2o26b
2o21bo$2014b2o17b3o13bo37bo5bo10bob3o35bo3bo333bo71b3o8b3o30b2o59bo11b
4o14bo11b4o723bobo75bobo7b2o26b2o7b2o8bo4bo199b2o542bo71b3o8b3o30b2o
59bo11b4o14bo11b4o14bo11b4o14bo11b4o14bo11b4o14bo11b4o14bo11b4o14bo11b
4o14bo11b4o14bo11b4o14bo11b4o14bo11b4o14bo11b4o14bo11b4o14bo11b4o14bo
11b4o14bo11b4o14bo11b4o14bo11b4o14bo11b4o14bo11b4o14bo11b4o14bo11b4o
14bo11b4o14bo11b4o33bobo68bo6bobo7b2o26b2o7b2o8bo4bo199b2o242bo71b3o8b
3o30b2o59bo11b4o14bo11b4o14bo11b4o14bo11b4o14bo11b4o14bo11b4o14bo11b4o
14bo11b4o14bo11b4o14bo11b4o14bo11b4o14bo11b4o14bo11b4o14bo11b4o14bo11b
4o14bo11b4o14bo11b4o14bo11b4o14bo11b4o14bo11b4o14bo11b4o14bo11b4o14bo
11b4o14bo11b4o14bo11b4o33bobo75bobo7b2o26b2o7b2o8bo4bo199b2o$2o2b2o2b
2o2b2o2b2o2b2o2b2o2b2o2b2o2b2o2b2o2b2o2b2o2b2o2b2o2b2o2b2o2b2o2b2o2b2o
2b2o2b2o2b2o2b2o2b2o2b2o2b2o2b2o2b2o2b2o2b2o2b2o2b2o2b2o2b2o2b2o2b2o2b
2o2b2o2b2o2b2o2b2o2b2o2b2o2b2o2b2o2b2o2b2o2b2o2b2o2b2o2b2o2b2o2b2o2b2o
2b2o2b2o2b2o2b2o2b2o2b2o2b2o2b2o2b2o2b2o2b2o2b2o2b2o2b2o2b2o2b2o2b2o2b
2o2b2o2b2o2b2o2b2o2b2o2b2o2b2o2b2o2b2o2b2o2b2o2b2o2b2o2b2o2b2o2b2o2b2o
2b2o2b2o2b2o2b2o2b2o2b2o2b2o2b2o2b2o2b2o2b2o2b2o2b2o2b2o2b2o2b2o2b2o2b
2o2b2o2b2o2b2o2b2o2b2o2b2o2b2o2b2o2b2o2b2o2b2o2b2o2b2o2b2o2b2o2b2o2b2o
2b2o2b2o2b2o2b2o2b2o2b2o2b2o2b2o2b2o2b2o2b2o2b2o2b2o2b2o2b2o2b2o2b2o2b
2o2b2o2b2o2b2o2b2o2b2o2b2o2b2o2b2o2b2o146b2o2b2o2b2o2b2o2b2o2b2o2b2o2b
2o2b2o2b2o2b2o2b2o2b2o2b2o2b2o2b2o2b2o2b2o2b2o2b2o2b2o2b2o2b2o2b2o2b2o
2b2o2b2o2b2o2b2o2b2o2b2o2b2o410b2o2b2o2b2o2b2o2b2o2b2o2b2o2b2o2b2o2b2o
2b2o2b2o2b2o2b2o2b2o2b2o2b2o2b2o2b2o2b2o2b2o2b2o2b2o2b2o2b2o2b2o2b2o2b
2o2b2o2b2o2b2o2b2o618bo3bo66b2o3bo36bobo64b2o266b3o71b3o17bo80bo3bo10b
o3bo10bo3bo10bo3bo713b2o7bob2o75bo46b2o12bo201bo540b3o71b3o17bo80bo3bo
10bo3bo10bo3bo10bo3bo10bo3bo10bo3bo10bo3bo10bo3bo10bo3bo10bo3bo10bo3bo
10bo3bo10bo3bo10bo3bo10bo3bo10bo3bo10bo3bo10bo3bo10bo3bo10bo3bo10bo3bo
10bo3bo10bo3bo10bo3bo10bo3bo10bo3bo10bo3bo10bo3bo10bo3bo10bo3bo10bo3bo
10bo3bo10bo3bo10bo3bo10bo3bo10bo3bo10bo3bo10bo3bo10bo3bo10bo3bo10bo3bo
10bo3bo10bo3bo10bo3bo10bo3bo10bo3bo10bo3bo10bo3bo10bo3bo10bo3bo23b2o7b
ob2o67bo7bo46b2o12bo201bo240b3o71b3o17bo80bo3bo10bo3bo10bo3bo10bo3bo
10bo3bo10bo3bo10bo3bo10bo3bo10bo3bo10bo3bo10bo3bo10bo3bo10bo3bo10bo3bo
10bo3bo10bo3bo10bo3bo10bo3bo10bo3bo10bo3bo10bo3bo10bo3bo10bo3bo10bo3bo
10bo3bo10bo3bo10bo3bo10bo3bo10bo3bo10bo3bo10bo3bo10bo3bo10bo3bo10bo3bo
10bo3bo10bo3bo10bo3bo10bo3bo10bo3bo10bo3bo10bo3bo10bo3bo10bo3bo10bo3bo
10bo3bo10bo3bo10bo3bo10bo3bo10bo3bo10bo3bo23b2o7bob2o75bo46b2o12bo201b
o$2o2b2o2b2o2b2o2b2o2b2o2b2o2b2o2b2o2b2o2b2o2b2o2b2o2b2o2b2o2b2o2b2o2b
2o2b2o2b2o2b2o2b2o2b2o2b2o2b2o2b2o2b2o2b2o2b2o2b2o2b2o2b2o2b2o2b2o2b2o
2b2o2b2o2b2o2b2o2b2o2b2o2b2o2b2o2b2o2b2o2b2o2b2o2b2o2b2o2b2o2b2o2b2o2b
2o2b2o2b2o2b2o2b2o2b2o2b2o2b2o2b2o2b2o2b2o2b2o2b2o2b2o2b2o2b2o2b2o2b2o
2b2o2b2o2b2o2b2o2b2o2b2o2b2o2b2o2b2o2b2o2b2o2b2o2b2o2b2o2b2o2b2o2b2o2b
2o2b2o2b2o2b2o2b2o2b2o2b2o2b2o2b2o2b2o2b2o2b2o2b2o2b2o2b2o2b2o2b2o2b2o
2b2o2b2o2b2o2b2o2b2o2b2o2b2o2b2o2b2o2b2o2b2o2b2o2b2o2b2o2b2o2b2o2b2o2b
2o2b2o2b2o2b2o2b2o2b2o2b2o2b2o2b2o2b2o2b2o2b2o2b2o2b2o2b2o2b2o2b2o2b2o
2b2o2b2o2b2o2b2o2b2o2b2o2b2o2b2o2b2o2b2o2b2o2b2o146b2o2b2o2b2o2b2o2b2o
2b2o2b2o2b2o2b2o2b2o2b2o2b2o2b2o2b2o2b2o2b2o2b2o2b2o2b2o2b2o2b2o2b2o2b
2o2b2o2b2o2b2o2b2o2b2o2b2o2b2o2b2o2b2o410b2o2b2o2b2o2b2o2b2o2b2o2b2o2b
2o2b2o2b2o2b2o2b2o2b2o2b2o2b2o2b2o2b2o2b2o2b2o2b2o2b2o2b2o2b2o2b2o2b2o
2b2o2b2o2b2o2b2o2b2o2b2o2b2o617bo5bo50bo3bo10bobo40bo64bobo270b3o87bo
81b4o14bo11b4o14bo712bobo6b2ob2o16bo57b2o56bo3bo201bobo7bo534b3o87bo
81b4o14bo11b4o14bo11b4o14bo11b4o14bo11b4o14bo11b4o14bo11b4o14bo11b4o
14bo11b4o14bo11b4o14bo11b4o14bo11b4o14bo11b4o14bo11b4o14bo11b4o14bo11b
4o14bo11b4o14bo11b4o14bo11b4o14bo11b4o14bo11b4o14bo11b4o14bo11b4o14bo
11b4o14bo11b4o14bo22bobo6b2ob2o16bo50b3o4b2o56bo3bo201bobo7bo234b3o87b
o81b4o14bo11b4o14bo11b4o14bo11b4o14bo11b4o14bo11b4o14bo11b4o14bo11b4o
14bo11b4o14bo11b4o14bo11b4o14bo11b4o14bo11b4o14bo11b4o14bo11b4o14bo11b
4o14bo11b4o14bo11b4o14bo11b4o14bo11b4o14bo11b4o14bo11b4o14bo11b4o14bo
11b4o14bo11b4o14bo22bobo6b2ob2o16bo57b2o56bo3bo201bobo7bo$2031bo5bo51b
3o96b2o22bo273bo183bo2bo26bo2bo712bo6b3obob2o15b2o115bobo204b2o5bobo
536bo183bo2bo26bo2bo26bo2bo26bo2bo26bo2bo26bo2bo26bo2bo26bo2bo26bo2bo
26bo2bo26bo2bo26bo2bo26bo2bo26bo2bo26bo2bo26bo2bo26bo2bo26bo2bo26bo2bo
26bo2bo26bo2bo26bo2bo26bo2bo26bo2bo26bo2bo22bo6b3obob2o15b2o115bobo
204b2o5bobo236bo183bo2bo26bo2bo26bo2bo26bo2bo26bo2bo26bo2bo26bo2bo26bo
2bo26bo2bo26bo2bo26bo2bo26bo2bo26bo2bo26bo2bo26bo2bo26bo2bo26bo2bo26bo
2bo26bo2bo26bo2bo26bo2bo26bo2bo26bo2bo26bo2bo26bo2bo22bo6b3obob2o15b2o
115bobo204b2o5bobo$2034bo153bo296bo921b2o7bo2bo2bo2bo2bobo14b2o11b2o
315b2o538bo921b2o7bo2bo2bo2bo2bobo14b2o11b2o315b2o238bo921b2o7bo2bo2bo
2bo2bobo14b2o11b2o315b2o$2o2b2o2b2o2b2o2b2o2b2o2b2o2b2o2b2o2b2o2b2o2b
2o2b2o2b2o2b2o2b2o2b2o2b2o2b2o2b2o2b2o2b2o2b2o2b2o2b2o2b2o2b2o2b2o2b2o
2b2o2b2o2b2o2b2o2b2o2b2o2b2o2b2o2b2o2b2o2b2o2b2o2b2o2b2o2b2o2b2o2b2o2b
2o2b2o2b2o2b2o2b2o2b2o2b2o2b2o2b2o2b2o2b2o2b2o2b2o2b2o2b2o2b2o2b2o2b2o
2b2o2b2o2b2o2b2o2b2o2b2o2b2o2b2o2b2o2b2o2b2o2b2o2b2o2b2o2b2o2b2o2b2o2b
2o2b2o2b2o2b2o2b2o2b2o2b2o2b2o2b2o2b2o2b2o2b2o2b2o2b2o2b2o2b2o2b2o2b2o
2b2o2b2o2b2o2b2o2b2o2b2o2b2o2b2o2b2o2b2o2b2o2b2o2b2o2b2o2b2o2b2o2b2o2b
2o2b2o2b2o2b2o2b2o2b2o2b2o2b2o2b2o2b2o2b2o2b2o2b2o2b2o2b2o2b2o2b2o2b2o
2b2o2b2o2b2o2b2o2b2o2b2o2b2o2b2o2b2o2b2o2b2o2b2o2b2o2b2o2b2o2b2o2b2o2b
2o146b2o2b2o2b2o2b2o2b2o2b2o2b2o2b2o2b2o2b2o2b2o2b2o2b2o2b2o2b2o2b2o2b
2o2b2o2b2o2b2o2b2o2b2o2b2o2b2o2b2o2b2o2b2o2b2o2b2o2b2o2b2o2b2o410b2o2b
2o2b2o2b2o2b2o2b2o2b2o2b2o2b2o2b2o2b2o2b2o2b2o2b2o2b2o2b2o2b2o2b2o2b2o
2b2o2b2o2b2o2b2o2b2o2b2o2b2o2b2o2b2o2b2o2b2o2b2o2b2o599b3o16bo3bo59bo
20b2o57bo9bobo409b3o806b2o7bo6b2o4bo14b3o7bo3b3o82b3o21bo6b3o198b2o12b
2o637b3o806b2o7bo6b2o4bo14b3o7bo3b3o82b3o21bo6b3o198b2o12b2o337b3o806b
2o7bo6b2o4bo14b3o7bo3b3o82b3o21bo6b3o198b2o12b2o$2o2b2o2b2o2b2o2b2o2b
2o2b2o2b2o2b2o2b2o2b2o2b2o2b2o2b2o2b2o2b2o2b2o2b2o2b2o2b2o2b2o2b2o2b2o
2b2o2b2o2b2o2b2o2b2o2b2o2b2o2b2o2b2o2b2o2b2o2b2o2b2o2b2o2b2o2b2o2b2o2b
2o2b2o2b2o2b2o2b2o2b2o2b2o2b2o2b2o2b2o2b2o2b2o2b2o2b2o2b2o2b2o2b2o2b2o
2b2o2b2o2b2o2b2o2b2o2b2o2b2o2b2o2b2o2b2o2b2o2b2o2b2o2b2o2b2o2b2o2b2o2b
2o2b2o2b2o2b2o2b2o2b2o2b2o2b2o2b2o2b2o2b2o2b2o2b2o2b2o2b2o2b2o2b2o2b2o
2b2o2b2o2b2o2b2o2b2o2b2o2b2o2b2o2b2o2b2o2b2o2b2o2b2o2b2o2b2o2b2o2b2o2b
2o2b2o2b2o2b2o2b2o2b2o2b2o2b2o2b2o2b2o2b2o2b2o2b2o2b2o2b2o2b2o2b2o2b2o
2b2o2b2o2b2o2b2o2b2o2b2o2b2o2b2o2b2o2b2o2b2o2b2o2b2o2b2o2b2o2b2o2b2o2b
2o2b2o2b2o2b2o2b2o2b2o2b2o146b2o2b2o2b2o2b2o2b2o2b2o2b2o2b2o2b2o2b2o2b
2o2b2o2b2o2b2o2b2o2b2o2b2o2b2o2b2o2b2o2b2o2b2o2b2o2b2o2b2o2b2o2b2o2b2o
2b2o2b2o2b2o2b2o410b2o2b2o2b2o2b2o2b2o2b2o2b2o2b2o2b2o2b2o2b2o2b2o2b2o
2b2o2b2o2b2o2b2o2b2o2b2o2b2o2b2o2b2o2b2o2b2o2b2o2b2o2b2o2b2o2b2o2b2o2b
2o2b2o599b3o17b3o14b2o7b2o35bobo11bob2o3b3o25b2o27b4o8b2o18b2o263b2o
18bobo63b3o14bo23b3o46bo55b2o712bobo25b2o5b4o4b2obo79b3o19b2o7bo200b2o
12b2o510b2o18bobo63b3o14bo23b3o46bo769bobo25b2o5b4o4b2obo79b3o19b2o7bo
200b2o12b2o210b2o18bobo63b3o14bo23b3o46bo769bobo25b2o5b4o4b2obo79b3o
19b2o7bo200b2o12b2o$2012bo3bo17bo14b2o8bo36b2o8bo2bo3bo5b2obo5b2o15b2o
17bobo6bobob2o27b2o263b2o4bo14b2o63b3o8b3obobo22bo3bo45b2o55b2o712b2o
26b2o2bo4bo4bo2bo5b2o71bo3bo19b2o7bo201bobo521b2o4bo14b2o63b3o8b3obobo
22bo3bo45b2o769b2o26b2o2bo4bo4bo2bo5b2o71bo3bo19b2o7bo201bobo221b2o4bo
14b2o63b3o8b3obobo22bo3bo45b2o769b2o26b2o2bo4bo4bo2bo5b2o71bo3bo19b2o
7bo201bobo$2051bo8b3o24b2o16b2o2bo4bo4bo2bo5b2o34bo3bo3bo2bob3o288b2o
6b5ob2o8bo63bo3bo9bo2b2o71bobo54bo743bo2bo3bo5b2obo5b2o308bo518b2o6b5o
b2o8bo63bo3bo9bo2b2o71bobo798bo2bo3bo5b2obo5b2o20bo287bo218b2o6b5ob2o
8bo63bo3bo9bo2b2o71bobo798bo2bo3bo5b2obo5b2o308bo$2o2b2o2b2o2b2o2b2o2b
2o2b2o2b2o2b2o2b2o2b2o2b2o2b2o2b2o2b2o2b2o2b2o2b2o2b2o2b2o2b2o2b2o2b2o
2b2o2b2o2b2o2b2o2b2o2b2o2b2o2b2o2b2o2b2o2b2o2b2o2b2o2b2o2b2o2b2o2b2o2b
2o2b2o2b2o2b2o2b2o2b2o2b2o2b2o2b2o2b2o2b2o2b2o2b2o2b2o2b2o2b2o2b2o2b2o
2b2o2b2o2b2o2b2o2b2o2b2o2b2o2b2o2b2o2b2o2b2o2b2o2b2o2b2o2b2o2b2o2b2o2b
2o2b2o2b2o2b2o2b2o2b2o2b2o2b2o2b2o2b2o2b2o2b2o2b2o2b2o2b2o2b2o2b2o2b2o
2b2o2b2o2b2o2b2o2b2o2b2o2b2o2b2o2b2o2b2o2b2o2b2o2b2o2b2o2b2o2b2o2b2o2b
2o2b2o2b2o2b2o2b2o2b2o2b2o2b2o2b2o2b2o2b2o2b2o2b2o2b2o2b2o2b2o2b2o2b2o
2b2o2b2o2b2o2b2o2b2o2b2o2b2o2b2o2b2o2b2o2b2o2b2o2b2o2b2o2b2o2b2o2b2o2b
2o2b2o2b2o2b2o2b2o2b2o2b2o146b2o2b2o2b2o2b2o2b2o2b2o2b2o2b2o2b2o2b2o2b
2o2b2o2b2o2b2o2b2o2b2o2b2o2b2o2b2o2b2o2b2o2b2o2b2o2b2o2b2o2b2o2b2o2b2o
2b2o2b2o2b2o2b2o410b2o2b2o2b2o2b2o2b2o2b2o2b2o2b2o2b2o2b2o2b2o2b2o2b2o
2b2o2b2o2b2o2b2o2b2o2b2o2b2o2b2o2b2o2b2o2b2o2b2o2b2o2b2o2b2o2b2o2b2o2b
2o2b2o597b2o3b2o44bo25bo15b2o5b4o4b2obo31b2o12bo4bobob2o34b2o245b2o5b
3o5bo2b2o4bo33bo50bo26b2o3b2o827bobo18bob2o3b3o80b2o3b2o742b2o5b3o5bo
2b2o4bo33bo50bo26b2o3b2o827bobo18bob2o3b3o30bobo47b2o3b2o442b2o5b3o5bo
2b2o4bo33bo50bo26b2o3b2o827bobo18bob2o3b3o80b2o3b2o$2o2b2o2b2o2b2o2b2o
2b2o2b2o2b2o2b2o2b2o2b2o2b2o2b2o2b2o2b2o2b2o2b2o2b2o2b2o2b2o2b2o2b2o2b
2o2b2o2b2o2b2o2b2o2b2o2b2o2b2o2b2o2b2o2b2o2b2o2b2o2b2o2b2o2b2o2b2o2b2o
2b2o2b2o2b2o2b2o2b2o2b2o2b2o2b2o2b2o2b2o2b2o2b2o2b2o2b2o2b2o2b2o2b2o2b
2o2b2o2b2o2b2o2b2o2b2o2b2o2b2o2b2o2b2o2b2o2b2o2b2o2b2o2b2o2b2o2b2o2b2o
2b2o2b2o2b2o2b2o2b2o2b2o2b2o2b2o2b2o2b2o2b2o2b2o2b2o2b2o2b2o2b2o2b2o2b
2o2b2o2b2o2b2o2b2o2b2o2b2o2b2o2b2o2b2o2b2o2b2o2b2o2b2o2b2o2b2o2b2o2b2o
2b2o2b2o2b2o2b2o2b2o2b2o2b2o2b2o2b2o2b2o2b2o2b2o2b2o2b2o2b2o2b2o2b2o2b
2o2b2o2b2o2b2o2b2o2b2o2b2o2b2o2b2o2b2o2b2o2b2o2b2o2b2o2b2o2b2o2b2o2b2o
2b2o2b2o2b2o2b2o2b2o2b2o2b2o146b2o2b2o2b2o2b2o2b2o2b2o2b2o2b2o2b2o2b2o
2b2o2b2o2b2o2b2o2b2o2b2o2b2o2b2o2b2o2b2o2b2o2b2o2b2o2b2o2b2o2b2o2b2o2b
2o2b2o2b2o2b2o2b2o410b2o2b2o2b2o2b2o2b2o2b2o2b2o2b2o2b2o2b2o2b2o2b2o2b
2o2b2o2b2o2b2o2b2o2b2o2b2o2b2o2b2o2b2o2b2o2b2o2b2o2b2o2b2o2b2o2b2o2b2o
2b2o2b2o621b3o47b3o15b3o7bo3b3o34b2o8bo4bo4b4o35bobo244b2o6b2o5b2o8bo
30bobo36b2o3b2o12bo86bo769b2o25b2o830b2o6b2o5b2o8bo30bobo36b2o3b2o12bo
86bo769b2o25b2o31b2o497b2o6b2o5b2o8bo30bobo36b2o3b2o12bo86bo769b2o25b
2o$2035b3o47bo18b2o11b2o49bo7bo38bo255b2o4bo7bo28b2o18b2o38bo58b2o25b
2o769bo869b2o4bo7bo28b2o18b2o38bo58b2o25b2o769bo569b2o4bo7bo28b2o18b2o
38bo58b2o25b2o769bo$2034bo3bo50bo6b2o7b2o57bo3bo31b2o13b2o254b2o12bo
22b2o4b2o17bo3bo94b3o3b2obo18bobo21b2o896b2o717b2o12bo22b2o4b2o17bo3bo
94b3o3b2obo18bobo21b2o896b2o417b2o12bo22b2o4b2o17bo3bo94b3o3b2obo18bob
o21b2o896b2o$2o2b2o2b2o2b2o2b2o2b2o2b2o2b2o2b2o2b2o2b2o2b2o2b2o2b2o2b
2o2b2o2b2o2b2o2b2o2b2o2b2o2b2o2b2o2b2o2b2o2b2o2b2o2b2o2b2o2b2o2b2o2b2o
2b2o2b2o2b2o2b2o2b2o2b2o2b2o2b2o2b2o2b2o2b2o2b2o2b2o2b2o2b2o2b2o2b2o2b
2o2b2o2b2o2b2o2b2o2b2o2b2o2b2o2b2o2b2o2b2o2b2o2b2o2b2o2b2o2b2o2b2o2b2o
2b2o2b2o2b2o2b2o2b2o2b2o2b2o2b2o2b2o2b2o2b2o2b2o2b2o2b2o2b2o2b2o2b2o2b
2o2b2o2b2o2b2o2b2o2b2o2b2o2b2o2b2o2b2o2b2o2b2o2b2o2b2o2b2o2b2o2b2o2b2o
2b2o2b2o2b2o2b2o2b2o2b2o2b2o2b2o2b2o2b2o2b2o2b2o2b2o2b2o2b2o2b2o2b2o2b
2o2b2o2b2o2b2o2b2o2b2o2b2o2b2o2b2o2b2o2b2o2b2o2b2o2b2o2b2o2b2o2b2o2b2o
2b2o2b2o2b2o2b2o2b2o2b2o2b2o2b2o2b2o2b2o2b2o2b2o2b2o2b2o2b2o146b2o2b2o
2b2o2b2o2b2o2b2o2b2o2b2o2b2o2b2o2b2o2b2o2b2o2b2o2b2o2b2o2b2o2b2o2b2o2b
2o2b2o2b2o2b2o2b2o2b2o2b2o2b2o2b2o2b2o2b2o2b2o2b2o410b2o2b2o2b2o2b2o2b
2o2b2o2b2o2b2o2b2o2b2o2b2o2b2o2b2o2b2o2b2o2b2o2b2o2b2o2b2o2b2o2b2o2b2o
2b2o2b2o2b2o2b2o2b2o2b2o2b2o2b2o2b2o2b2o614bobo27bo29bo6bobo8bo57bobo
34bo282bo7b2o5bo8b2o4b2o16bo5bo35bo47b2o5bob2o5bo3bo2bo38bo11bo747bobo
111bobo21bobo729bo7b2o5bo8b2o4b2o16bo5bo35bo47b2o5bob2o5bo3bo2bo38bo
759bobo111bobo21bobo429bo7b2o5bo8b2o4b2o16bo5bo35bo47b2o5bob2o5bo3bo2b
o38bo759bobo111bobo21bobo$2o2b2o2b2o2b2o2b2o2b2o2b2o2b2o2b2o2b2o2b2o2b
2o2b2o2b2o2b2o2b2o2b2o2b2o2b2o2b2o2b2o2b2o2b2o2b2o2b2o2b2o2b2o2b2o2b2o
2b2o2b2o2b2o2b2o2b2o2b2o2b2o2b2o2b2o2b2o2b2o2b2o2b2o2b2o2b2o2b2o2b2o2b
2o2b2o2b2o2b2o2b2o2b2o2b2o2b2o2b2o2b2o2b2o2b2o2b2o2b2o2b2o2b2o2b2o2b2o
2b2o2b2o2b2o2b2o2b2o2b2o2b2o2b2o2b2o2b2o2b2o2b2o2b2o2b2o2b2o2b2o2b2o2b
2o2b2o2b2o2b2o2b2o2b2o2b2o2b2o2b2o2b2o2b2o2b2o2b2o2b2o2b2o2b2o2b2o2b2o
2b2o2b2o2b2o2b2o2b2o2b2o2b2o2b2o2b2o2b2o2b2o2b2o2b2o2b2o2b2o2b2o2b2o2b
2o2b2o2b2o2b2o2b2o2b2o2b2o2b2o2b2o2b2o2b2o2b2o2b2o2b2o2b2o2b2o2b2o2b2o
2b2o2b2o2b2o2b2o2b2o2b2o2b2o2b2o2b2o2b2o2b2o2b2o2b2o2b2o2b2o2b2o2b2o2b
2o146b2o2b2o2b2o2b2o2b2o2b2o2b2o2b2o2b2o2b2o2b2o2b2o2b2o2b2o2b2o2b2o2b
2o2b2o2b2o2b2o2b2o2b2o2b2o2b2o2b2o2b2o2b2o2b2o2b2o2b2o2b2o2b2o410b2o2b
2o2b2o2b2o2b2o2b2o2b2o2b2o2b2o2b2o2b2o2b2o2b2o2b2o2b2o2b2o2b2o2b2o2b2o
2b2o2b2o2b2o2b2o2b2o2b2o2b2o2b2o2b2o2b2o2b2o2b2o2b2o597b3o14b2o3b2o3b
2o17b2o29b3o4bo102b3o6b2o273b2o8bobo5b2o14bobo4bo8bo3bob2o2b2o17b2o10b
obo24b3o19b2o5bo2bo4bo4bo2b2o26b2o7bobo11b2o746b2o95b3o14b2o22bo729b2o
8bobo5b2o14bobo4bo8bo3bob2o2b2o17b2o10bobo24b3o19b2o5bo2bo4bo4bo2b2o
26b2o7bobo759b2o95b3o14b2o22bo429b2o8bobo5b2o14bobo4bo8bo3bob2o2b2o17b
2o10bobo24b3o19b2o5bo2bo4bo4bo2b2o26b2o7bobo759b2o95b3o14b2o22bo$2015b
2o12bo27bobo34b2o76b3o23bo8b2o285bo4b2o17bo3bo9bo5bo3b2o16bobo34b2o30b
ob2o4b4o5b2o25bobo6b2o11bobo747bo99b2o12bo764bo4b2o17bo3bo9bo5bo3b2o
16bobo34b2o30bob2o4b4o5b2o25bobo6b2o761bo38bo60b2o12bo464bo4b2o17bo3bo
9bo5bo3b2o16bobo34b2o30bob2o4b4o5b2o25bobo6b2o761bo99b2o12bo$2015b2o
155bo321b2o26b3o2bo5bo3bo24bo10b3o21b2o33b3o3bo7b3o14bo4b2o6bo868b2o
197bo4bo574b2o26b3o2bo5bo3bo24bo10b3o21b2o33b3o3bo7b3o14bo4b2o6bo806bo
61b2o197bo4bo274b2o26b3o2bo5bo3bo24bo10b3o21b2o33b3o3bo7b3o14bo4b2o6bo
868b2o197bo4bo$2o2b2o2b2o2b2o2b2o2b2o2b2o2b2o2b2o2b2o2b2o2b2o2b2o2b2o
2b2o2b2o2b2o2b2o2b2o2b2o2b2o2b2o2b2o2b2o2b2o2b2o2b2o2b2o2b2o2b2o2b2o2b
2o2b2o2b2o2b2o2b2o2b2o2b2o2b2o2b2o2b2o2b2o2b2o2b2o2b2o2b2o2b2o2b2o2b2o
2b2o2b2o2b2o2b2o2b2o2b2o2b2o2b2o2b2o2b2o2b2o2b2o2b2o2b2o2b2o2b2o2b2o2b
2o2b2o2b2o2b2o2b2o2b2o2b2o2b2o2b2o2b2o2b2o2b2o2b2o2b2o2b2o2b2o2b2o2b2o
2b2o2b2o2b2o2b2o2b2o2b2o2b2o2b2o2b2o2b2o2b2o2b2o2b2o2b2o2b2o2b2o2b2o2b
2o2b2o2b2o2b2o2b2o2b2o2b2o2b2o2b2o2b2o2b2o2b2o2b2o2b2o2b2o2b2o2b2o2b2o
2b2o2b2o2b2o2b2o2b2o2b2o2b2o2b2o2b2o2b2o2b2o2b2o2b2o2b2o2b2o2b2o2b2o2b
2o2b2o2b2o2b2o2b2o2b2o2b2o2b2o2b2o2b2o2b2o2b2o2b2o2b2o2b2o2b2o146b2o2b
2o2b2o2b2o2b2o2b2o2b2o2b2o2b2o2b2o2b2o2b2o2b2o2b2o2b2o2b2o2b2o2b2o2b2o
2b2o2b2o2b2o2b2o2b2o2b2o2b2o2b2o2b2o2b2o2b2o2b2o2b2o410b2o2b2o2b2o2b2o
2b2o2b2o2b2o2b2o2b2o2b2o2b2o2b2o2b2o2b2o2b2o2b2o2b2o2b2o2b2o2b2o2b2o2b
2o2b2o2b2o2b2o2b2o2b2o2b2o2b2o2b2o2b2o2b2o602b2o155bo360b2o60b2o35b2o
11b2o14bobo2bo2bo2bo2bo869b2o194b2ob4ob2o612b2o60b2o35b2o11b2o14bobo2b
o2bo2bo2bo806b3o60b2o194b2ob4ob2o312b2o60b2o35b2o11b2o14bobo2bo2bo2bo
2bo869b2o194b2ob4ob2o$2o2b2o2b2o2b2o2b2o2b2o2b2o2b2o2b2o2b2o2b2o2b2o2b
2o2b2o2b2o2b2o2b2o2b2o2b2o2b2o2b2o2b2o2b2o2b2o2b2o2b2o2b2o2b2o2b2o2b2o
2b2o2b2o2b2o2b2o2b2o2b2o2b2o2b2o2b2o2b2o2b2o2b2o2b2o2b2o2b2o2b2o2b2o2b
2o2b2o2b2o2b2o2b2o2b2o2b2o2b2o2b2o2b2o2b2o2b2o2b2o2b2o2b2o2b2o2b2o2b2o
2b2o2b2o2b2o2b2o2b2o2b2o2b2o2b2o2b2o2b2o2b2o2b2o2b2o2b2o2b2o2b2o2b2o2b
2o2b2o2b2o2b2o2b2o2b2o2b2o2b2o2b2o2b2o2b2o2b2o2b2o2b2o2b2o2b2o2b2o2b2o
2b2o2b2o2b2o2b2o2b2o2b2o2b2o2b2o2b2o2b2o2b2o2b2o2b2o2b2o2b2o2b2o2b2o2b
2o2b2o2b2o2b2o2b2o2b2o2b2o2b2o2b2o2b2o2b2o2b2o2b2o2b2o2b2o2b2o2b2o2b2o
2b2o2b2o2b2o2b2o2b2o2b2o2b2o2b2o2b2o2b2o2b2o2b2o2b2o2b2o2b2o2b2o2b2o
146b2o2b2o2b2o2b2o2b2o2b2o2b2o2b2o2b2o2b2o2b2o2b2o2b2o2b2o2b2o2b2o2b2o
2b2o2b2o2b2o2b2o2b2o2b2o2b2o2b2o2b2o2b2o2b2o2b2o2b2o2b2o2b2o410b2o2b2o
2b2o2b2o2b2o2b2o2b2o2b2o2b2o2b2o2b2o2b2o2b2o2b2o2b2o2b2o2b2o2b2o2b2o2b
2o2b2o2b2o2b2o2b2o2b2o2b2o2b2o2b2o2b2o2b2o2b2o2b2o600bobo580bobo45b2o
15b2obob3o6bo742bo2bo121bobo148bo48bo4bo677bobo45b2o15b2obob3o6bo22bo
2bo26bo2bo26bo2bo26bo2bo26bo2bo26bo2bo26bo2bo26bo2bo26bo2bo26bo2bo26bo
2bo26bo2bo26bo2bo26bo2bo26bo2bo26bo2bo26bo2bo26bo2bo26bo2bo26bo2bo26bo
2bo26bo2bo26bo2bo26bo2bo26bo2bo121bobo148bo48bo4bo377bobo45b2o15b2obob
3o6bo22bo2bo26bo2bo26bo2bo26bo2bo26bo2bo26bo2bo26bo2bo26bo2bo26bo2bo
26bo2bo26bo2bo26bo2bo26bo2bo26bo2bo26bo2bo26bo2bo26bo2bo26bo2bo26bo2bo
26bo2bo26bo2bo26bo2bo26bo2bo26bo2bo26bo2bo121bobo148bo48bo4bo$2014b2o
546bo10b3o22b2o45bo16b2ob2o6bobo742bo14b4o107b2o148bobo695bo10b3o22b2o
45bo16b2ob2o6bobo22bo14b4o11bo14b4o11bo14b4o11bo14b4o11bo14b4o11bo14b
4o11bo14b4o11bo14b4o11bo14b4o11bo14b4o11bo14b4o11bo14b4o11bo14b4o11bo
14b4o11bo14b4o11bo14b4o11bo14b4o11bo14b4o11bo14b4o11bo14b4o11bo14b4o
11bo14b4o11bo14b4o11bo14b4o11bo14b4o107b2o148bobo395bo10b3o22b2o45bo
16b2ob2o6bobo22bo14b4o11bo14b4o11bo14b4o11bo14b4o11bo14b4o11bo14b4o11b
o14b4o11bo14b4o11bo14b4o11bo14b4o11bo14b4o11bo14b4o11bo14b4o11bo14b4o
11bo14b4o11bo14b4o11bo14b4o11bo14b4o11bo14b4o11bo14b4o11bo14b4o11bo14b
4o11bo14b4o11bo14b4o11bo14b4o107b2o148bobo$2022bo58bo580b2obo7b2o743bo
3bo10bo3bo114bo36b3o102b2obo7b2o785b2obo7b2o23bo3bo10bo3bo10bo3bo10bo
3bo10bo3bo10bo3bo10bo3bo10bo3bo10bo3bo10bo3bo10bo3bo10bo3bo10bo3bo10bo
3bo10bo3bo10bo3bo10bo3bo10bo3bo10bo3bo10bo3bo10bo3bo10bo3bo10bo3bo10bo
3bo10bo3bo10bo3bo10bo3bo10bo3bo10bo3bo10bo3bo10bo3bo10bo3bo10bo3bo10bo
3bo10bo3bo10bo3bo10bo3bo10bo3bo10bo3bo10bo3bo10bo3bo10bo3bo10bo3bo10bo
3bo10bo3bo10bo3bo10bo3bo10bo3bo10bo3bo10bo3bo114bo36b3o102b2obo7b2o
485b2obo7b2o23bo3bo10bo3bo10bo3bo10bo3bo10bo3bo10bo3bo10bo3bo10bo3bo
10bo3bo10bo3bo10bo3bo10bo3bo10bo3bo10bo3bo10bo3bo10bo3bo10bo3bo10bo3bo
10bo3bo10bo3bo10bo3bo10bo3bo10bo3bo10bo3bo10bo3bo10bo3bo10bo3bo10bo3bo
10bo3bo10bo3bo10bo3bo10bo3bo10bo3bo10bo3bo10bo3bo10bo3bo10bo3bo10bo3bo
10bo3bo10bo3bo10bo3bo10bo3bo10bo3bo10bo3bo10bo3bo10bo3bo10bo3bo10bo3bo
10bo3bo10bo3bo114bo36b3o102b2obo7b2o$2o2b2o2b2o2b2o2b2o2b2o2b2o2b2o2b
2o2b2o2b2o2b2o2b2o2b2o2b2o2b2o2b2o2b2o2b2o2b2o2b2o2b2o2b2o2b2o2b2o2b2o
2b2o2b2o2b2o2b2o2b2o2b2o2b2o2b2o2b2o2b2o2b2o2b2o2b2o2b2o2b2o2b2o2b2o2b
2o2b2o2b2o2b2o2b2o2b2o2b2o2b2o2b2o2b2o2b2o2b2o2b2o2b2o2b2o2b2o2b2o2b2o
2b2o2b2o2b2o2b2o2b2o2b2o2b2o2b2o2b2o2b2o2b2o2b2o2b2o2b2o2b2o2b2o2b2o2b
2o2b2o2b2o2b2o2b2o2b2o2b2o2b2o2b2o2b2o2b2o2b2o2b2o2b2o2b2o2b2o2b2o2b2o
2b2o2b2o2b2o2b2o2b2o2b2o2b2o2b2o2b2o2b2o2b2o2b2o2b2o2b2o2b2o2b2o2b2o2b
2o2b2o2b2o2b2o2b2o2b2o2b2o2b2o2b2o2b2o2b2o2b2o2b2o2b2o2b2o2b2o2b2o2b2o
2b2o2b2o2b2o2b2o2b2o2b2o2b2o2b2o2b2o2b2o2b2o2b2o2b2o2b2o2b2o2b2o2b2o2b
2o2b2o2b2o2b2o146b2o2b2o2b2o2b2o2b2o2b2o2b2o2b2o2b2o2b2o2b2o2b2o2b2o2b
2o2b2o2b2o2b2o2b2o2b2o2b2o2b2o2b2o2b2o2b2o2b2o2b2o2b2o2b2o2b2o2b2o2b2o
2b2o410b2o2b2o2b2o2b2o2b2o2b2o2b2o2b2o2b2o2b2o2b2o2b2o2b2o2b2o2b2o2b2o
2b2o2b2o2b2o2b2o2b2o2b2o2b2o2b2o2b2o2b2o2b2o2b2o2b2o2b2o2b2o2b2o608bo
42b2o14bobo422bobo64bobo86bobo23b2o728b4o11bo118bo36bo92b2o10b2ob2o6bo
bo628bobo64bobo86bobo33b4o11bo14b4o11bo14b4o11bo14b4o11bo14b4o11bo14b
4o11bo14b4o11bo14b4o11bo14b4o11bo14b4o11bo14b4o11bo14b4o11bo14b4o11bo
14b4o11bo14b4o11bo14b4o11bo14b4o11bo14b4o11bo14b4o11bo14b4o11bo14b4o
11bo14b4o11bo14b4o11bo14b4o11bo14b4o11bo118bo36bo92b2o10b2ob2o6bobo
328bobo64bobo86bobo33b4o11bo14b4o11bo14b4o11bo14b4o11bo14b4o11bo14b4o
11bo14b4o11bo14b4o11bo14b4o11bo14b4o11bo14b4o11bo14b4o11bo14b4o11bo14b
4o11bo14b4o11bo14b4o11bo14b4o11bo14b4o11bo14b4o11bo14b4o11bo14b4o11bo
14b4o11bo14b4o11bo14b4o11bo14b4o11bo118bo36bo92b2o10b2ob2o6bobo$2o2b2o
2b2o2b2o2b2o2b2o2b2o2b2o2b2o2b2o2b2o2b2o2b2o2b2o2b2o2b2o2b2o2b2o2b2o2b
2o2b2o2b2o2b2o2b2o2b2o2b2o2b2o2b2o2b2o2b2o2b2o2b2o2b2o2b2o2b2o2b2o2b2o
2b2o2b2o2b2o2b2o2b2o2b2o2b2o2b2o2b2o2b2o2b2o2b2o2b2o2b2o2b2o2b2o2b2o2b
2o2b2o2b2o2b2o2b2o2b2o2b2o2b2o2b2o2b2o2b2o2b2o2b2o2b2o2b2o2b2o2b2o2b2o
2b2o2b2o2b2o2b2o2b2o2b2o2b2o2b2o2b2o2b2o2b2o2b2o2b2o2b2o2b2o2b2o2b2o2b
2o2b2o2b2o2b2o2b2o2b2o2b2o2b2o2b2o2b2o2b2o2b2o2b2o2b2o2b2o2b2o2b2o2b2o
2b2o2b2o2b2o2b2o2b2o2b2o2b2o2b2o2b2o2b2o2b2o2b2o2b2o2b2o2b2o2b2o2b2o2b
2o2b2o2b2o2b2o2b2o2b2o2b2o2b2o2b2o2b2o2b2o2b2o2b2o2b2o2b2o2b2o2b2o2b2o
2b2o2b2o2b2o2b2o2b2o2b2o2b2o2b2o2b2o2b2o146b2o2b2o2b2o2b2o2b2o2b2o2b2o
2b2o2b2o2b2o2b2o2b2o2b2o2b2o2b2o2b2o2b2o2b2o2b2o2b2o2b2o2b2o2b2o2b2o2b
2o2b2o2b2o2b2o2b2o2b2o2b2o2b2o410b2o2b2o2b2o2b2o2b2o2b2o2b2o2b2o2b2o2b
2o2b2o2b2o2b2o2b2o2b2o2b2o2b2o2b2o2b2o2b2o2b2o2b2o2b2o2b2o2b2o2b2o2b2o
2b2o2b2o2b2o2b2o2b2o595b2o3b2o6bo41b2o15b2o97b2o325b2o6bo58bo23b2o3b2o
58bo25b2o743bobo102b2o3b2o6bo37bo91b2o10b2obob3o6bo628b2o6bo58bo23b2o
3b2o58bo50bo2bo26bo2bo26bo2bo26bo2bo26bo2bo26bo2bo26bo2bo26bo2bo26bo2b
o26bo2bo26bo2bo26bo2bo26bo2bo26bo2bo26bo2bo26bo2bo26bo2bo26bo2bo26bo2b
o26bo2bo26bo2bo26bo2bo26bo2bo26bo2bo26bobo102b2o3b2o6bo37bo91b2o10b2ob
ob3o6bo328b2o6bo58bo23b2o3b2o58bo50bo2bo26bo2bo26bo2bo26bo2bo26bo2bo
26bo2bo26bo2bo26bo2bo26bo2bo26bo2bo26bo2bo26bo2bo26bo2bo26bo2bo26bo2bo
26bo2bo26bo2bo26bo2bo26bo2bo26bo2bo26bo2bo26bo2bo26bo2bo26bo2bo26bobo
102b2o3b2o6bo37bo91b2o10b2obob3o6bo$2009b2o3b2o7bo2b2o38bo113bobo20b2o
302bo7bobo68b2o10b2o3b2o83bo757b2o91b2o3b2o7bo2b2o136bobo2bo2bo2bo2bo
49b3o576bo7bobo68b2o10b2o3b2o841b2o28bo62b2o3b2o7bo2b2o136bobo2bo2bo2b
o2bo49b3o276bo7bobo68b2o10b2o3b2o841b2o91b2o3b2o7bo2b2o136bobo2bo2bo2b
o2bo49b3o$2021bob2ob2o7b2o143bo22bo311b2o42b3o12bo11b2o4bo848bo4b2o
103bob2ob2o137bo4b2o6bo50bo585b2o42b3o12bo11b2o4bo848bo4b2o28bobo72bob
2ob2o137bo4b2o6bo50bo285b2o42b3o12bo11b2o4bo848bo4b2o103bob2ob2o137bo
4b2o6bo50bo$2o2b2o2b2o2b2o2b2o2b2o2b2o2b2o2b2o2b2o2b2o2b2o2b2o2b2o2b2o
2b2o2b2o2b2o2b2o2b2o2b2o2b2o2b2o2b2o2b2o2b2o2b2o2b2o2b2o2b2o2b2o2b2o2b
2o2b2o2b2o2b2o2b2o2b2o2b2o2b2o2b2o2b2o2b2o2b2o2b2o2b2o2b2o2b2o2b2o2b2o
2b2o2b2o2b2o2b2o2b2o2b2o2b2o2b2o2b2o2b2o2b2o2b2o2b2o2b2o2b2o2b2o2b2o2b
2o2b2o2b2o2b2o2b2o2b2o2b2o2b2o2b2o2b2o2b2o2b2o2b2o2b2o2b2o2b2o2b2o2b2o
2b2o2b2o2b2o2b2o2b2o2b2o2b2o2b2o2b2o2b2o2b2o2b2o2b2o2b2o2b2o2b2o2b2o2b
2o2b2o2b2o2b2o2b2o2b2o2b2o2b2o2b2o2b2o2b2o2b2o2b2o2b2o2b2o2b2o2b2o2b2o
2b2o2b2o2b2o2b2o2b2o2b2o2b2o2b2o2b2o2b2o2b2o2b2o2b2o2b2o2b2o2b2o2b2o2b
2o2b2o2b2o2b2o2b2o2b2o2b2o2b2o2b2o2b2o2b2o2b2o2b2o2b2o2b2o146b2o2b2o2b
2o2b2o2b2o2b2o2b2o2b2o2b2o2b2o2b2o2b2o2b2o2b2o2b2o2b2o2b2o2b2o2b2o2b2o
2b2o2b2o2b2o2b2o2b2o2b2o2b2o2b2o2b2o2b2o2b2o2b2o410b2o2b2o2b2o2b2o2b2o
2b2o2b2o2b2o2b2o2b2o2b2o2b2o2b2o2b2o2b2o2b2o2b2o2b2o2b2o2b2o2b2o2b2o2b
2o2b2o2b2o2b2o2b2o2b2o2b2o2b2o2b2o2b2o597b3o6bo2bo11b2o154bo9bobo298b
2o54bo3bo11bo15b2o8b3o832b2ob5o6b2o6b2o82b3o6bo2bo151bobo6b2o43bo572b
2o54bo3bo11bo15b2o8b3o832b2ob5o6b2o6b2o17b2o63b3o6bo2bo151bobo6b2o43bo
272b2o54bo3bo11bo15b2o8b3o832b2ob5o6b2o6b2o82b3o6bo2bo151bobo6b2o43bo$
2o2b2o2b2o2b2o2b2o2b2o2b2o2b2o2b2o2b2o2b2o2b2o2b2o2b2o2b2o2b2o2b2o2b2o
2b2o2b2o2b2o2b2o2b2o2b2o2b2o2b2o2b2o2b2o2b2o2b2o2b2o2b2o2b2o2b2o2b2o2b
2o2b2o2b2o2b2o2b2o2b2o2b2o2b2o2b2o2b2o2b2o2b2o2b2o2b2o2b2o2b2o2b2o2b2o
2b2o2b2o2b2o2b2o2b2o2b2o2b2o2b2o2b2o2b2o2b2o2b2o2b2o2b2o2b2o2b2o2b2o2b
2o2b2o2b2o2b2o2b2o2b2o2b2o2b2o2b2o2b2o2b2o2b2o2b2o2b2o2b2o2b2o2b2o2b2o
2b2o2b2o2b2o2b2o2b2o2b2o2b2o2b2o2b2o2b2o2b2o2b2o2b2o2b2o2b2o2b2o2b2o2b
2o2b2o2b2o2b2o2b2o2b2o2b2o2b2o2b2o2b2o2b2o2b2o2b2o2b2o2b2o2b2o2b2o2b2o
2b2o2b2o2b2o2b2o2b2o2b2o2b2o2b2o2b2o2b2o2b2o2b2o2b2o2b2o2b2o2b2o2b2o2b
2o2b2o2b2o2b2o2b2o2b2o2b2o2b2o2b2o2b2o2b2o2b2o146b2o2b2o2b2o2b2o2b2o2b
2o2b2o2b2o2b2o2b2o2b2o2b2o2b2o2b2o2b2o2b2o2b2o2b2o2b2o2b2o2b2o2b2o2b2o
2b2o2b2o2b2o2b2o2b2o2b2o2b2o2b2o2b2o410b2o2b2o2b2o2b2o2b2o2b2o2b2o2b2o
2b2o2b2o2b2o2b2o2b2o2b2o2b2o2b2o2b2o2b2o2b2o2b2o2b2o2b2o2b2o2b2o2b2o2b
2o2b2o2b2o2b2o2b2o2b2o2b2o597b3o7b2o166b4o8b2o299b2o53bo5bo27b2o7b3o
809b2o20bo4b2o2bo5b3o5b2o82b3o7b2o152b2o7bobo41b3o571b2o53bo5bo27b2o7b
3o831bo4b2o2bo5b3o5b2o82b3o7b2o152b2o7bobo41b3o271b2o53bo5bo27b2o7b3o
809b2o20bo4b2o2bo5b3o5b2o82b3o7b2o152b2o7bobo41b3o$2012bo61bo104bobo6b
obob2o363bo5bo37bo810bobo8b2o8bo8b2o5b2o91bo54b2o117bo670bo5bo37bo821b
2o8bo8b2o5b2o91bo54b2o117bo370bo5bo37bo810bobo8b2o8bo8b2o5b2o91bo54b2o
117bo$2066b2o5bo105bo3bo3bo2bob3o365bo120bo730bo10b2o8bo7bo4b2o149bobo
92bobo21b2o40b3o629bo120bo741b2o8bo7bo4b2o149bobo92bobo21b2o40b3o329bo
120bo730bo10b2o8bo7bo4b2o149bobo92bobo21b2o40b3o$2o2b2o2b2o2b2o2b2o2b
2o2b2o2b2o2b2o2b2o2b2o2b2o2b2o2b2o2b2o2b2o2b2o2b2o2b2o2b2o2b2o2b2o2b2o
2b2o2b2o2b2o2b2o2b2o2b2o2b2o2b2o2b2o2b2o2b2o2b2o2b2o2b2o2b2o2b2o2b2o2b
2o2b2o2b2o2b2o2b2o2b2o2b2o2b2o2b2o2b2o2b2o2b2o2b2o2b2o2b2o2b2o2b2o2b2o
2b2o2b2o2b2o2b2o2b2o2b2o2b2o2b2o2b2o2b2o2b2o2b2o2b2o2b2o2b2o2b2o2b2o2b
2o2b2o2b2o2b2o2b2o2b2o2b2o2b2o2b2o2b2o2b2o2b2o2b2o2b2o2b2o2b2o2b2o2b2o
2b2o2b2o2b2o2b2o2b2o2b2o2b2o2b2o2b2o2b2o2b2o2b2o2b2o2b2o2b2o2b2o2b2o2b
2o2b2o2b2o2b2o2b2o2b2o2b2o2b2o2b2o2b2o2b2o2b2o2b2o2b2o2b2o2b2o2b2o2b2o
2b2o2b2o2b2o2b2o2b2o2b2o2b2o2b2o2b2o2b2o2b2o2b2o2b2o2b2o2b2o2b2o2b2o2b
2o2b2o2b2o2b2o2b2o2b2o2b2o146b2o2b2o2b2o2b2o2b2o2b2o2b2o2b2o2b2o2b2o2b
2o2b2o2b2o2b2o2b2o2b2o2b2o2b2o2b2o2b2o2b2o2b2o2b2o2b2o2b2o2b2o2b2o2b2o
2b2o2b2o2b2o2b2o410b2o2b2o2b2o2b2o2b2o2b2o2b2o2b2o2b2o2b2o2b2o2b2o2b2o
2b2o2b2o2b2o2b2o2b2o2b2o2b2o2b2o2b2o2b2o2b2o2b2o2b2o2b2o2b2o2b2o2b2o2b
2o2b2o651b3o4b2obo93b2o12bo4bobob2o299b2o63bo3bo118b2o23b2o725bo12b2o
149bo94b2o64b3o562b2o63bo3bo118b2o23b2o725bo12b2o149bo94b2o64b3o262b2o
63bo3bo118b2o23b2o725bo12b2o149bo94b2o64b3o$2o2b2o2b2o2b2o2b2o2b2o2b2o
2b2o2b2o2b2o2b2o2b2o2b2o2b2o2b2o2b2o2b2o2b2o2b2o2b2o2b2o2b2o2b2o2b2o2b
2o2b2o2b2o2b2o2b2o2b2o2b2o2b2o2b2o2b2o2b2o2b2o2b2o2b2o2b2o2b2o2b2o2b2o
2b2o2b2o2b2o2b2o2b2o2b2o2b2o2b2o2b2o2b2o2b2o2b2o2b2o2b2o2b2o2b2o2b2o2b
2o2b2o2b2o2b2o2b2o2b2o2b2o2b2o2b2o2b2o2b2o2b2o2b2o2b2o2b2o2b2o2b2o2b2o
2b2o2b2o2b2o2b2o2b2o2b2o2b2o2b2o2b2o2b2o2b2o2b2o2b2o2b2o2b2o2b2o2b2o2b
2o2b2o2b2o2b2o2b2o2b2o2b2o2b2o2b2o2b2o2b2o2b2o2b2o2b2o2b2o2b2o2b2o2b2o
2b2o2b2o2b2o2b2o2b2o2b2o2b2o2b2o2b2o2b2o2b2o2b2o2b2o2b2o2b2o2b2o2b2o2b
2o2b2o2b2o2b2o2b2o2b2o2b2o2b2o2b2o2b2o2b2o2b2o2b2o2b2o2b2o2b2o2b2o2b2o
2b2o2b2o2b2o2b2o2b2o146b2o2b2o2b2o2b2o2b2o2b2o2b2o2b2o2b2o2b2o2b2o2b2o
2b2o2b2o2b2o2b2o2b2o2b2o2b2o2b2o2b2o2b2o2b2o2b2o2b2o2b2o2b2o2b2o2b2o2b
2o2b2o2b2o410b2o2b2o2b2o2b2o2b2o2b2o2b2o2b2o2b2o2b2o2b2o2b2o2b2o2b2o2b
2o2b2o2b2o2b2o2b2o2b2o2b2o2b2o2b2o2b2o2b2o2b2o2b2o2b2o2b2o2b2o2b2o2b2o
641b2o5bob2o6bobo94b2o8bo4bo4b4o300bobo63b3o118bobo25bo725bo258bo629bo
bo63b3o118bobo25bo725bo34bo223bo329bobo63b3o118bobo25bo725bo258bo$
2009b2o4bo39b2o5bo2bo117bo7bo302bo22b2o41bo23bo18b2o90b2o12bo725b2o
102b2o4bo212b3o46bo516bo22b2o41bo23bo18b2o90b2o12bo725b2o31bo70b2o4bo
212b3o46bo216bo22b2o41bo23bo18b2o90b2o12bo725b2o102b2o4bo212b3o46bo$
2010bo3bo47bob2o113bo3bo334bo65bo18bo91b2o4bo7bo8b2o820bo3bo214bo45b3o
540bo65bo18bo91b2o4bo7bo8b2o748b3o69bo3bo214bo45b3o240bo65bo18bo91b2o
4bo7bo8b2o820bo3bo214bo45b3o$2o2b2o2b2o2b2o2b2o2b2o2b2o2b2o2b2o2b2o2b
2o2b2o2b2o2b2o2b2o2b2o2b2o2b2o2b2o2b2o2b2o2b2o2b2o2b2o2b2o2b2o2b2o2b2o
2b2o2b2o2b2o2b2o2b2o2b2o2b2o2b2o2b2o2b2o2b2o2b2o2b2o2b2o2b2o2b2o2b2o2b
2o2b2o2b2o2b2o2b2o2b2o2b2o2b2o2b2o2b2o2b2o2b2o2b2o2b2o2b2o2b2o2b2o2b2o
2b2o2b2o2b2o2b2o2b2o2b2o2b2o2b2o2b2o2b2o2b2o2b2o2b2o2b2o2b2o2b2o2b2o2b
2o2b2o2b2o2b2o2b2o2b2o2b2o2b2o2b2o2b2o2b2o2b2o2b2o2b2o2b2o2b2o2b2o2b2o
2b2o2b2o2b2o2b2o2b2o2b2o2b2o2b2o2b2o2b2o2b2o2b2o2b2o2b2o2b2o2b2o2b2o2b
2o2b2o2b2o2b2o2b2o2b2o2b2o2b2o2b2o2b2o2b2o2b2o2b2o2b2o2b2o2b2o2b2o2b2o
2b2o2b2o2b2o2b2o2b2o2b2o2b2o2b2o2b2o2b2o2b2o2b2o2b2o2b2o2b2o2b2o2b2o2b
2o2b2o146b2o2b2o2b2o2b2o2b2o2b2o2b2o2b2o2b2o2b2o2b2o2b2o2b2o2b2o2b2o2b
2o2b2o2b2o2b2o2b2o2b2o2b2o2b2o2b2o2b2o2b2o2b2o2b2o2b2o2b2o2b2o2b2o410b
2o2b2o2b2o2b2o2b2o2b2o2b2o2b2o2b2o2b2o2b2o2b2o2b2o2b2o2b2o2b2o2b2o2b2o
2b2o2b2o2b2o2b2o2b2o2b2o2b2o2b2o2b2o2b2o2b2o2b2o2b2o2b2o593b3o4b3o17b
2o29b3o6b2o103bobo336bobo7b2o48b2o3bobo18b3o85b2o5b2o8bo8b2o817b3o4b3o
17b2o193bo44bo543bobo7b2o48b2o3bobo18b3o85b2o5b2o8bo8b2o817b3o4b3o17b
2o193bo44bo243bobo7b2o48b2o3bobo18b3o85b2o5b2o8bo8b2o817b3o4b3o17b2o
193bo44bo$2o2b2o2b2o2b2o2b2o2b2o2b2o2b2o2b2o2b2o2b2o2b2o2b2o2b2o2b2o2b
2o2b2o2b2o2b2o2b2o2b2o2b2o2b2o2b2o2b2o2b2o2b2o2b2o2b2o2b2o2b2o2b2o2b2o
2b2o2b2o2b2o2b2o2b2o2b2o2b2o2b2o2b2o2b2o2b2o2b2o2b2o2b2o2b2o2b2o2b2o2b
2o2b2o2b2o2b2o2b2o2b2o2b2o2b2o2b2o2b2o2b2o2b2o2b2o2b2o2b2o2b2o2b2o2b2o
2b2o2b2o2b2o2b2o2b2o2b2o2b2o2b2o2b2o2b2o2b2o2b2o2b2o2b2o2b2o2b2o2b2o2b
2o2b2o2b2o2b2o2b2o2b2o2b2o2b2o2b2o2b2o2b2o2b2o2b2o2b2o2b2o2b2o2b2o2b2o
2b2o2b2o2b2o2b2o2b2o2b2o2b2o2b2o2b2o2b2o2b2o2b2o2b2o2b2o2b2o2b2o2b2o2b
2o2b2o2b2o2b2o2b2o2b2o2b2o2b2o2b2o2b2o2b2o2b2o2b2o2b2o2b2o2b2o2b2o2b2o
2b2o2b2o2b2o2b2o2b2o2b2o2b2o2b2o2b2o2b2o2b2o2b2o2b2o2b2o146b2o2b2o2b2o
2b2o2b2o2b2o2b2o2b2o2b2o2b2o2b2o2b2o2b2o2b2o2b2o2b2o2b2o2b2o2b2o2b2o2b
2o2b2o2b2o2b2o2b2o2b2o2b2o2b2o2b2o2b2o2b2o2b2o410b2o2b2o2b2o2b2o2b2o2b
2o2b2o2b2o2b2o2b2o2b2o2b2o2b2o2b2o2b2o2b2o2b2o2b2o2b2o2b2o2b2o2b2o2b2o
2b2o2b2o2b2o2b2o2b2o2b2o2b2o2b2o2b2o593bo26bobo29b2o6bobo442b2o6bobo
30b2o15bobo4b2o20bo77b2o5b3o5bo2b2o4bo710b3o115bo26bobo191b3o43b2o543b
2o6bobo30b2o15bobo4b2o20bo77b2o5b3o5bo2b2o4bo828bo26bobo191b3o43b2o
243b2o6bobo30b2o15bobo4b2o20bo77b2o5b3o5bo2b2o4bo710b3o115bo26bobo191b
3o43b2o$2022bo12b3o38bo420b2o27b3o4b2o4bo20b2o14b3o6bo5bo92b2o6b2o6b5o
b2o647b2o62bo132bo12b3o36b3o79bo640b2o27b3o4b2o4bo20b2o14b3o6bo5bo92b
2o6b2o6b5ob2o647b2o195bo12b3o36b3o79bo340b2o27b3o4b2o4bo20b2o14b3o6bo
5bo92b2o6b2o6b5ob2o647b2o62bo132bo12b3o36b3o79bo$2019b4o3b2o8b3o6b2o
29b2o419b2o26b3o4bo2b2obobo26b2o6b3o7bobo3b4o78b2o20b2o4bo653bo64bo
128b4o3b2o8b3o6b2o27bo79b2o25bo8b2o605b2o26b3o4bo2b2obobo26b2o6b3o7bob
o3b4o78b2o20b2o4bo653bo193b4o3b2o8b3o6b2o27bo79b2o25bo8b2o305b2o26b3o
4bo2b2obobo26b2o6b3o7bobo3b4o78b2o20b2o4bo653bo64bo128b4o3b2o8b3o6b2o
27bo79b2o25bo8b2o$2o2b2o2b2o2b2o2b2o2b2o2b2o2b2o2b2o2b2o2b2o2b2o2b2o2b
2o2b2o2b2o2b2o2b2o2b2o2b2o2b2o2b2o2b2o2b2o2b2o2b2o2b2o2b2o2b2o2b2o2b2o
2b2o2b2o2b2o2b2o2b2o2b2o2b2o2b2o2b2o2b2o2b2o2b2o2b2o2b2o2b2o2b2o2b2o2b
2o2b2o2b2o2b2o2b2o2b2o2b2o2b2o2b2o2b2o2b2o2b2o2b2o2b2o2b2o2b2o2b2o2b2o
2b2o2b2o2b2o2b2o2b2o2b2o2b2o2b2o2b2o2b2o2b2o2b2o2b2o2b2o2b2o2b2o2b2o2b
2o2b2o2b2o2b2o2b2o2b2o2b2o2b2o2b2o2b2o2b2o2b2o2b2o2b2o2b2o2b2o2b2o2b2o
2b2o2b2o2b2o2b2o2b2o2b2o2b2o2b2o2b2o2b2o2b2o2b2o2b2o2b2o2b2o2b2o2b2o2b
2o2b2o2b2o2b2o2b2o2b2o2b2o2b2o2b2o2b2o2b2o2b2o2b2o2b2o2b2o2b2o2b2o2b2o
2b2o2b2o2b2o2b2o2b2o2b2o2b2o2b2o2b2o2b2o2b2o2b2o2b2o2b2o2b2o2b2o146b2o
2b2o2b2o2b2o2b2o2b2o2b2o2b2o2b2o2b2o2b2o2b2o2b2o2b2o2b2o2b2o2b2o2b2o2b
2o2b2o2b2o2b2o2b2o2b2o2b2o2b2o2b2o2b2o2b2o2b2o2b2o2b2o410b2o2b2o2b2o2b
2o2b2o2b2o2b2o2b2o2b2o2b2o2b2o2b2o2b2o2b2o2b2o2b2o2b2o2b2o2b2o2b2o2b2o
2b2o2b2o2b2o2b2o2b2o2b2o2b2o2b2o2b2o2b2o2b2o604b4o3b2o8b3o7b2o445b2o
32b3o4b3obo3bo9b2o14b2o7b3o8b2o3b4o78b2o19b2o656bobo192b4o3b2o8b3o7b2o
28bo79b2o24b3o6b2o600b2o32b3o4b3obo3bo9b2o14b2o7b3o8b2o3b4o78b2o19b2o
656bobo192b4o3b2o8b3o7b2o28bo79b2o24b3o6b2o300b2o32b3o4b3obo3bo9b2o14b
2o7b3o8b2o3b4o78b2o19b2o656bobo192b4o3b2o8b3o7b2o28bo79b2o24b3o6b2o$2o
2b2o2b2o2b2o2b2o2b2o2b2o2b2o2b2o2b2o2b2o2b2o2b2o2b2o2b2o2b2o2b2o2b2o2b
2o2b2o2b2o2b2o2b2o2b2o2b2o2b2o2b2o2b2o2b2o2b2o2b2o2b2o2b2o2b2o2b2o2b2o
2b2o2b2o2b2o2b2o2b2o2b2o2b2o2b2o2b2o2b2o2b2o2b2o2b2o2b2o2b2o2b2o2b2o2b
2o2b2o2b2o2b2o2b2o2b2o2b2o2b2o2b2o2b2o2b2o2b2o2b2o2b2o2b2o2b2o2b2o2b2o
2b2o2b2o2b2o2b2o2b2o2b2o2b2o2b2o2b2o2b2o2b2o2b2o2b2o2b2o2b2o2b2o2b2o2b
2o2b2o2b2o2b2o2b2o2b2o2b2o2b2o2b2o2b2o2b2o2b2o2b2o2b2o2b2o2b2o2b2o2b2o
2b2o2b2o2b2o2b2o2b2o2b2o2b2o2b2o2b2o2b2o2b2o2b2o2b2o2b2o2b2o2b2o2b2o2b
2o2b2o2b2o2b2o2b2o2b2o2b2o2b2o2b2o2b2o2b2o2b2o2b2o2b2o2b2o2b2o2b2o2b2o
2b2o2b2o2b2o2b2o2b2o2b2o2b2o2b2o2b2o2b2o2b2o146b2o2b2o2b2o2b2o2b2o2b2o
2b2o2b2o2b2o2b2o2b2o2b2o2b2o2b2o2b2o2b2o2b2o2b2o2b2o2b2o2b2o2b2o2b2o2b
2o2b2o2b2o2b2o2b2o2b2o2b2o2b2o2b2o410b2o2b2o2b2o2b2o2b2o2b2o2b2o2b2o2b
2o2b2o2b2o2b2o2b2o2b2o2b2o2b2o2b2o2b2o2b2o2b2o2b2o2b2o2b2o2b2o2b2o2b2o
2b2o2b2o2b2o2b2o2b2o2b2o604bo2bo3b2obob2o2bobo454bobo33bobo4b2obo3bo9b
2o24bobo2b2obob2o3bo2bo77bo32bobo26bo2bo614b2o24bo168bo2bo3b2obob2o2bo
bo113bo33bo606bobo33bobo4b2obo3bo9b2o24bobo2b2obob2o3bo2bo77bo32bobo
26bo2bo26bo2bo26bo2bo26bo2bo26bo2bo26bo2bo26bo2bo26bo2bo26bo2bo26bo2bo
26bo2bo26bo2bo26bo2bo26bo2bo26bo2bo26bo2bo26bo2bo26bo2bo26bo2bo26bo2bo
26bo2bo14b2o24bo81bo86bo2bo3b2obob2o2bobo113bo33bo306bobo33bobo4b2obo
3bo9b2o24bobo2b2obob2o3bo2bo77bo32bobo26bo2bo26bo2bo26bo2bo26bo2bo26bo
2bo26bo2bo26bo2bo26bo2bo26bo2bo26bo2bo26bo2bo26bo2bo26bo2bo26bo2bo26bo
2bo26bo2bo26bo2bo26bo2bo26bo2bo26bo2bo26bo2bo14b2o24bo168bo2bo3b2obob
2o2bobo113bo33bo$2007bo10b4o4bobob2o2b2o455bo36b2o6b2o3bo36b2o2b2obobo
4b4o66b2o45bo11b4o14bo11b4o623bobo156bo10b4o4bobob2o2b2o113bobo31b2o
13b2o591bo36b2o6b2o3bo36b2o2b2obobo4b4o66b2o45bo11b4o14bo11b4o14bo11b
4o14bo11b4o14bo11b4o14bo11b4o14bo11b4o14bo11b4o14bo11b4o14bo11b4o14bo
11b4o14bo11b4o14bo11b4o14bo11b4o14bo11b4o14bo11b4o14bo11b4o14bo11b4o
14bo11b4o14bo11b4o14bo11b4o14bo38bobo80bobo73bo10b4o4bobob2o2b2o113bob
o31b2o13b2o291bo36b2o6b2o3bo36b2o2b2obobo4b4o66b2o45bo11b4o14bo11b4o
14bo11b4o14bo11b4o14bo11b4o14bo11b4o14bo11b4o14bo11b4o14bo11b4o14bo11b
4o14bo11b4o14bo11b4o14bo11b4o14bo11b4o14bo11b4o14bo11b4o14bo11b4o14bo
11b4o14bo11b4o14bo11b4o14bo11b4o14bo38bobo156bo10b4o4bobob2o2b2o113bob
o31b2o13b2o$2007bobo3b2o4b4o3bob2o460b2o13b2o31bobo43b2obo3b4o4b2o60bo
3bo39bo3bo10bo3bo10bo3bo10bo3bo613b2o7bob2o156bobo3b2o4b4o3bob2o119b2o
bo7b2o36bo591b2o13b2o31bobo43b2obo3b4o4b2o60bo3bo39bo3bo10bo3bo10bo3bo
10bo3bo10bo3bo10bo3bo10bo3bo10bo3bo10bo3bo10bo3bo10bo3bo10bo3bo10bo3bo
10bo3bo10bo3bo10bo3bo10bo3bo10bo3bo10bo3bo10bo3bo10bo3bo10bo3bo10bo3bo
10bo3bo10bo3bo10bo3bo10bo3bo10bo3bo10bo3bo10bo3bo10bo3bo10bo3bo10bo3bo
10bo3bo10bo3bo10bo3bo10bo3bo10bo3bo10bo3bo10bo3bo10bo3bo10bo3bo10bo3bo
28b2o7bob2o80b2o74bobo3b2o4b4o3bob2o119b2obo7b2o36bo291b2o13b2o31bobo
43b2obo3b4o4b2o60bo3bo39bo3bo10bo3bo10bo3bo10bo3bo10bo3bo10bo3bo10bo3b
o10bo3bo10bo3bo10bo3bo10bo3bo10bo3bo10bo3bo10bo3bo10bo3bo10bo3bo10bo3b
o10bo3bo10bo3bo10bo3bo10bo3bo10bo3bo10bo3bo10bo3bo10bo3bo10bo3bo10bo3b
o10bo3bo10bo3bo10bo3bo10bo3bo10bo3bo10bo3bo10bo3bo10bo3bo10bo3bo10bo3b
o10bo3bo10bo3bo10bo3bo10bo3bo10bo3bo10bo3bo28b2o7bob2o156bobo3b2o4b4o
3bob2o119b2obo7b2o36bo$2o2b2o2b2o2b2o2b2o2b2o2b2o2b2o2b2o2b2o2b2o2b2o
2b2o2b2o2b2o2b2o2b2o2b2o2b2o2b2o2b2o2b2o2b2o2b2o2b2o2b2o2b2o2b2o2b2o2b
2o2b2o2b2o2b2o2b2o2b2o2b2o2b2o2b2o2b2o2b2o2b2o2b2o2b2o2b2o2b2o2b2o2b2o
2b2o2b2o2b2o2b2o2b2o2b2o2b2o2b2o2b2o2b2o2b2o2b2o2b2o2b2o2b2o2b2o2b2o2b
2o2b2o2b2o2b2o2b2o2b2o2b2o2b2o2b2o2b2o2b2o2b2o2b2o2b2o2b2o2b2o2b2o2b2o
2b2o2b2o2b2o2b2o2b2o2b2o2b2o2b2o2b2o2b2o2b2o2b2o2b2o2b2o2b2o2b2o2b2o2b
2o2b2o2b2o2b2o2b2o2b2o2b2o2b2o2b2o2b2o2b2o2b2o2b2o2b2o2b2o2b2o2b2o2b2o
2b2o2b2o2b2o2b2o2b2o2b2o2b2o2b2o2b2o2b2o2b2o2b2o2b2o2b2o2b2o2b2o2b2o2b
2o2b2o2b2o2b2o2b2o2b2o2b2o2b2o2b2o2b2o2b2o2b2o2b2o2b2o2b2o2b2o2b2o2b2o
146b2o2b2o2b2o2b2o2b2o2b2o2b2o2b2o2b2o2b2o2b2o2b2o2b2o2b2o2b2o2b2o2b2o
2b2o2b2o2b2o2b2o2b2o2b2o2b2o2b2o2b2o2b2o2b2o2b2o2b2o2b2o2b2o410b2o2b2o
2b2o2b2o2b2o2b2o2b2o2b2o2b2o2b2o2b2o2b2o2b2o2b2o2b2o2b2o2b2o2b2o2b2o2b
2o2b2o2b2o2b2o2b2o2b2o2b2o2b2o2b2o2b2o2b2o2b2o2b2o593b2o3bobo7bo482bo
33bo51bo7bobo58bo5bo7bo31b4o14bo11b4o14bo612bobo6b2ob2o16bo29b2o108b2o
3bobo7bo114b2o10b2ob2o6bobo33bobo70b2o3b2o529bo33bo51bo7bobo58bo5bo7bo
31b4o14bo11b4o14bo11b4o14bo11b4o14bo11b4o14bo11b4o14bo11b4o14bo11b4o
14bo11b4o14bo11b4o14bo11b4o14bo11b4o14bo11b4o14bo11b4o14bo11b4o14bo11b
4o14bo11b4o14bo11b4o14bo11b4o14bo11b4o14bo11b4o14bo11b4o27bobo6b2ob2o
16bo139b2o3bobo7bo114b2o10b2ob2o6bobo33bobo70b2o3b2o229bo33bo51bo7bobo
58bo5bo7bo31b4o14bo11b4o14bo11b4o14bo11b4o14bo11b4o14bo11b4o14bo11b4o
14bo11b4o14bo11b4o14bo11b4o14bo11b4o14bo11b4o14bo11b4o14bo11b4o14bo11b
4o14bo11b4o14bo11b4o14bo11b4o14bo11b4o14bo11b4o14bo11b4o14bo11b4o27bob
o6b2ob2o16bo29b2o108b2o3bobo7bo114b2o10b2ob2o6bobo33bobo70b2o3b2o$2o2b
2o2b2o2b2o2b2o2b2o2b2o2b2o2b2o2b2o2b2o2b2o2b2o2b2o2b2o2b2o2b2o2b2o2b2o
2b2o2b2o2b2o2b2o2b2o2b2o2b2o2b2o2b2o2b2o2b2o2b2o2b2o2b2o2b2o2b2o2b2o2b
2o2b2o2b2o2b2o2b2o2b2o2b2o2b2o2b2o2b2o2b2o2b2o2b2o2b2o2b2o2b2o2b2o2b2o
2b2o2b2o2b2o2b2o2b2o2b2o2b2o2b2o2b2o2b2o2b2o2b2o2b2o2b2o2b2o2b2o2b2o2b
2o2b2o2b2o2b2o2b2o2b2o2b2o2b2o2b2o2b2o2b2o2b2o2b2o2b2o2b2o2b2o2b2o2b2o
2b2o2b2o2b2o2b2o2b2o2b2o2b2o2b2o2b2o2b2o2b2o2b2o2b2o2b2o2b2o2b2o2b2o2b
2o2b2o2b2o2b2o2b2o2b2o2b2o2b2o2b2o2b2o2b2o2b2o2b2o2b2o2b2o2b2o2b2o2b2o
2b2o2b2o2b2o2b2o2b2o2b2o2b2o2b2o2b2o2b2o2b2o2b2o2b2o2b2o2b2o2b2o2b2o2b
2o2b2o2b2o2b2o2b2o2b2o2b2o2b2o2b2o2b2o2b2o146b2o2b2o2b2o2b2o2b2o2b2o2b
2o2b2o2b2o2b2o2b2o2b2o2b2o2b2o2b2o2b2o2b2o2b2o2b2o2b2o2b2o2b2o2b2o2b2o
2b2o2b2o2b2o2b2o2b2o2b2o2b2o2b2o410b2o2b2o2b2o2b2o2b2o2b2o2b2o2b2o2b2o
2b2o2b2o2b2o2b2o2b2o2b2o2b2o2b2o2b2o2b2o2b2o2b2o2b2o2b2o2b2o2b2o2b2o2b
2o2b2o2b2o2b2o2b2o2b2o598bo485b2o6b3o24b3o65bo48b2o8bo3bob2o4bobo45bo
2bo26bo2bo612bo6b3obob2o15b2o29bobo112bo69b2o53b2o10b2obob3o6bo32b2o
71b2o3b2o522b2o6b3o24b3o65bo48b2o8bo3bob2o4bobo45bo2bo26bo2bo26bo2bo
26bo2bo26bo2bo26bo2bo26bo2bo26bo2bo26bo2bo26bo2bo26bo2bo26bo2bo26bo2bo
26bo2bo26bo2bo26bo2bo26bo2bo26bo2bo26bo2bo26bo2bo26bo2bo42bo6b3obob2o
15b2o144bo69b2o53b2o10b2obob3o6bo32b2o71b2o3b2o222b2o6b3o24b3o65bo48b
2o8bo3bob2o4bobo45bo2bo26bo2bo26bo2bo26bo2bo26bo2bo26bo2bo26bo2bo26bo
2bo26bo2bo26bo2bo26bo2bo26bo2bo26bo2bo26bo2bo26bo2bo26bo2bo26bo2bo26bo
2bo26bo2bo26bo2bo26bo2bo42bo6b3obob2o15b2o29bobo112bo69b2o53b2o10b2obo
b3o6bo32b2o71b2o3b2o$2011b2o485b2o8bo26bo65b2o47b2o8bo5bo3b2o685b2o7bo
2bo2bo2bo2bobo14b2o11b2o17bo113b2o69bobo64bobo2bo2bo2bo2bo106b5o523b2o
8bo26bo65b2o47b2o8bo5bo3b2o685b2o7bo2bo2bo2bo2bobo14b2o11b2o131b2o69bo
bo64bobo2bo2bo2bo2bo106b5o223b2o8bo26bo65b2o47b2o8bo5bo3b2o685b2o7bo2b
o2bo2bo2bobo14b2o11b2o17bo113b2o69bobo64bobo2bo2bo2bo2bo106b5o$2036bo
497bo126bo3bo4b2o12b2o671b2o7bo6b2o4bo14b3o7bo3b3o155bo45bo45b2o20bo4b
2o6bo25b2o80bobo560bo126bo3bo4b2o12b2o671b2o7bo6b2o4bo14b3o7bo3b3o155b
o45bo45b2o20bo4b2o6bo25b2o80bobo260bo126bo3bo4b2o12b2o671b2o7bo6b2o4bo
14b3o7bo3b3o155bo45bo45b2o20bo4b2o6bo25b2o80bobo$2o2b2o2b2o2b2o2b2o2b
2o2b2o2b2o2b2o2b2o2b2o2b2o2b2o2b2o2b2o2b2o2b2o2b2o2b2o2b2o2b2o2b2o2b2o
2b2o2b2o2b2o2b2o2b2o2b2o2b2o2b2o2b2o2b2o2b2o2b2o2b2o2b2o2b2o2b2o2b2o2b
2o2b2o2b2o2b2o2b2o2b2o2b2o2b2o2b2o2b2o2b2o2b2o2b2o2b2o2b2o2b2o2b2o2b2o
2b2o2b2o2b2o2b2o2b2o2b2o2b2o2b2o2b2o2b2o2b2o2b2o2b2o2b2o2b2o2b2o2b2o2b
2o2b2o2b2o2b2o2b2o2b2o2b2o2b2o2b2o2b2o2b2o2b2o2b2o2b2o2b2o2b2o2b2o2b2o
2b2o2b2o2b2o2b2o2b2o2b2o2b2o2b2o2b2o2b2o2b2o2b2o2b2o2b2o2b2o2b2o2b2o2b
2o2b2o2b2o2b2o2b2o2b2o2b2o2b2o2b2o2b2o2b2o2b2o2b2o2b2o2b2o2b2o2b2o2b2o
2b2o2b2o2b2o2b2o2b2o2b2o2b2o2b2o2b2o2b2o2b2o2b2o2b2o2b2o2b2o2b2o2b2o2b
2o2b2o2b2o2b2o2b2o2b2o2b2o146b2o2b2o2b2o2b2o2b2o2b2o2b2o2b2o2b2o2b2o2b
2o2b2o2b2o2b2o2b2o2b2o2b2o2b2o2b2o2b2o2b2o2b2o2b2o2b2o2b2o2b2o2b2o2b2o
2b2o2b2o2b2o2b2o410b2o2b2o2b2o2b2o2b2o2b2o2b2o2b2o2b2o2b2o2b2o2b2o2b2o
2b2o2b2o2b2o2b2o2b2o2b2o2b2o2b2o2b2o2b2o2b2o2b2o2b2o2b2o2b2o2b2o2b2o2b
2o2b2o623b2o623b2o6b2o12b2o11bo55b2o612bobo25b2o5b4o4b2obo153b2o89b2o
30bobo6b2o18b2o771b2o6b2o12b2o11bo669bobo25b2o5b4o4b2obo40bo112b2o89b
2o30bobo6b2o18b2o471b2o6b2o12b2o11bo669bobo25b2o5b4o4b2obo153b2o89b2o
30bobo6b2o18b2o$2o2b2o2b2o2b2o2b2o2b2o2b2o2b2o2b2o2b2o2b2o2b2o2b2o2b2o
2b2o2b2o2b2o2b2o2b2o2b2o2b2o2b2o2b2o2b2o2b2o2b2o2b2o2b2o2b2o2b2o2b2o2b
2o2b2o2b2o2b2o2b2o2b2o2b2o2b2o2b2o2b2o2b2o2b2o2b2o2b2o2b2o2b2o2b2o2b2o
2b2o2b2o2b2o2b2o2b2o2b2o2b2o2b2o2b2o2b2o2b2o2b2o2b2o2b2o2b2o2b2o2b2o2b
2o2b2o2b2o2b2o2b2o2b2o2b2o2b2o2b2o2b2o2b2o2b2o2b2o2b2o2b2o2b2o2b2o2b2o
2b2o2b2o2b2o2b2o2b2o2b2o2b2o2b2o2b2o2b2o2b2o2b2o2b2o2b2o2b2o2b2o2b2o2b
2o2b2o2b2o2b2o2b2o2b2o2b2o2b2o2b2o2b2o2b2o2b2o2b2o2b2o2b2o2b2o2b2o2b2o
2b2o2b2o2b2o2b2o2b2o2b2o2b2o2b2o2b2o2b2o2b2o2b2o2b2o2b2o2b2o2b2o2b2o2b
2o2b2o2b2o2b2o2b2o2b2o2b2o2b2o2b2o2b2o2b2o2b2o2b2o2b2o2b2o2b2o146b2o2b
2o2b2o2b2o2b2o2b2o2b2o2b2o2b2o2b2o2b2o2b2o2b2o2b2o2b2o2b2o2b2o2b2o2b2o
2b2o2b2o2b2o2b2o2b2o2b2o2b2o2b2o2b2o2b2o2b2o2b2o2b2o410b2o2b2o2b2o2b2o
2b2o2b2o2b2o2b2o2b2o2b2o2b2o2b2o2b2o2b2o2b2o2b2o2b2o2b2o2b2o2b2o2b2o2b
2o2b2o2b2o2b2o2b2o2b2o2b2o2b2o2b2o2b2o2b2o586bo35b2o634bobo22b2o55b2o
612b2o26b2o2bo4bo4bo2bo5b2o109bo35b2o122b2o7bobo99b3o698bobo22b2o669b
2o26b2o2bo4bo4bo2bo5b2o32bo76bo35b2o122b2o7bobo99b3o398bobo22b2o669b2o
26b2o2bo4bo4bo2bo5b2o109bo35b2o122b2o7bobo99b3o$1999bo674bo21bobo54bo
643bo2bo3bo5b2obo5b2o108bo171bo802bo21bobo698bo2bo3bo5b2obo5b2o32b3o
73bo171bo502bo21bobo698bo2bo3bo5b2obo5b2o108bo171bo$1999b3o1378bobo18b
ob2o3b3o118b3o127bo41b2o22bo1484bobo18bob2o3b3o118b3o127bo41b2o22bo
1184bobo18bob2o3b3o118b3o127bo41b2o22bo$2o2b2o2b2o2b2o2b2o2b2o2b2o2b2o
2b2o2b2o2b2o2b2o2b2o2b2o2b2o2b2o2b2o2b2o2b2o2b2o2b2o2b2o2b2o2b2o2b2o2b
2o2b2o2b2o2b2o2b2o2b2o2b2o2b2o2b2o2b2o2b2o2b2o2b2o2b2o2b2o2b2o2b2o2b2o
2b2o2b2o2b2o2b2o2b2o2b2o2b2o2b2o2b2o2b2o2b2o2b2o2b2o2b2o2b2o2b2o2b2o2b
2o2b2o2b2o2b2o2b2o2b2o2b2o2b2o2b2o2b2o2b2o2b2o2b2o2b2o2b2o2b2o2b2o2b2o
2b2o2b2o2b2o2b2o2b2o2b2o2b2o2b2o2b2o2b2o2b2o2b2o2b2o2b2o2b2o2b2o2b2o2b
2o2b2o2b2o2b2o2b2o2b2o2b2o2b2o2b2o2b2o2b2o2b2o2b2o2b2o2b2o2b2o2b2o2b2o
2b2o2b2o2b2o2b2o2b2o2b2o2b2o2b2o2b2o2b2o2b2o2b2o2b2o2b2o2b2o2b2o2b2o2b
2o2b2o2b2o2b2o2b2o2b2o2b2o2b2o2b2o2b2o2b2o2b2o2b2o2b2o2b2o2b2o2b2o2b2o
2b2o2b2o2b2o2b2o146b2o2b2o2b2o2b2o2b2o2b2o2b2o2b2o2b2o2b2o2b2o2b2o2b2o
2b2o2b2o2b2o2b2o2b2o2b2o2b2o2b2o2b2o2b2o2b2o2b2o2b2o2b2o2b2o2b2o2b2o2b
2o2b2o410b2o2b2o2b2o2b2o2b2o2b2o2b2o2b2o2b2o2b2o2b2o2b2o2b2o2b2o2b2o2b
2o2b2o2b2o2b2o2b2o2b2o2b2o2b2o2b2o2b2o2b2o2b2o2b2o2b2o2b2o2b2o2b2o
1112b2o183bo669b2o25b2o24b3o221bobo63bobo629b2o183bo669b2o25b2o248bobo
63bobo329b2o183bo669b2o25b2o24b3o221bobo63bobo$2o2b2o2b2o2b2o2b2o2b2o
2b2o2b2o2b2o2b2o2b2o2b2o2b2o2b2o2b2o2b2o2b2o2b2o2b2o2b2o2b2o2b2o2b2o2b
2o2b2o2b2o2b2o2b2o2b2o2b2o2b2o2b2o2b2o2b2o2b2o2b2o2b2o2b2o2b2o2b2o2b2o
2b2o2b2o2b2o2b2o2b2o2b2o2b2o2b2o2b2o2b2o2b2o2b2o2b2o2b2o2b2o2b2o2b2o2b
2o2b2o2b2o2b2o2b2o2b2o2b2o2b2o2b2o2b2o2b2o2b2o2b2o2b2o2b2o2b2o2b2o2b2o
2b2o2b2o2b2o2b2o2b2o2b2o2b2o2b2o2b2o2b2o2b2o2b2o2b2o2b2o2b2o2b2o2b2o2b
2o2b2o2b2o2b2o2b2o2b2o2b2o2b2o2b2o2b2o2b2o2b2o2b2o2b2o2b2o2b2o2b2o2b2o
2b2o2b2o2b2o2b2o2b2o2b2o2b2o2b2o2b2o2b2o2b2o2b2o2b2o2b2o2b2o2b2o2b2o2b
2o2b2o2b2o2b2o2b2o2b2o2b2o2b2o2b2o2b2o2b2o2b2o2b2o2b2o2b2o2b2o2b2o2b2o
2b2o2b2o2b2o2b2o2b2o2b2o146b2o2b2o2b2o2b2o2b2o2b2o2b2o2b2o2b2o2b2o2b2o
2b2o2b2o2b2o2b2o2b2o2b2o2b2o2b2o2b2o2b2o2b2o2b2o2b2o2b2o2b2o2b2o2b2o2b
2o2b2o2b2o2b2o410b2o2b2o2b2o2b2o2b2o2b2o2b2o2b2o2b2o2b2o2b2o2b2o2b2o2b
2o2b2o2b2o2b2o2b2o2b2o2b2o2b2o2b2o2b2o2b2o2b2o2b2o2b2o2b2o2b2o2b2o2b2o
2b2o1111bobo155b2o25b2o669bo52bo7b2o175b3o35bo3bo63b2o628bobo155b2o25b
2o669bo60b2o175b3o35bo3bo63b2o328bobo155b2o25b2o669bo52bo7b2o175b3o35b
o3bo63b2o$2502b2o23bo154b3o3b2obo18bobo21b2o699bo6b2o175bo37b5o670b2o
23bo154b3o3b2obo18bobo21b2o706b2o175bo37b5o370b2o23bo154b3o3b2obo18bob
o21b2o699bo6b2o175bo37b5o$2043bobo457bo175bob2o5bo3bo2bo38bo11bo647bob
o176bobo44bo35b2o3b2o138b2o530bo175bob2o5bo3bo2bo38bo659bobo176bobo44b
o35b2o3b2o138b2o230bo175bob2o5bo3bo2bo38bo659bobo176bobo44bo35b2o3b2o
138b2o$2o2b2o2b2o2b2o2b2o2b2o2b2o2b2o2b2o2b2o2b2o2b2o2b2o2b2o2b2o2b2o
2b2o2b2o2b2o2b2o2b2o2b2o2b2o2b2o2b2o2b2o2b2o2b2o2b2o2b2o2b2o2b2o2b2o2b
2o2b2o2b2o2b2o2b2o2b2o2b2o2b2o2b2o2b2o2b2o2b2o2b2o2b2o2b2o2b2o2b2o2b2o
2b2o2b2o2b2o2b2o2b2o2b2o2b2o2b2o2b2o2b2o2b2o2b2o2b2o2b2o2b2o2b2o2b2o2b
2o2b2o2b2o2b2o2b2o2b2o2b2o2b2o2b2o2b2o2b2o2b2o2b2o2b2o2b2o2b2o2b2o2b2o
2b2o2b2o2b2o2b2o2b2o2b2o2b2o2b2o2b2o2b2o2b2o2b2o2b2o2b2o2b2o2b2o2b2o2b
2o2b2o2b2o2b2o2b2o2b2o2b2o2b2o2b2o2b2o2b2o2b2o2b2o2b2o2b2o2b2o2b2o2b2o
2b2o2b2o2b2o2b2o2b2o2b2o2b2o2b2o2b2o2b2o2b2o2b2o2b2o2b2o2b2o2b2o2b2o2b
2o2b2o2b2o2b2o2b2o2b2o2b2o2b2o2b2o2b2o2b2o2b2o2b2o2b2o146b2o2b2o2b2o2b
2o2b2o2b2o2b2o2b2o2b2o2b2o2b2o2b2o2b2o2b2o2b2o2b2o2b2o2b2o2b2o2b2o2b2o
2b2o2b2o2b2o2b2o2b2o2b2o2b2o2b2o2b2o2b2o2b2o410b2o2b2o2b2o2b2o2b2o2b2o
2b2o2b2o2b2o2b2o2b2o2b2o2b2o2b2o2b2o2b2o2b2o2b2o2b2o2b2o2b2o2b2o2b2o2b
2o2b2o2b2o2b2o2b2o2b2o2b2o2b2o2b2o630b2o457bobo7b2o157b2o5bo2bo4bo4bo
2b2o26b2o7bobo11b2o646b2o178b2o81b5o54b2o83b2o530bobo7b2o157b2o5bo2bo
4bo4bo2b2o26b2o7bobo659b2o50bo127b2o81b5o54b2o83b2o230bobo7b2o157b2o5b
o2bo4bo4bo2b2o26b2o7bobo659b2o178b2o81b5o54b2o83b2o$2o2b2o2b2o2b2o2b2o
2b2o2b2o2b2o2b2o2b2o2b2o2b2o2b2o2b2o2b2o2b2o2b2o2b2o2b2o2b2o2b2o2b2o2b
2o2b2o2b2o2b2o2b2o2b2o2b2o2b2o2b2o2b2o2b2o2b2o2b2o2b2o2b2o2b2o2b2o2b2o
2b2o2b2o2b2o2b2o2b2o2b2o2b2o2b2o2b2o2b2o2b2o2b2o2b2o2b2o2b2o2b2o2b2o2b
2o2b2o2b2o2b2o2b2o2b2o2b2o2b2o2b2o2b2o2b2o2b2o2b2o2b2o2b2o2b2o2b2o2b2o
2b2o2b2o2b2o2b2o2b2o2b2o2b2o2b2o2b2o2b2o2b2o2b2o2b2o2b2o2b2o2b2o2b2o2b
2o2b2o2b2o2b2o2b2o2b2o2b2o2b2o2b2o2b2o2b2o2b2o2b2o2b2o2b2o2b2o2b2o2b2o
2b2o2b2o2b2o2b2o2b2o2b2o2b2o2b2o2b2o2b2o2b2o2b2o2b2o2b2o2b2o2b2o2b2o2b
2o2b2o2b2o2b2o2b2o2b2o2b2o2b2o2b2o2b2o2b2o2b2o2b2o2b2o2b2o2b2o2b2o2b2o
2b2o2b2o2b2o2b2o2b2o2b2o2b2o146b2o2b2o2b2o2b2o2b2o2b2o2b2o2b2o2b2o2b2o
2b2o2b2o2b2o2b2o2b2o2b2o2b2o2b2o2b2o2b2o2b2o2b2o2b2o2b2o2b2o2b2o2b2o2b
2o2b2o2b2o2b2o2b2o410b2o2b2o2b2o2b2o2b2o2b2o2b2o2b2o2b2o2b2o2b2o2b2o2b
2o2b2o2b2o2b2o2b2o2b2o2b2o2b2o2b2o2b2o2b2o2b2o2b2o2b2o2b2o2b2o2b2o2b2o
2b2o2b2o578bo51bo459b2o6bobo157b2o5bob2o4b4o5b2o25bobo6b2o11bobo647bo
126bo51bo70bo12b3o55b2o616b2o6bobo157b2o5bob2o4b4o5b2o25bobo6b2o661bo
50bobo73bo51bo70bo12b3o55b2o316b2o6bobo157b2o5bob2o4b4o5b2o25bobo6b2o
661bo126bo51bo70bo12b3o55b2o$1992bobo516b3o4b2o4bo157b3o3bo7b3o14bo4b
2o6bo795bobo119bobo12bo43bo637b3o4b2o4bo157b3o3bo7b3o14bo4b2o6bo719b2o
74bobo119bobo12bo43bo337b3o4b2o4bo157b3o3bo7b3o14bo4b2o6bo795bobo119bo
bo12bo43bo$1992b2o516b3o4bo2b2obobo157b2o11b2o14bobo2bo2bo2bo2bo715b2o
78b2o179b2o635b3o4bo2b2obobo157b2o11b2o14bobo2bo2bo2bo2bo17bo697b2o78b
2o179b2o335b3o4bo2b2obobo157b2o11b2o14bobo2bo2bo2bo2bo17bo697b2o78b2o
179b2o$2o2b2o2b2o2b2o2b2o2b2o2b2o2b2o2b2o2b2o2b2o2b2o2b2o2b2o2b2o2b2o
2b2o2b2o2b2o2b2o2b2o2b2o2b2o2b2o2b2o2b2o2b2o2b2o2b2o2b2o2b2o2b2o2b2o2b
2o2b2o2b2o2b2o2b2o2b2o2b2o2b2o2b2o2b2o2b2o2b2o2b2o2b2o2b2o2b2o2b2o2b2o
2b2o2b2o2b2o2b2o2b2o2b2o2b2o2b2o2b2o2b2o2b2o2b2o2b2o2b2o2b2o2b2o2b2o2b
2o2b2o2b2o2b2o2b2o2b2o2b2o2b2o2b2o2b2o2b2o2b2o2b2o2b2o2b2o2b2o2b2o2b2o
2b2o2b2o2b2o2b2o2b2o2b2o2b2o2b2o2b2o2b2o2b2o2b2o2b2o2b2o2b2o2b2o2b2o2b
2o2b2o2b2o2b2o2b2o2b2o2b2o2b2o2b2o2b2o2b2o2b2o2b2o2b2o2b2o2b2o2b2o2b2o
2b2o2b2o2b2o2b2o2b2o2b2o2b2o2b2o2b2o2b2o2b2o2b2o2b2o2b2o2b2o2b2o2b2o2b
2o2b2o2b2o2b2o2b2o2b2o2b2o2b2o2b2o2b2o2b2o2b2o2b2o2b2o146b2o2b2o2b2o2b
2o2b2o2b2o2b2o2b2o2b2o2b2o2b2o2b2o2b2o2b2o2b2o2b2o2b2o2b2o2b2o2b2o2b2o
2b2o2b2o2b2o2b2o2b2o2b2o2b2o2b2o2b2o2b2o2b2o410b2o2b2o2b2o2b2o2b2o2b2o
2b2o2b2o2b2o2b2o2b2o2b2o2b2o2b2o2b2o2b2o2b2o2b2o2b2o2b2o2b2o2b2o2b2o2b
2o2b2o2b2o2b2o2b2o2b2o2b2o2b2o2b2o1097b3o4b3obo3bo9b2o157b2o15b2obob3o
6bo642bo2bo69bobo182b2o73bobo6b3o627b3o4b3obo3bo9b2o157b2o15b2obob3o6b
o17bo24bo2bo26bo2bo26bo2bo26bo2bo26bo2bo26bo2bo26bo2bo26bo2bo26bo2bo
26bo2bo26bo2bo26bo2bo26bo2bo26bo2bo26bo2bo26bo2bo26bo2bo26bo2bo26bo2bo
26bo2bo26bo2bo69bobo182b2o73bobo6b3o327b3o4b3obo3bo9b2o157b2o15b2obob
3o6bo17bo24bo2bo26bo2bo26bo2bo26bo2bo26bo2bo26bo2bo26bo2bo26bo2bo26bo
2bo26bo2bo26bo2bo26bo2bo26bo2bo26bo2bo26bo2bo26bo2bo26bo2bo26bo2bo26bo
2bo26bo2bo26bo2bo69bobo182b2o73bobo6b3o$2o2b2o2b2o2b2o2b2o2b2o2b2o2b2o
2b2o2b2o2b2o2b2o2b2o2b2o2b2o2b2o2b2o2b2o2b2o2b2o2b2o2b2o2b2o2b2o2b2o2b
2o2b2o2b2o2b2o2b2o2b2o2b2o2b2o2b2o2b2o2b2o2b2o2b2o2b2o2b2o2b2o2b2o2b2o
2b2o2b2o2b2o2b2o2b2o2b2o2b2o2b2o2b2o2b2o2b2o2b2o2b2o2b2o2b2o2b2o2b2o2b
2o2b2o2b2o2b2o2b2o2b2o2b2o2b2o2b2o2b2o2b2o2b2o2b2o2b2o2b2o2b2o2b2o2b2o
2b2o2b2o2b2o2b2o2b2o2b2o2b2o2b2o2b2o2b2o2b2o2b2o2b2o2b2o2b2o2b2o2b2o2b
2o2b2o2b2o2b2o2b2o2b2o2b2o2b2o2b2o2b2o2b2o2b2o2b2o2b2o2b2o2b2o2b2o2b2o
2b2o2b2o2b2o2b2o2b2o2b2o2b2o2b2o2b2o2b2o2b2o2b2o2b2o2b2o2b2o2b2o2b2o2b
2o2b2o2b2o2b2o2b2o2b2o2b2o2b2o2b2o2b2o2b2o2b2o2b2o2b2o2b2o2b2o2b2o2b2o
2b2o2b2o2b2o2b2o146b2o2b2o2b2o2b2o2b2o2b2o2b2o2b2o2b2o2b2o2b2o2b2o2b2o
2b2o2b2o2b2o2b2o2b2o2b2o2b2o2b2o2b2o2b2o2b2o2b2o2b2o2b2o2b2o2b2o2b2o2b
2o2b2o410b2o2b2o2b2o2b2o2b2o2b2o2b2o2b2o2b2o2b2o2b2o2b2o2b2o2b2o2b2o2b
2o2b2o2b2o2b2o2b2o2b2o2b2o2b2o2b2o2b2o2b2o2b2o2b2o2b2o2b2o2b2o2b2o
1098bobo4b2obo3bo9b2o157bo16b2ob2o6bobo642bo14b4o55bo184bobo14b3o64bo
630bobo4b2obo3bo9b2o157bo16b2ob2o6bobo27b4o11bo14b4o11bo14b4o11bo14b4o
11bo14b4o11bo14b4o11bo14b4o11bo14b4o11bo14b4o11bo14b4o11bo14b4o11bo14b
4o11bo14b4o11bo14b4o11bo14b4o11bo14b4o11bo14b4o11bo14b4o11bo14b4o11bo
14b4o11bo14b4o11bo14b4o55bo184bobo14b3o64bo330bobo4b2obo3bo9b2o157bo
16b2ob2o6bobo27b4o11bo14b4o11bo14b4o11bo14b4o11bo14b4o11bo14b4o11bo14b
4o11bo14b4o11bo14b4o11bo14b4o11bo14b4o11bo14b4o11bo14b4o11bo14b4o11bo
14b4o11bo14b4o11bo14b4o11bo14b4o11bo14b4o11bo14b4o11bo14b4o11bo14b4o
55bo184bobo14b3o64bo$2051bo461b2o6b2o3bo185b2obo7b2o643bo3bo10bo3bo
193bo45bo16b3o13bo51bo630b2o6b2o3bo185b2obo7b2o28bo3bo10bo3bo10bo3bo
10bo3bo10bo3bo10bo3bo10bo3bo10bo3bo10bo3bo10bo3bo10bo3bo10bo3bo10bo3bo
10bo3bo10bo3bo10bo3bo10bo3bo10bo3bo10bo3bo10bo3bo10bo3bo10bo3bo10bo3bo
10bo3bo10bo3bo10bo3bo10bo3bo10bo3bo10bo3bo10bo3bo10bo3bo10bo3bo10bo3bo
10bo3bo10bo3bo10bo3bo10bo3bo10bo3bo10bo3bo10bo3bo10bo3bo10bo3bo10bo3bo
48bo144bo45bo16b3o13bo51bo330b2o6b2o3bo185b2obo7b2o28bo3bo10bo3bo10bo
3bo10bo3bo10bo3bo10bo3bo10bo3bo10bo3bo10bo3bo10bo3bo10bo3bo10bo3bo10bo
3bo10bo3bo10bo3bo10bo3bo10bo3bo10bo3bo10bo3bo10bo3bo10bo3bo10bo3bo10bo
3bo10bo3bo10bo3bo10bo3bo10bo3bo10bo3bo10bo3bo10bo3bo10bo3bo10bo3bo10bo
3bo10bo3bo10bo3bo10bo3bo10bo3bo10bo3bo10bo3bo10bo3bo10bo3bo10bo3bo10bo
3bo193bo45bo16b3o13bo51bo$2052b2o469bobo186bobo23b2o628b4o11bo71b2o
125b2o61bo11b2o694bobo186bobo23b2o13bo14b4o11bo14b4o11bo14b4o11bo14b4o
11bo14b4o11bo14b4o11bo14b4o11bo14b4o11bo14b4o11bo14b4o11bo14b4o11bo14b
4o11bo14b4o11bo14b4o11bo14b4o11bo14b4o11bo14b4o11bo14b4o11bo14b4o11bo
14b4o11bo14b4o11bo50b2o19b2o125b2o61bo11b2o394bobo186bobo23b2o13bo14b
4o11bo14b4o11bo14b4o11bo14b4o11bo14b4o11bo14b4o11bo14b4o11bo14b4o11bo
14b4o11bo14b4o11bo14b4o11bo14b4o11bo14b4o11bo14b4o11bo14b4o11bo14b4o
11bo14b4o11bo14b4o11bo14b4o11bo14b4o11bo14b4o11bo71b2o125b2o61bo11b2o$
2o2b2o2b2o2b2o2b2o2b2o2b2o2b2o2b2o2b2o2b2o2b2o2b2o2b2o2b2o2b2o2b2o2b2o
2b2o2b2o2b2o2b2o2b2o2b2o2b2o2b2o2b2o2b2o2b2o2b2o2b2o2b2o2b2o2b2o2b2o2b
2o2b2o2b2o2b2o2b2o2b2o2b2o2b2o2b2o2b2o2b2o2b2o2b2o2b2o2b2o2b2o2b2o2b2o
2b2o2b2o2b2o2b2o2b2o2b2o2b2o2b2o2b2o2b2o2b2o2b2o2b2o2b2o2b2o2b2o2b2o2b
2o2b2o2b2o2b2o2b2o2b2o2b2o2b2o2b2o2b2o2b2o2b2o2b2o2b2o2b2o2b2o2b2o2b2o
2b2o2b2o2b2o2b2o2b2o2b2o2b2o2b2o2b2o2b2o2b2o2b2o2b2o2b2o2b2o2b2o2b2o2b
2o2b2o2b2o2b2o2b2o2b2o2b2o2b2o2b2o2b2o2b2o2b2o2b2o2b2o2b2o2b2o2b2o2b2o
2b2o2b2o2b2o2b2o2b2o2b2o2b2o2b2o2b2o2b2o2b2o2b2o2b2o2b2o2b2o2b2o2b2o2b
2o2b2o2b2o2b2o2b2o2b2o2b2o2b2o2b2o2b2o2b2o2b2o146b2o2b2o2b2o2b2o2b2o2b
2o2b2o2b2o2b2o2b2o2b2o2b2o2b2o2b2o2b2o2b2o2b2o2b2o2b2o2b2o2b2o2b2o2b2o
2b2o2b2o2b2o2b2o2b2o2b2o2b2o2b2o2b2o410b2o2b2o2b2o2b2o2b2o2b2o2b2o2b2o
2b2o2b2o2b2o2b2o2b2o2b2o2b2o2b2o2b2o2b2o2b2o2b2o2b2o2b2o2b2o2b2o2b2o2b
2o2b2o2b2o2b2o2b2o2b2o2b2o571bo65b2o471bo188bo25b2o643bobo68bobo57bo
65b2o74b3o694bo188bo25b2o13bo2bo26bo2bo26bo2bo26bo2bo26bo2bo26bo2bo26b
o2bo26bo2bo26bo2bo26bo2bo26bo2bo26bo2bo26bo2bo26bo2bo26bo2bo26bo2bo26b
o2bo26bo2bo26bo2bo26bo2bo26bo2bo26bobo48b2o18bobo57bo65b2o74b3o394bo
188bo25b2o13bo2bo26bo2bo26bo2bo26bo2bo26bo2bo26bo2bo26bo2bo26bo2bo26bo
2bo26bo2bo26bo2bo26bo2bo26bo2bo26bo2bo26bo2bo26bo2bo26bo2bo26bo2bo26bo
2bo26bo2bo26bo2bo26bobo68bobo57bo65b2o74b3o$2o2b2o2b2o2b2o2b2o2b2o2b2o
2b2o2b2o2b2o2b2o2b2o2b2o2b2o2b2o2b2o2b2o2b2o2b2o2b2o2b2o2b2o2b2o2b2o2b
2o2b2o2b2o2b2o2b2o2b2o2b2o2b2o2b2o2b2o2b2o2b2o2b2o2b2o2b2o2b2o2b2o2b2o
2b2o2b2o2b2o2b2o2b2o2b2o2b2o2b2o2b2o2b2o2b2o2b2o2b2o2b2o2b2o2b2o2b2o2b
2o2b2o2b2o2b2o2b2o2b2o2b2o2b2o2b2o2b2o2b2o2b2o2b2o2b2o2b2o2b2o2b2o2b2o
2b2o2b2o2b2o2b2o2b2o2b2o2b2o2b2o2b2o2b2o2b2o2b2o2b2o2b2o2b2o2b2o2b2o2b
2o2b2o2b2o2b2o2b2o2b2o2b2o2b2o2b2o2b2o2b2o2b2o2b2o2b2o2b2o2b2o2b2o2b2o
2b2o2b2o2b2o2b2o2b2o2b2o2b2o2b2o2b2o2b2o2b2o2b2o2b2o2b2o2b2o2b2o2b2o2b
2o2b2o2b2o2b2o2b2o2b2o2b2o2b2o2b2o2b2o2b2o2b2o2b2o2b2o2b2o2b2o2b2o2b2o
2b2o2b2o2b2o2b2o2b2o146b2o2b2o2b2o2b2o2b2o2b2o2b2o2b2o2b2o2b2o2b2o2b2o
2b2o2b2o2b2o2b2o2b2o2b2o2b2o2b2o2b2o2b2o2b2o2b2o2b2o2b2o2b2o2b2o2b2o2b
2o2b2o2b2o410b2o2b2o2b2o2b2o2b2o2b2o2b2o2b2o2b2o2b2o2b2o2b2o2b2o2b2o2b
2o2b2o2b2o2b2o2b2o2b2o2b2o2b2o2b2o2b2o2b2o2b2o2b2o2b2o2b2o2b2o2b2o2b2o
570bo753bo657b2o47bo4b2o4b3o55bo143b2o24bo883bo657b2o47bo4b2o4b3o55bo
143b2o24bo583bo657b2o47bo4b2o4b3o55bo143b2o24bo$1984b3o1404bo4b2o46bob
ob2o2bo4b3o6b2o46b3o128bo12bo23b4o6b2o2b2o26b2o1495bo4b2o46bobob2o2bo
4b3o6b2o46b3o128bo12bo23b4o6b2o2b2o26b2o1195bo4b2o46bobob2o2bo4b3o6b2o
46b3o128bo12bo23b4o6b2o2b2o26b2o$3385b2ob5o6b2o6b2o34bo3bob3o4b3o7b2o
176b3o10bobo16b2o3bobob2o5b4obo2bobo16b2o4bo1489b2ob5o6b2o6b2o34bo3bob
3o4b3o7b2o176b3o10bobo16b2o3bobob2o5b4obo2bobo16b2o4bo1189b2ob5o6b2o6b
2o34bo3bob3o4b3o7b2o176b3o10bobo16b2o3bobob2o5b4obo2bobo16b2o4bo$2o2b
2o2b2o2b2o2b2o2b2o2b2o2b2o2b2o2b2o2b2o2b2o2b2o2b2o2b2o2b2o2b2o2b2o2b2o
2b2o2b2o2b2o2b2o2b2o2b2o2b2o2b2o2b2o2b2o2b2o2b2o2b2o2b2o2b2o2b2o2b2o2b
2o2b2o2b2o2b2o2b2o2b2o2b2o2b2o2b2o2b2o2b2o2b2o2b2o2b2o2b2o2b2o2b2o2b2o
2b2o2b2o2b2o2b2o2b2o2b2o2b2o2b2o2b2o2b2o2b2o2b2o2b2o2b2o2b2o2b2o2b2o2b
2o2b2o2b2o2b2o2b2o2b2o2b2o2b2o2b2o2b2o2b2o2b2o2b2o2b2o2b2o2b2o2b2o2b2o
2b2o2b2o2b2o2b2o2b2o2b2o2b2o2b2o2b2o2b2o2b2o2b2o2b2o2b2o2b2o2b2o2b2o2b
2o2b2o2b2o2b2o2b2o2b2o2b2o2b2o2b2o2b2o2b2o2b2o2b2o2b2o2b2o2b2o2b2o2b2o
2b2o2b2o2b2o2b2o2b2o2b2o2b2o2b2o2b2o2b2o2b2o2b2o2b2o2b2o2b2o2b2o2b2o2b
2o2b2o2b2o2b2o2b2o2b2o2b2o2b2o2b2o2b2o2b2o146b2o2b2o2b2o2b2o2b2o2b2o2b
2o2b2o2b2o2b2o2b2o2b2o2b2o2b2o2b2o2b2o2b2o2b2o2b2o2b2o2b2o2b2o2b2o2b2o
2b2o2b2o2b2o2b2o2b2o2b2o2b2o2b2o410b2o2b2o2b2o2b2o2b2o2b2o2b2o2b2o2b2o
2b2o2b2o2b2o2b2o2b2o2b2o2b2o2b2o2b2o2b2o2b2o2b2o2b2o2b2o2b2o2b2o2b2o2b
2o2b2o2b2o2b2o2b2o2b2o1970bo4b2o2bo5b3o5b2o34bo3bob2o4bobo176b3o7b3o
10b2o17b2o2bo2bob3o5b2obo3bo3bo14bobo3bobo9bo1476bo4b2o2bo5b3o5b2o34bo
3bob2o4bobo176b3o7b3o10b2o17b2o2bo2bob3o5b2obo3bo3bo14bobo3bobo9bo
1176bo4b2o2bo5b3o5b2o34bo3bob2o4bobo176b3o7b3o10b2o17b2o2bo2bob3o5b2ob
o3bo3bo14bobo3bobo9bo$2o2b2o2b2o2b2o2b2o2b2o2b2o2b2o2b2o2b2o2b2o2b2o2b
2o2b2o2b2o2b2o2b2o2b2o2b2o2b2o2b2o2b2o2b2o2b2o2b2o2b2o2b2o2b2o2b2o2b2o
2b2o2b2o2b2o2b2o2b2o2b2o2b2o2b2o2b2o2b2o2b2o2b2o2b2o2b2o2b2o2b2o2b2o2b
2o2b2o2b2o2b2o2b2o2b2o2b2o2b2o2b2o2b2o2b2o2b2o2b2o2b2o2b2o2b2o2b2o2b2o
2b2o2b2o2b2o2b2o2b2o2b2o2b2o2b2o2b2o2b2o2b2o2b2o2b2o2b2o2b2o2b2o2b2o2b
2o2b2o2b2o2b2o2b2o2b2o2b2o2b2o2b2o2b2o2b2o2b2o2b2o2b2o2b2o2b2o2b2o2b2o
2b2o2b2o2b2o2b2o2b2o2b2o2b2o2b2o2b2o2b2o2b2o2b2o2b2o2b2o2b2o2b2o2b2o2b
2o2b2o2b2o2b2o2b2o2b2o2b2o2b2o2b2o2b2o2b2o2b2o2b2o2b2o2b2o2b2o2b2o2b2o
2b2o2b2o2b2o2b2o2b2o2b2o2b2o2b2o2b2o2b2o2b2o2b2o2b2o2b2o2b2o2b2o2b2o
146b2o2b2o2b2o2b2o2b2o2b2o2b2o2b2o2b2o2b2o2b2o2b2o2b2o2b2o2b2o2b2o2b2o
2b2o2b2o2b2o2b2o2b2o2b2o2b2o2b2o2b2o2b2o2b2o2b2o2b2o2b2o2b2o410b2o2b2o
2b2o2b2o2b2o2b2o2b2o2b2o2b2o2b2o2b2o2b2o2b2o2b2o2b2o2b2o2b2o2b2o2b2o2b
2o2b2o2b2o2b2o2b2o2b2o2b2o2b2o2b2o2b2o2b2o2b2o2b2o1959b2o8bo8b2o5b2o
42bo3b2o6b2o177bo46bobob2o4bo12bo5b2o7bo6b2o8b4o1463b2o8bo8b2o5b2o42bo
3b2o6b2o177bo46bobob2o4bo12bo5b2o7bo6b2o8b4o1163b2o8bo8b2o5b2o42bo3b2o
6b2o177bo46bobob2o4bo12bo5b2o7bo6b2o8b4o$2058bobo670bo641b2o8bo7bo4b2o
36b2o8bobo141bobo44bo46b4o14bo4bo4b2o23b2ob4o5b2o812bo641b2o8bo7bo4b2o
29bobo4b2o8bobo141bobo44bo46b4o14bo4bo4b2o23b2ob4o5b2o512bo641b2o8bo7b
o4b2o36b2o8bobo141bobo44bo46b4o14bo4bo4b2o23b2ob4o5b2o$2059b2o670b2o
631bo18bo12b2o35bobo9bo143b2o53bobo11b2obob2o19bo19bo29b3ob2o3bo3bo2bo
810b2o650bo12b2o29b2o4bobo9bo143b2o53bobo11b2obob2o19bo19bo29b3ob2o3bo
3bo2bo510b2o650bo12b2o35bobo9bo143b2o53bobo11b2obob2o19bo19bo29b3ob2o
3bo3bo2bo$2o2b2o2b2o2b2o2b2o2b2o2b2o2b2o2b2o2b2o2b2o2b2o2b2o2b2o2b2o2b
2o2b2o2b2o2b2o2b2o2b2o2b2o2b2o2b2o2b2o2b2o2b2o2b2o2b2o2b2o2b2o2b2o2b2o
2b2o2b2o2b2o2b2o2b2o2b2o2b2o2b2o2b2o2b2o2b2o2b2o2b2o2b2o2b2o2b2o2b2o2b
2o2b2o2b2o2b2o2b2o2b2o2b2o2b2o2b2o2b2o2b2o2b2o2b2o2b2o2b2o2b2o2b2o2b2o
2b2o2b2o2b2o2b2o2b2o2b2o2b2o2b2o2b2o2b2o2b2o2b2o2b2o2b2o2b2o2b2o2b2o2b
2o2b2o2b2o2b2o2b2o2b2o2b2o2b2o2b2o2b2o2b2o2b2o2b2o2b2o2b2o2b2o2b2o2b2o
2b2o2b2o2b2o2b2o2b2o2b2o2b2o2b2o2b2o2b2o2b2o2b2o2b2o2b2o2b2o2b2o2b2o2b
2o2b2o2b2o2b2o2b2o2b2o2b2o2b2o2b2o2b2o2b2o2b2o2b2o2b2o2b2o2b2o2b2o2b2o
2b2o2b2o2b2o2b2o2b2o2b2o2b2o2b2o2b2o2b2o2b2o2b2o2b2o2b2o146b2o2b2o2b2o
2b2o2b2o2b2o2b2o2b2o2b2o2b2o2b2o2b2o2b2o2b2o2b2o2b2o2b2o2b2o2b2o2b2o2b
2o2b2o2b2o2b2o2b2o2b2o2b2o2b2o2b2o2b2o2b2o2b2o410b2o2b2o2b2o2b2o2b2o2b
2o2b2o2b2o2b2o2b2o2b2o2b2o2b2o2b2o2b2o2b2o2b2o2b2o2b2o2b2o2b2o2b2o2b2o
2b2o2b2o2b2o2b2o2b2o2b2o2b2o2b2o2b2o563bo23b2o35b2o19bo514b2o35b2o117b
obo630b2o19bo48bo73bo23b2o35b2o19bo55bo54bo3bo30b2ob2o3bo7bo6b2o644b2o
35b2o117bobo651bo43bo4bo73bo23b2o35b2o19bo55bo54bo3bo30b2ob2o3bo7bo6b
2o344b2o35b2o117bobo651bo48bo73bo23b2o35b2o19bo55bo54bo3bo30b2ob2o3bo
7bo6b2o$2o2b2o2b2o2b2o2b2o2b2o2b2o2b2o2b2o2b2o2b2o2b2o2b2o2b2o2b2o2b2o
2b2o2b2o2b2o2b2o2b2o2b2o2b2o2b2o2b2o2b2o2b2o2b2o2b2o2b2o2b2o2b2o2b2o2b
2o2b2o2b2o2b2o2b2o2b2o2b2o2b2o2b2o2b2o2b2o2b2o2b2o2b2o2b2o2b2o2b2o2b2o
2b2o2b2o2b2o2b2o2b2o2b2o2b2o2b2o2b2o2b2o2b2o2b2o2b2o2b2o2b2o2b2o2b2o2b
2o2b2o2b2o2b2o2b2o2b2o2b2o2b2o2b2o2b2o2b2o2b2o2b2o2b2o2b2o2b2o2b2o2b2o
2b2o2b2o2b2o2b2o2b2o2b2o2b2o2b2o2b2o2b2o2b2o2b2o2b2o2b2o2b2o2b2o2b2o2b
2o2b2o2b2o2b2o2b2o2b2o2b2o2b2o2b2o2b2o2b2o2b2o2b2o2b2o2b2o2b2o2b2o2b2o
2b2o2b2o2b2o2b2o2b2o2b2o2b2o2b2o2b2o2b2o2b2o2b2o2b2o2b2o2b2o2b2o2b2o2b
2o2b2o2b2o2b2o2b2o2b2o2b2o2b2o2b2o2b2o2b2o2b2o2b2o2b2o146b2o2b2o2b2o2b
2o2b2o2b2o2b2o2b2o2b2o2b2o2b2o2b2o2b2o2b2o2b2o2b2o2b2o2b2o2b2o2b2o2b2o
2b2o2b2o2b2o2b2o2b2o2b2o2b2o2b2o2b2o2b2o2b2o410b2o2b2o2b2o2b2o2b2o2b2o
2b2o2b2o2b2o2b2o2b2o2b2o2b2o2b2o2b2o2b2o2b2o2b2o2b2o2b2o2b2o2b2o2b2o2b
2o2b2o2b2o2b2o2b2o2b2o2b2o2b2o2b2o563bobo21b2o35b2o534b2o35b2o750bobo
19b2o45b2o73bobo21b2o35b2o81bo6bo5bo35bobo33b5o3bo6bo6b2o644b2o35b2o
772b2o45b2o73bobo21b2o35b2o81bo6bo5bo35bobo33b5o3bo6bo6b2o344b2o35b2o
772b2o45b2o73bobo21b2o35b2o81bo6bo5bo35bobo33b5o3bo6bo6b2o$1977b2o
1528b2o140b2o86bo3b3o7bo1585b2o140b2o86bo3b3o7bo1285b2o140b2o86bo3b3o
7bo$1945b2o720b2o806b2o165b2o6b2o7b2ob2o62b3o18bo2bo746b2o806b2o165b2o
6b2o7b2ob2o62b3o18bo2bo446b2o806b2o165b2o6b2o7b2ob2o62b3o18bo2bo$2o2b
2o2b2o2b2o2b2o2b2o2b2o2b2o2b2o2b2o2b2o2b2o2b2o2b2o2b2o2b2o2b2o2b2o2b2o
2b2o2b2o2b2o2b2o2b2o2b2o2b2o2b2o2b2o2b2o2b2o2b2o2b2o2b2o2b2o2b2o2b2o2b
2o2b2o2b2o2b2o2b2o2b2o2b2o2b2o2b2o2b2o2b2o2b2o2b2o2b2o2b2o2b2o2b2o2b2o
2b2o2b2o2b2o2b2o2b2o2b2o2b2o2b2o2b2o2b2o2b2o2b2o2b2o2b2o2b2o2b2o2b2o2b
2o2b2o2b2o2b2o2b2o2b2o2b2o2b2o2b2o2b2o2b2o2b2o2b2o2b2o2b2o2b2o2b2o2b2o
2b2o2b2o2b2o2b2o2b2o2b2o2b2o2b2o2b2o2b2o2b2o2b2o2b2o2b2o2b2o2b2o2b2o2b
2o2b2o2b2o2b2o2b2o2b2o2b2o2b2o2b2o2b2o2b2o2b2o2b2o2b2o2b2o2b2o2b2o2b2o
2b2o2b2o2b2o2b2o2b2o2b2o2b2o2b2o2b2o2b2o2b2o2b2o2b2o2b2o2b2o2b2o2b2o2b
2o2b2o2b2o2b2o2b2o2b2o2b2o2b2o2b2o2b2o2b2o146b2o2b2o2b2o2b2o2b2o2b2o2b
2o2b2o2b2o2b2o2b2o2b2o2b2o2b2o2b2o2b2o2b2o2b2o2b2o2b2o2b2o2b2o2b2o2b2o
2b2o2b2o2b2o2b2o2b2o2b2o2b2o2b2o410b2o2b2o2b2o2b2o2b2o2b2o2b2o2b2o2b2o
2b2o2b2o2b2o2b2o2b2o2b2o2b2o2b2o2b2o2b2o2b2o2b2o2b2o2b2o2b2o2b2o2b2o2b
2o2b2o2b2o2b2o2b2o2b2o531b2o720b2o46bo7bo751b2o165bobo16bo64bo20b2o
748b2o46bo7bo751b2o165bobo16bo64bo20b2o448b2o46bo7bo751b2o165bobo16bo
64bo20b2o$2o2b2o2b2o2b2o2b2o2b2o2b2o2b2o2b2o2b2o2b2o2b2o2b2o2b2o2b2o2b
2o2b2o2b2o2b2o2b2o2b2o2b2o2b2o2b2o2b2o2b2o2b2o2b2o2b2o2b2o2b2o2b2o2b2o
2b2o2b2o2b2o2b2o2b2o2b2o2b2o2b2o2b2o2b2o2b2o2b2o2b2o2b2o2b2o2b2o2b2o2b
2o2b2o2b2o2b2o2b2o2b2o2b2o2b2o2b2o2b2o2b2o2b2o2b2o2b2o2b2o2b2o2b2o2b2o
2b2o2b2o2b2o2b2o2b2o2b2o2b2o2b2o2b2o2b2o2b2o2b2o2b2o2b2o2b2o2b2o2b2o2b
2o2b2o2b2o2b2o2b2o2b2o2b2o2b2o2b2o2b2o2b2o2b2o2b2o2b2o2b2o2b2o2b2o2b2o
2b2o2b2o2b2o2b2o2b2o2b2o2b2o2b2o2b2o2b2o2b2o2b2o2b2o2b2o2b2o2b2o2b2o2b
2o2b2o2b2o2b2o2b2o2b2o2b2o2b2o2b2o2b2o2b2o2b2o2b2o2b2o2b2o2b2o2b2o2b2o
2b2o2b2o2b2o2b2o2b2o2b2o2b2o2b2o2b2o2b2o2b2o2b2o2b2o2b2o146b2o2b2o2b2o
2b2o2b2o2b2o2b2o2b2o2b2o2b2o2b2o2b2o2b2o2b2o2b2o2b2o2b2o2b2o2b2o2b2o2b
2o2b2o2b2o2b2o2b2o2b2o2b2o2b2o2b2o2b2o2b2o2b2o410b2o2b2o2b2o2b2o2b2o2b
2o2b2o2b2o2b2o2b2o2b2o2b2o2b2o2b2o2b2o2b2o2b2o2b2o2b2o2b2o2b2o2b2o2b2o
2b2o2b2o2b2o2b2o2b2o2b2o2b2o2b2o2b2o652bo646bobo5b4o871bo45bo84bo815bo
bo5b4o696bo174bo45bo84bo515bobo5b4o871bo45bo84bo$2067b2o27b2o418b2o
193b2o8b2o2bo2b2o867b2o27b2o107bo610b2o193b2o8b2o2bo2b2o689b2o176b2o
27b2o107bo310b2o193b2o8b2o2bo2b2o867b2o27b2o107bo$1970bo30b3o33b3o26b
2o28b2o418b2o56b3o33b3o92b2o4b2o11b2o2b2o641b2o127bo30b3o33b3o26b2o28b
2o105b2o611b2o56b3o33b3o92b2o4b2o11b2o2b2o690b2o78bo30b3o33b3o26b2o28b
2o105b2o311b2o56b3o33b3o92b2o4b2o11b2o2b2o770bo30b3o33b3o26b2o28b2o
105b2o$2o2b2o2b2o2b2o2b2o2b2o2b2o2b2o2b2o2b2o2b2o2b2o2b2o2b2o2b2o2b2o
2b2o2b2o2b2o2b2o2b2o2b2o2b2o2b2o2b2o2b2o2b2o2b2o2b2o2b2o2b2o2b2o2b2o2b
2o2b2o2b2o2b2o2b2o2b2o2b2o2b2o2b2o2b2o2b2o2b2o2b2o2b2o2b2o2b2o2b2o2b2o
2b2o2b2o2b2o2b2o2b2o2b2o2b2o2b2o2b2o2b2o2b2o2b2o2b2o2b2o2b2o2b2o2b2o2b
2o2b2o2b2o2b2o2b2o2b2o2b2o2b2o2b2o2b2o2b2o2b2o2b2o2b2o2b2o2b2o2b2o2b2o
2b2o2b2o2b2o2b2o2b2o2b2o2b2o2b2o2b2o2b2o2b2o2b2o2b2o2b2o2b2o2b2o2b2o2b
2o2b2o2b2o2b2o2b2o2b2o2b2o2b2o2b2o2b2o2b2o2b2o2b2o2b2o2b2o2b2o2b2o2b2o
2b2o2b2o2b2o2b2o2b2o2b2o2b2o2b2o2b2o2b2o2b2o2b2o2b2o2b2o2b2o2b2o2b2o2b
2o2b2o2b2o2b2o2b2o2b2o2b2o2b2o2b2o2b2o2b2o2b2o2b2o2b2o146b2o2b2o2b2o2b
2o2b2o2b2o2b2o2b2o2b2o2b2o2b2o2b2o2b2o2b2o2b2o2b2o2b2o2b2o2b2o2b2o2b2o
2b2o2b2o2b2o2b2o2b2o2b2o2b2o2b2o2b2o2b2o2b2o410b2o2b2o2b2o2b2o2b2o2b2o
2b2o2b2o2b2o2b2o2b2o2b2o2b2o2b2o2b2o2b2o2b2o2b2o2b2o2b2o2b2o2b2o2b2o2b
2o2b2o2b2o2b2o2b2o2b2o2b2o2b2o2b2o555bo735b2o4b2o7bo10b2o637b2o127bo
145bo88b2o799b2o4b2o7bo10b2o766bo145bo88b2o499b2o4b2o7bo10b2o766bo145b
o88b2o$2o2b2o2b2o2b2o2b2o2b2o2b2o2b2o2b2o2b2o2b2o2b2o2b2o2b2o2b2o2b2o
2b2o2b2o2b2o2b2o2b2o2b2o2b2o2b2o2b2o2b2o2b2o2b2o2b2o2b2o2b2o2b2o2b2o2b
2o2b2o2b2o2b2o2b2o2b2o2b2o2b2o2b2o2b2o2b2o2b2o2b2o2b2o2b2o2b2o2b2o2b2o
2b2o2b2o2b2o2b2o2b2o2b2o2b2o2b2o2b2o2b2o2b2o2b2o2b2o2b2o2b2o2b2o2b2o2b
2o2b2o2b2o2b2o2b2o2b2o2b2o2b2o2b2o2b2o2b2o2b2o2b2o2b2o2b2o2b2o2b2o2b2o
2b2o2b2o2b2o2b2o2b2o2b2o2b2o2b2o2b2o2b2o2b2o2b2o2b2o2b2o2b2o2b2o2b2o2b
2o2b2o2b2o2b2o2b2o2b2o2b2o2b2o2b2o2b2o2b2o2b2o2b2o2b2o2b2o2b2o2b2o2b2o
2b2o2b2o2b2o2b2o2b2o2b2o2b2o2b2o2b2o2b2o2b2o2b2o2b2o2b2o2b2o2b2o2b2o2b
2o2b2o2b2o2b2o2b2o2b2o2b2o2b2o2b2o2b2o2b2o2b2o2b2o2b2o146b2o2b2o2b2o2b
2o2b2o2b2o2b2o2b2o2b2o2b2o2b2o2b2o2b2o2b2o2b2o2b2o2b2o2b2o2b2o2b2o2b2o
2b2o2b2o2b2o2b2o2b2o2b2o2b2o2b2o2b2o2b2o2b2o410b2o2b2o2b2o2b2o2b2o2b2o
2b2o2b2o2b2o2b2o2b2o2b2o2b2o2b2o2b2o2b2o2b2o2b2o2b2o2b2o2b2o2b2o2b2o2b
2o2b2o2b2o2b2o2b2o2b2o2b2o2b2o2b2o555b3o29bobo33bobo534bobo33bobo100bo
bo4bo10b3o638bo126b3o29bobo33bobo74bobo17bo73b2o664bobo33bobo100bobo4b
o10b3o765b3o29bobo33bobo74bobo17bo73b2o364bobo33bobo100bobo4bo10b3o
765b3o29bobo33bobo74bobo17bo73b2o$2000b5o31b5o532b5o31b5o101bo4bo10b2o
797b5o31b5o82b2o7b2ob2o70b2o664b5o31b5o101bo4bo10b2o797b5o31b5o82b2o7b
2ob2o70b2o364b5o31b5o101bo4bo10b2o797b5o31b5o82b2o7b2ob2o70b2o$1946bo
52b2o3b2o29b2o3b2o54bo420bo54b2o3b2o29b2o3b2o52bo60b2o7b2o737bo52b2o3b
2o29b2o3b2o54bo25b2o85bo607bo54b2o3b2o29b2o3b2o52bo60b2o7b2o737bo52b2o
3b2o29b2o3b2o54bo25b2o85bo307bo54b2o3b2o29b2o3b2o52bo60b2o7b2o737bo52b
2o3b2o29b2o3b2o54bo25b2o85bo$2o2b2o2b2o2b2o2b2o2b2o2b2o2b2o2b2o2b2o2b
2o2b2o2b2o2b2o2b2o2b2o2b2o2b2o2b2o2b2o2b2o2b2o2b2o2b2o2b2o2b2o2b2o2b2o
2b2o2b2o2b2o2b2o2b2o2b2o2b2o2b2o2b2o2b2o2b2o2b2o2b2o2b2o2b2o2b2o2b2o2b
2o2b2o2b2o2b2o2b2o2b2o2b2o2b2o2b2o2b2o2b2o2b2o2b2o2b2o2b2o2b2o2b2o2b2o
2b2o2b2o2b2o2b2o2b2o2b2o2b2o2b2o2b2o2b2o2b2o2b2o2b2o2b2o2b2o2b2o2b2o2b
2o2b2o2b2o2b2o2b2o2b2o2b2o2b2o2b2o2b2o2b2o2b2o2b2o2b2o2b2o2b2o2b2o2b2o
2b2o2b2o2b2o2b2o2b2o2b2o2b2o2b2o2b2o2b2o2b2o2b2o2b2o2b2o2b2o2b2o2b2o2b
2o2b2o2b2o2b2o2b2o2b2o2b2o2b2o2b2o2b2o2b2o2b2o2b2o2b2o2b2o2b2o2b2o2b2o
2b2o2b2o2b2o2b2o2b2o2b2o2b2o2b2o2b2o2b2o2b2o2b2o2b2o2b2o2b2o2b2o2b2o2b
2o2b2o146b2o2b2o2b2o2b2o2b2o2b2o2b2o2b2o2b2o2b2o2b2o2b2o2b2o2b2o2b2o2b
2o2b2o2b2o2b2o2b2o2b2o2b2o2b2o2b2o2b2o2b2o2b2o2b2o2b2o2b2o2b2o2b2o410b
2o2b2o2b2o2b2o2b2o2b2o2b2o2b2o2b2o2b2o2b2o2b2o2b2o2b2o2b2o2b2o2b2o2b2o
2b2o2b2o2b2o2b2o2b2o2b2o2b2o2b2o2b2o2b2o2b2o2b2o2b2o2b2o531b3o35b2o14b
2o3b2o29b2o3b2o14b2o37b3o418b3o37b2o14b2o3b2o29b2o3b2o14b2o35b3o59b2o
7bobo735b3o35b2o14b2o3b2o29b2o3b2o14b2o37b3o16b3o7bo6bo5bo678b3o37b2o
14b2o3b2o29b2o3b2o14b2o35b3o59b2o7bobo735b3o35b2o14b2o3b2o29b2o3b2o14b
2o37b3o16b3o7bo6bo5bo378b3o37b2o14b2o3b2o29b2o3b2o14b2o35b3o59b2o7bobo
735b3o35b2o14b2o3b2o29b2o3b2o14b2o37b3o16b3o7bo6bo5bo$2o2b2o2b2o2b2o2b
2o2b2o2b2o2b2o2b2o2b2o2b2o2b2o2b2o2b2o2b2o2b2o2b2o2b2o2b2o2b2o2b2o2b2o
2b2o2b2o2b2o2b2o2b2o2b2o2b2o2b2o2b2o2b2o2b2o2b2o2b2o2b2o2b2o2b2o2b2o2b
2o2b2o2b2o2b2o2b2o2b2o2b2o2b2o2b2o2b2o2b2o2b2o2b2o2b2o2b2o2b2o2b2o2b2o
2b2o2b2o2b2o2b2o2b2o2b2o2b2o2b2o2b2o2b2o2b2o2b2o2b2o2b2o2b2o2b2o2b2o2b
2o2b2o2b2o2b2o2b2o2b2o2b2o2b2o2b2o2b2o2b2o2b2o2b2o2b2o2b2o2b2o2b2o2b2o
2b2o2b2o2b2o2b2o2b2o2b2o2b2o2b2o2b2o2b2o2b2o2b2o2b2o2b2o2b2o2b2o2b2o2b
2o2b2o2b2o2b2o2b2o2b2o2b2o2b2o2b2o2b2o2b2o2b2o2b2o2b2o2b2o2b2o2b2o2b2o
2b2o2b2o2b2o2b2o2b2o2b2o2b2o2b2o2b2o2b2o2b2o2b2o2b2o2b2o2b2o2b2o2b2o2b
2o2b2o2b2o2b2o2b2o2b2o2b2o2b2o146b2o2b2o2b2o2b2o2b2o2b2o2b2o2b2o2b2o2b
2o2b2o2b2o2b2o2b2o2b2o2b2o2b2o2b2o2b2o2b2o2b2o2b2o2b2o2b2o2b2o2b2o2b2o
2b2o2b2o2b2o2b2o2b2o410b2o2b2o2b2o2b2o2b2o2b2o2b2o2b2o2b2o2b2o2b2o2b2o
2b2o2b2o2b2o2b2o2b2o2b2o2b2o2b2o2b2o2b2o2b2o2b2o2b2o2b2o2b2o2b2o2b2o2b
2o2b2o2b2o530b5o34b2o71b2o15bobo18bo3bo416bo3bo36b2o71b2o34b5o69bo734b
5o34b2o71b2o15bobo18bo3bo15b3o87b2o609bo3bo36b2o71b2o34b5o69bo672bobo
59b5o34b2o71b2o15bobo18bo3bo15b3o87b2o309bo3bo36b2o71b2o34b5o69bo734b
5o34b2o71b2o15bobo18bo3bo15b3o87b2o$1943bobobobo124b2o17bob3obo414bob
3obo143bobobobo68b2o638bo93bobobobo124b2o17bob3obo15bo15b2obob2o66b2o
608bob3obo143bobobobo68b2o671b2o59bobobobo124b2o17bob3obo15bo15b2obob
2o66b2o308bob3obo143bobobobo68b2o732bobobobo124b2o17bob3obo15bo15b2obo
b2o66b2o$1943b2o3b2o12bo39b2o33b2o35bo19b5o416b5o55b2o33b2o52b2o3b2o
707b2o93b2o3b2o12bo39b2o33b2o35bo19b5o716b5o55b2o33b2o52b2o3b2o742bo
59b2o3b2o12bo39b2o33b2o35bo19b5o416b5o55b2o33b2o52b2o3b2o802b2o3b2o12b
o39b2o33b2o35bo19b5o$2o2b2o2b2o2b2o2b2o2b2o2b2o2b2o2b2o2b2o2b2o2b2o2b
2o2b2o2b2o2b2o2b2o2b2o2b2o2b2o2b2o2b2o2b2o2b2o2b2o2b2o2b2o2b2o2b2o2b2o
2b2o2b2o2b2o2b2o2b2o2b2o2b2o2b2o2b2o2b2o2b2o2b2o2b2o2b2o2b2o2b2o2b2o2b
2o2b2o2b2o2b2o2b2o2b2o2b2o2b2o2b2o2b2o2b2o2b2o2b2o2b2o2b2o2b2o2b2o2b2o
2b2o2b2o2b2o2b2o2b2o2b2o2b2o2b2o2b2o2b2o2b2o2b2o2b2o2b2o2b2o2b2o2b2o2b
2o2b2o2b2o2b2o2b2o2b2o2b2o2b2o2b2o2b2o2b2o2b2o2b2o2b2o2b2o2b2o2b2o2b2o
2b2o2b2o2b2o2b2o2b2o2b2o2b2o2b2o2b2o2b2o2b2o2b2o2b2o2b2o2b2o2b2o2b2o2b
2o2b2o2b2o2b2o2b2o2b2o2b2o2b2o2b2o2b2o2b2o2b2o2b2o2b2o2b2o2b2o2b2o2b2o
2b2o2b2o2b2o2b2o2b2o2b2o2b2o2b2o2b2o2b2o2b2o2b2o2b2o2b2o2b2o2b2o2b2o
146b2o2b2o2b2o2b2o2b2o2b2o2b2o2b2o2b2o2b2o2b2o2b2o2b2o2b2o2b2o2b2o2b2o
2b2o2b2o2b2o2b2o2b2o2b2o2b2o2b2o2b2o2b2o2b2o2b2o2b2o2b2o2b2o410b2o2b2o
2b2o2b2o2b2o2b2o2b2o2b2o2b2o2b2o2b2o2b2o2b2o2b2o2b2o2b2o2b2o2b2o2b2o2b
2o2b2o2b2o2b2o2b2o2b2o2b2o2b2o2b2o2b2o2b2o2b2o2b2o548bobo35b2ob2o31b2o
b2o532b2ob2o31b2ob2o764bobo111bobo35b2ob2o31b2ob2o175bo656b2ob2o31b2ob
2o878bobo35b2ob2o31b2ob2o175bo356b2ob2o31b2ob2o878bobo35b2ob2o31b2ob2o
175bo$2o2b2o2b2o2b2o2b2o2b2o2b2o2b2o2b2o2b2o2b2o2b2o2b2o2b2o2b2o2b2o2b
2o2b2o2b2o2b2o2b2o2b2o2b2o2b2o2b2o2b2o2b2o2b2o2b2o2b2o2b2o2b2o2b2o2b2o
2b2o2b2o2b2o2b2o2b2o2b2o2b2o2b2o2b2o2b2o2b2o2b2o2b2o2b2o2b2o2b2o2b2o2b
2o2b2o2b2o2b2o2b2o2b2o2b2o2b2o2b2o2b2o2b2o2b2o2b2o2b2o2b2o2b2o2b2o2b2o
2b2o2b2o2b2o2b2o2b2o2b2o2b2o2b2o2b2o2b2o2b2o2b2o2b2o2b2o2b2o2b2o2b2o2b
2o2b2o2b2o2b2o2b2o2b2o2b2o2b2o2b2o2b2o2b2o2b2o2b2o2b2o2b2o2b2o2b2o2b2o
2b2o2b2o2b2o2b2o2b2o2b2o2b2o2b2o2b2o2b2o2b2o2b2o2b2o2b2o2b2o2b2o2b2o2b
2o2b2o2b2o2b2o2b2o2b2o2b2o2b2o2b2o2b2o2b2o2b2o2b2o2b2o2b2o2b2o2b2o2b2o
2b2o2b2o2b2o2b2o2b2o2b2o2b2o2b2o2b2o2b2o2b2o2b2o2b2o146b2o2b2o2b2o2b2o
2b2o2b2o2b2o2b2o2b2o2b2o2b2o2b2o2b2o2b2o2b2o2b2o2b2o2b2o2b2o2b2o2b2o2b
2o2b2o2b2o2b2o2b2o2b2o2b2o2b2o2b2o2b2o2b2o410b2o2b2o2b2o2b2o2b2o2b2o2b
2o2b2o2b2o2b2o2b2o2b2o2b2o2b2o2b2o2b2o2b2o2b2o2b2o2b2o2b2o2b2o2b2o2b2o
2b2o2b2o2b2o2b2o2b2o2b2o2b2o2b2o548b2o36bo2bo33bo2bo532bo2bo33bo2bo
878b2o36bo2bo33bo2bo74bo14b2o83b2o656bo2bo33bo2bo878b2o36bo2bo33bo2bo
74bo14b2o83b2o356bo2bo33bo2bo878b2o36bo2bo33bo2bo74bo14b2o83b2o$1946bo
56bo33bo538bo33bo56bo808bo56bo33bo76b3o13bobo82bobo658bo33bo56bo808bo
56bo33bo76b3o13bobo82bobo358bo33bo56bo808bo56bo33bo76b3o13bobo82bobo$
1945bobo35bo16bo39bo16bo498bo16bo39bo16bo35bobo806bobo35bo16bo39bo16bo
56b3o14bo724bo16bo39bo16bo35bobo806bobo35bo16bo39bo16bo56b3o14bo424bo
16bo39bo16bo35bobo806bobo35bo16bo39bo16bo56b3o14bo$2o2b2o2b2o2b2o2b2o
2b2o2b2o2b2o2b2o2b2o2b2o2b2o2b2o2b2o2b2o2b2o2b2o2b2o2b2o2b2o2b2o2b2o2b
2o2b2o2b2o2b2o2b2o2b2o2b2o2b2o2b2o2b2o2b2o2b2o2b2o2b2o2b2o2b2o2b2o2b2o
2b2o2b2o2b2o2b2o2b2o2b2o2b2o2b2o2b2o2b2o2b2o2b2o2b2o2b2o2b2o2b2o2b2o2b
2o2b2o2b2o2b2o2b2o2b2o2b2o2b2o2b2o2b2o2b2o2b2o2b2o2b2o2b2o2b2o2b2o2b2o
2b2o2b2o2b2o2b2o2b2o2b2o2b2o2b2o2b2o2b2o2b2o2b2o2b2o2b2o2b2o2b2o2b2o2b
2o2b2o2b2o2b2o2b2o2b2o2b2o2b2o2b2o2b2o2b2o2b2o2b2o2b2o2b2o2b2o2b2o2b2o
2b2o2b2o2b2o2b2o2b2o2b2o2b2o2b2o2b2o2b2o2b2o2b2o2b2o2b2o2b2o2b2o2b2o2b
2o2b2o2b2o2b2o2b2o2b2o2b2o2b2o2b2o2b2o2b2o2b2o2b2o2b2o2b2o2b2o2b2o2b2o
2b2o2b2o2b2o2b2o2b2o2b2o2b2o146b2o2b2o2b2o2b2o2b2o2b2o2b2o2b2o2b2o2b2o
2b2o2b2o2b2o2b2o2b2o2b2o2b2o2b2o2b2o2b2o2b2o2b2o2b2o2b2o2b2o2b2o2b2o2b
2o2b2o2b2o2b2o2b2o410b2o2b2o2b2o2b2o2b2o2b2o2b2o2b2o2b2o2b2o2b2o2b2o2b
2o2b2o2b2o2b2o2b2o2b2o2b2o2b2o2b2o2b2o2b2o2b2o2b2o2b2o2b2o2b2o2b2o2b2o
2b2o2b2o530b2obo34b3o16b2o35b2o16b3o22bo473b3o16b2o35b2o16b3o34bob2o
804b2obo34b3o16b2o35b2o16b3o22bo49b2o95b2o625b3o16b2o35b2o16b3o34bob2o
736bo67b2obo34b3o16b2o35b2o16b3o22bo49b2o95b2o325b3o16b2o35b2o16b3o34b
ob2o736bo67b2obo34b3o16b2o35b2o16b3o22bo49b2o95b2o$2o2b2o2b2o2b2o2b2o
2b2o2b2o2b2o2b2o2b2o2b2o2b2o2b2o2b2o2b2o2b2o2b2o2b2o2b2o2b2o2b2o2b2o2b
2o2b2o2b2o2b2o2b2o2b2o2b2o2b2o2b2o2b2o2b2o2b2o2b2o2b2o2b2o2b2o2b2o2b2o
2b2o2b2o2b2o2b2o2b2o2b2o2b2o2b2o2b2o2b2o2b2o2b2o2b2o2b2o2b2o2b2o2b2o2b
2o2b2o2b2o2b2o2b2o2b2o2b2o2b2o2b2o2b2o2b2o2b2o2b2o2b2o2b2o2b2o2b2o2b2o
2b2o2b2o2b2o2b2o2b2o2b2o2b2o2b2o2b2o2b2o2b2o2b2o2b2o2b2o2b2o2b2o2b2o2b
2o2b2o2b2o2b2o2b2o2b2o2b2o2b2o2b2o2b2o2b2o2b2o2b2o2b2o2b2o2b2o2b2o2b2o
2b2o2b2o2b2o2b2o2b2o2b2o2b2o2b2o2b2o2b2o2b2o2b2o2b2o2b2o2b2o2b2o2b2o2b
2o2b2o2b2o2b2o2b2o2b2o2b2o2b2o2b2o2b2o2b2o2b2o2b2o2b2o2b2o2b2o2b2o2b2o
2b2o2b2o2b2o2b2o2b2o2b2o2b2o146b2o2b2o2b2o2b2o2b2o2b2o2b2o2b2o2b2o2b2o
2b2o2b2o2b2o2b2o2b2o2b2o2b2o2b2o2b2o2b2o2b2o2b2o2b2o2b2o2b2o2b2o2b2o2b
2o2b2o2b2o2b2o2b2o410b2o2b2o2b2o2b2o2b2o2b2o2b2o2b2o2b2o2b2o2b2o2b2o2b
2o2b2o2b2o2b2o2b2o2b2o2b2o2b2o2b2o2b2o2b2o2b2o2b2o2b2o2b2o2b2o2b2o2b2o
2b2o2b2o530b3o35b3o71b3o23b2o11bo2b2o414b2o2bo36b3o71b3o35b3o804b3o35b
3o71b3o23b2o11bo2b2o30b3o95bobo583b2o2bo36b3o71b3o35b3o734b2o68b3o35b
3o71b3o23b2o11bo2b2o30b3o95bobo283b2o2bo36b3o71b3o35b3o734b2o68b3o35b
3o71b3o23b2o11bo2b2o30b3o95bobo$1943bo2bo8bo125b2o12bobo418bobo148bo2b
o715b2o85bo2bo8bo125b2o12bobo16bobo13b2o86bo4b2o6bo584bobo148bo2bo734b
2o66bo2bo8bo125b2o12bobo16bobo13b2o86bo4b2o6bo284bobo148bo2bo734b2o66b
o2bo8bo125b2o12bobo16bobo13b2o86bo4b2o6bo$1943b3o8bo25b2o3b2o14b2o3b2o
25b2o3b2o14b2o3b2o33b2o422b2o33b2o3b2o14b2o3b2o25b2o3b2o14b2o3b2o34b3o
714b2o86b3o8bo25b2o3b2o14b2o3b2o25b2o3b2o14b2o3b2o33b2o19bo17bo83bobo
2bo2bo2bo2bo7b2o577b2o33b2o3b2o14b2o3b2o25b2o3b2o14b2o3b2o34b3o802b3o
8bo25b2o3b2o14b2o3b2o25b2o3b2o14b2o3b2o33b2o19bo17bo83bobo2bo2bo2bo2bo
7b2o277b2o33b2o3b2o14b2o3b2o25b2o3b2o14b2o3b2o34b3o802b3o8bo25b2o3b2o
14b2o3b2o25b2o3b2o14b2o3b2o33b2o19bo17bo83bobo2bo2bo2bo2bo7b2o$2o2b2o
2b2o2b2o2b2o2b2o2b2o2b2o2b2o2b2o2b2o2b2o2b2o2b2o2b2o2b2o2b2o2b2o2b2o2b
2o2b2o2b2o2b2o2b2o2b2o2b2o2b2o2b2o2b2o2b2o2b2o2b2o2b2o2b2o2b2o2b2o2b2o
2b2o2b2o2b2o2b2o2b2o2b2o2b2o2b2o2b2o2b2o2b2o2b2o2b2o2b2o2b2o2b2o2b2o2b
2o2b2o2b2o2b2o2b2o2b2o2b2o2b2o2b2o2b2o2b2o2b2o2b2o2b2o2b2o2b2o2b2o2b2o
2b2o2b2o2b2o2b2o2b2o2b2o2b2o2b2o2b2o2b2o2b2o2b2o2b2o2b2o2b2o2b2o2b2o2b
2o2b2o2b2o2b2o2b2o2b2o2b2o2b2o2b2o2b2o2b2o2b2o2b2o2b2o2b2o2b2o2b2o2b2o
2b2o2b2o2b2o2b2o2b2o2b2o2b2o2b2o2b2o2b2o2b2o2b2o2b2o2b2o2b2o2b2o2b2o2b
2o2b2o2b2o2b2o2b2o2b2o2b2o2b2o2b2o2b2o2b2o2b2o2b2o2b2o2b2o2b2o2b2o2b2o
2b2o2b2o2b2o2b2o2b2o2b2o2b2o2b2o2b2o2b2o146b2o2b2o2b2o2b2o2b2o2b2o2b2o
2b2o2b2o2b2o2b2o2b2o2b2o2b2o2b2o2b2o2b2o2b2o2b2o2b2o2b2o2b2o2b2o2b2o2b
2o2b2o2b2o2b2o2b2o2b2o2b2o2b2o410b2o2b2o2b2o2b2o2b2o2b2o2b2o2b2o2b2o2b
2o2b2o2b2o2b2o2b2o2b2o2b2o2b2o2b2o2b2o2b2o2b2o2b2o2b2o2b2o2b2o2b2o2b2o
2b2o2b2o2b2o2b2o2b2o528bo3bo7b3o23b2o3b2o9bo5b5o27b5o5bo9b2o3b2o32b2o
424b2o32b2o3b2o9bo5b5o27b5o5bo9b2o3b2o33bo3bo715bo6b2o76bo3bo7b3o23b2o
3b2o9bo5b5o27b5o5bo9b2o3b2o32b2o122b2obob3o6bo7b2o578b2o32b2o3b2o9bo5b
5o27b5o5bo9b2o3b2o33bo3bo722b2o76bo3bo7b3o23b2o3b2o9bo5b5o27b5o5bo9b2o
3b2o32b2o122b2obob3o6bo7b2o278b2o32b2o3b2o9bo5b5o27b5o5bo9b2o3b2o33bo
3bo722b2o76bo3bo7b3o23b2o3b2o9bo5b5o27b5o5bo9b2o3b2o32b2o122b2obob3o6b
o7b2o$2o2b2o2b2o2b2o2b2o2b2o2b2o2b2o2b2o2b2o2b2o2b2o2b2o2b2o2b2o2b2o2b
2o2b2o2b2o2b2o2b2o2b2o2b2o2b2o2b2o2b2o2b2o2b2o2b2o2b2o2b2o2b2o2b2o2b2o
2b2o2b2o2b2o2b2o2b2o2b2o2b2o2b2o2b2o2b2o2b2o2b2o2b2o2b2o2b2o2b2o2b2o2b
2o2b2o2b2o2b2o2b2o2b2o2b2o2b2o2b2o2b2o2b2o2b2o2b2o2b2o2b2o2b2o2b2o2b2o
2b2o2b2o2b2o2b2o2b2o2b2o2b2o2b2o2b2o2b2o2b2o2b2o2b2o2b2o2b2o2b2o2b2o2b
2o2b2o2b2o2b2o2b2o2b2o2b2o2b2o2b2o2b2o2b2o2b2o2b2o2b2o2b2o2b2o2b2o2b2o
2b2o2b2o2b2o2b2o2b2o2b2o2b2o2b2o2b2o2b2o2b2o2b2o2b2o2b2o2b2o2b2o2b2o2b
2o2b2o2b2o2b2o2b2o2b2o2b2o2b2o2b2o2b2o2b2o2b2o2b2o2b2o2b2o2b2o2b2o2b2o
2b2o2b2o2b2o2b2o2b2o2b2o2b2o2b2o2b2o2b2o2b2o2b2o2b2o146b2o2b2o2b2o2b2o
2b2o2b2o2b2o2b2o2b2o2b2o2b2o2b2o2b2o2b2o2b2o2b2o2b2o2b2o2b2o2b2o2b2o2b
2o2b2o2b2o2b2o2b2o2b2o2b2o2b2o2b2o2b2o2b2o410b2o2b2o2b2o2b2o2b2o2b2o2b
2o2b2o2b2o2b2o2b2o2b2o2b2o2b2o2b2o2b2o2b2o2b2o2b2o2b2o2b2o2b2o2b2o2b2o
2b2o2b2o2b2o2b2o2b2o2b2o2b2o2b2o527bo5bo46b2o7b3o29b3o7b2o46b2obo420bo
b2o46b2o7b3o29b3o7b2o46bo5bo721b2o75bo5bo46b2o7b3o29b3o7b2o46b2obo120b
2ob2o6bobo586bob2o46b2o7b3o29b3o7b2o46bo5bo721b2o75bo5bo46b2o7b3o29b3o
7b2o46b2obo120b2ob2o6bobo286bob2o46b2o7b3o29b3o7b2o46bo5bo721b2o75bo5b
o46b2o7b3o29b3o7b2o46b2obo120b2ob2o6bobo$1942bo3bo5bo42b2o7bo31bo7b2o
48b3o420b3o48b2o7bo31bo7b2o42bo5bo3bo800bo3bo5bo42b2o7bo31bo7b2o48b3o
120b2obo7b2o587b3o48b2o7bo31bo7b2o42bo5bo3bo800bo3bo5bo42b2o7bo31bo7b
2o48b3o120b2obo7b2o287b3o48b2o7bo31bo7b2o42bo5bo3bo800bo3bo5bo42b2o7bo
31bo7b2o48b3o120b2obo7b2o$1943b3o7bo4b2o22b2o73b2o29bo466b2o73b2o22b2o
4bo7b3o802b3o7bo4b2o22b2o73b2o29bo43bo74b2o8bobo635b2o73b2o22b2o4bo7b
3o802b3o7bo4b2o22b2o73b2o29bo43bo74b2o8bobo335b2o73b2o22b2o4bo7b3o802b
3o7bo4b2o22b2o73b2o29bo43bo74b2o8bobo$2o2b2o2b2o2b2o2b2o2b2o2b2o2b2o2b
2o2b2o2b2o2b2o2b2o2b2o2b2o2b2o2b2o2b2o2b2o2b2o2b2o2b2o2b2o2b2o2b2o2b2o
2b2o2b2o2b2o2b2o2b2o2b2o354b2o2b2o2b2o2b2o2b2o2b2o2b2o2b2o2b2o2b2o2b2o
2b2o2b2o2b2o2b2o2b2o2b2o2b2o2b2o2b2o2b2o2b2o2b2o2b2o2b2o2b2o2b2o2b2o2b
2o2b2o2b2o2b2o146b2o2b2o2b2o2b2o2b2o2b2o2b2o2b2o2b2o2b2o2b2o2b2o2b2o2b
2o2b2o2b2o2b2o2b2o2b2o2b2o2b2o2b2o2b2o2b2o2b2o2b2o2b2o2b2o2b2o2b2o2b2o
2b2o410b2o2b2o2b2o2b2o2b2o2b2o2b2o2b2o2b2o2b2o2b2o2b2o2b2o2b2o2b2o2b2o
2b2o2b2o2b2o2b2o2b2o2b2o2b2o2b2o2b2o2b2o2b2o2b2o2b2o2b2o2b2o2b2o537b3o
4b2o22bobo71bobo28bobo465bobo71bobo22b2o4b3o818b3o4b2o22bobo71bobo28bo
bo41b3o72bobo9bo636bobo71bobo22b2o4b3o734bobo81b3o4b2o22bobo71bobo28bo
bo41b3o72bobo9bo336bobo71bobo22b2o4b3o734bobo81b3o4b2o22bobo71bobo28bo
bo41b3o72bobo9bo$2o2b2o2b2o2b2o2b2o2b2o2b2o2b2o2b2o2b2o2b2o2b2o2b2o2b
2o2b2o2b2o2b2o2b2o2b2o2b2o2b2o2b2o2b2o2b2o2b2o2b2o2b2o2b2o2b2o2b2o2b2o
2b2o354b2o2b2o2b2o2b2o2b2o2b2o2b2o2b2o2b2o2b2o2b2o2b2o2b2o2b2o2b2o2b2o
2b2o2b2o2b2o2b2o2b2o2b2o2b2o2b2o2b2o2b2o2b2o2b2o2b2o2b2o2b2o2b2o146b2o
2b2o2b2o2b2o2b2o2b2o2b2o2b2o2b2o2b2o2b2o2b2o2b2o2b2o2b2o2b2o2b2o2b2o2b
2o2b2o2b2o2b2o2b2o2b2o2b2o2b2o2b2o2b2o2b2o2b2o2b2o2b2o410b2o2b2o2b2o2b
2o2b2o2b2o2b2o2b2o2b2o2b2o2b2o2b2o2b2o2b2o2b2o2b2o2b2o2b2o2b2o2b2o2b2o
2b2o2b2o2b2o2b2o2b2o2b2o2b2o2b2o2b2o2b2o2b2o567bo2b2o69b2o2bo24b2o3bo
5b2o3b2o410b2o3b2o35bo2b2o69b2o2bo761bo116bo2b2o69b2o2bo24b2o3bo5b2o3b
2o28b5o71bo605b2o3b2o35bo2b2o69b2o2bo761bob3o112bo2b2o69b2o2bo24b2o3bo
5b2o3b2o28b5o71bo305b2o3b2o35bo2b2o69b2o2bo761bob3o112bo2b2o69b2o2bo
24b2o3bo5b2o3b2o28b5o71bo$1983b2o71b2o25bo14bo416bo13b2o25b2o71b2o762b
2o118b2o71b2o25bo14bo30b2o3b2o69b2o608bo13b2o25b2o71b2o762b2o3bo114b2o
71b2o25bo14bo30b2o3b2o69b2o308bo13b2o25b2o71b2o762b2o3bo114b2o71b2o25b
o14bo30b2o3b2o69b2o$1983b2o71b2o25bo4bo6bo5bo410bo5bo10b2o25b2o71b2o
762bobo117b2o71b2o25bo4bo6bo5bo28b5o677bo5bo10b2o25b2o71b2o762bobo117b
2o71b2o25bo4bo6bo5bo28b5o377bo5bo10b2o25b2o71b2o762bobo117b2o71b2o25bo
4bo6bo5bo28b5o$2o2b2o2b2o2b2o2b2o2b2o2b2o2b2o2b2o2b2o2b2o2b2o2b2o2b2o
2b2o2b2o2b2o2b2o2b2o2b2o2b2o2b2o2b2o2b2o2b2o2b2o2b2o2b2o2b2o2b2o2b2o2b
2o354b2o2b2o2b2o2b2o2b2o2b2o2b2o2b2o2b2o2b2o2b2o2b2o2b2o2b2o2b2o2b2o2b
2o2b2o2b2o2b2o2b2o2b2o2b2o2b2o2b2o2b2o2b2o2b2o2b2o2b2o2b2o2b2o146b2o2b
2o2b2o2b2o2b2o2b2o2b2o2b2o2b2o2b2o2b2o2b2o2b2o2b2o2b2o2b2o2b2o2b2o2b2o
2b2o2b2o2b2o2b2o2b2o2b2o2b2o2b2o2b2o2b2o2b2o2b2o2b2o410b2o2b2o2b2o2b2o
2b2o2b2o2b2o2b2o2b2o2b2o2b2o2b2o2b2o2b2o2b2o2b2o2b2o2b2o2b2o2b2o2b2o2b
2o2b2o2b2o2b2o2b2o2b2o2b2o2b2o2b2o2b2o2b2o570bo71bo27bo4bo6b2ob2o412b
2ob2o6bobo30bo71bo884bo71bo27bo4bo6b2ob2o29bo3bo678b2ob2o6bobo30bo71bo
884bo71bo27bo4bo6b2ob2o29bo3bo378b2ob2o6bobo30bo71bo884bo71bo27bo4bo6b
2ob2o29bo3bo$2o2b2o2b2o2b2o2b2o2b2o2b2o2b2o2b2o2b2o2b2o2b2o2b2o2b2o2b
2o2b2o2b2o2b2o2b2o2b2o2b2o2b2o2b2o2b2o2b2o2b2o2b2o2b2o2b2o2b2o2b2o2b2o
354b2o2b2o2b2o2b2o2b2o2b2o2b2o2b2o2b2o2b2o2b2o2b2o2b2o2b2o2b2o2b2o2b2o
2b2o2b2o2b2o2b2o2b2o2b2o2b2o2b2o2b2o2b2o2b2o2b2o2b2o2b2o2b2o146b2o2b2o
2b2o2b2o2b2o2b2o2b2o2b2o2b2o2b2o2b2o2b2o2b2o2b2o2b2o2b2o2b2o2b2o2b2o2b
2o2b2o2b2o2b2o2b2o2b2o2b2o2b2o2b2o2b2o2b2o2b2o2b2o410b2o2b2o2b2o2b2o2b
2o2b2o2b2o2b2o2b2o2b2o2b2o2b2o2b2o2b2o2b2o2b2o2b2o2b2o2b2o2b2o2b2o2b2o
2b2o2b2o2b2o2b2o2b2o2b2o2b2o2b2o2b2o2b2o575bo61bo35b3o7bobo414bobo8b2o
35bo61bo894bo61bo35b3o7bobo31bobo680bobo8b2o35bo61bo894bo61bo35b3o7bob
o31bobo380bobo8b2o35bo61bo894bo61bo35b3o7bobo31bobo$1948bobo27bo5bo2bo
2bo59bo2bo2bo5bo35bo416bo9bo25bo5bo2bo2bo59bo2bo2bo5bo17bo753b2o69bobo
27bo5bo2bo2bo59bo2bo2bo5bo35bo33bo682bo9bo25bo5bo2bo2bo59bo2bo2bo5bo
17bo732bo20b2o69bobo27bo5bo2bo2bo59bo2bo2bo5bo35bo33bo382bo9bo25bo5bo
2bo2bo59bo2bo2bo5bo17bo732bo20b2o69bobo27bo5bo2bo2bo59bo2bo2bo5bo35bo
33bo$1941b2o5b2o28bo5bo5bo59bo5bo5bo35bo416bo35bo5bo5bo59bo5bo5bo17bob
o15b2o727bob2o3b3o61b2o5b2o28bo5bo5bo59bo5bo5bo35bo716bo35bo5bo5bo59bo
5bo5bo17bobo15b2o713bobo11bob2o3b3o61b2o5b2o28bo5bo5bo59bo5bo5bo35bo
416bo35bo5bo5bo59bo5bo5bo17bobo15b2o713bobo11bob2o3b3o61b2o5b2o28bo5bo
5bo59bo5bo5bo35bo$2o2b2o2b2o2b2o2b2o2b2o2b2o2b2o2b2o2b2o2b2o2b2o2b2o2b
2o2b2o2b2o2b2o2b2o2b2o2b2o2b2o2b2o2b2o2b2o2b2o2b2o2b2o2b2o2b2o2b2o2b2o
2b2o354b2o2b2o2b2o2b2o2b2o2b2o2b2o2b2o2b2o2b2o2b2o2b2o2b2o2b2o2b2o2b2o
2b2o2b2o2b2o2b2o2b2o2b2o2b2o2b2o2b2o2b2o2b2o2b2o2b2o2b2o2b2o2b2o146b2o
2b2o2b2o2b2o2b2o2b2o2b2o2b2o2b2o2b2o2b2o2b2o2b2o2b2o2b2o2b2o2b2o2b2o2b
2o2b2o2b2o2b2o2b2o2b2o2b2o2b2o2b2o2b2o2b2o2b2o2b2o2b2o410b2o2b2o2b2o2b
2o2b2o2b2o2b2o2b2o2b2o2b2o2b2o2b2o2b2o2b2o2b2o2b2o2b2o2b2o2b2o2b2o2b2o
2b2o2b2o2b2o2b2o2b2o2b2o2b2o2b2o2b2o2b2o2b2o528bo6bo29bo3bo3bo2bo59bo
2bo3bo3bo490bo3bo3bo2bo59bo2bo3bo3bo18b2o16bo724bo2bo3bo5b2obo59bo6bo
29bo3bo3bo2bo59bo2bo3bo3bo790bo3bo3bo2bo59bo2bo3bo3bo18b2o16bo714b2o8b
o2bo3bo5b2obo59bo6bo29bo3bo3bo2bo59bo2bo3bo3bo490bo3bo3bo2bo59bo2bo3bo
3bo18b2o16bo714b2o8bo2bo3bo5b2obo59bo6bo29bo3bo3bo2bo59bo2bo3bo3bo$2o
2b2o2b2o2b2o2b2o2b2o2b2o2b2o2b2o2b2o2b2o2b2o2b2o2b2o2b2o2b2o2b2o2b2o2b
2o2b2o2b2o2b2o2b2o2b2o2b2o2b2o2b2o2b2o2b2o2b2o2b2o2b2o354b2o2b2o2b2o2b
2o2b2o2b2o2b2o2b2o2b2o2b2o2b2o2b2o2b2o2b2o2b2o2b2o2b2o2b2o2b2o2b2o2b2o
2b2o2b2o2b2o2b2o2b2o2b2o2b2o2b2o2b2o2b2o2b2o146b2o2b2o2b2o2b2o2b2o2b2o
2b2o2b2o2b2o2b2o2b2o2b2o2b2o2b2o2b2o2b2o2b2o2b2o2b2o2b2o2b2o2b2o2b2o2b
2o2b2o2b2o2b2o2b2o2b2o2b2o2b2o2b2o410b2o2b2o2b2o2b2o2b2o2b2o2b2o2b2o2b
2o2b2o2b2o2b2o2b2o2b2o2b2o2b2o2b2o2b2o2b2o2b2o2b2o2b2o2b2o2b2o2b2o2b2o
2b2o2b2o2b2o2b2o2b2o2b2o525b3o38b3o5b3o59b3o5b3o492b3o5b3o59b3o5b3o38b
3o720b2o2bo4bo4bo2bo5b2o49b3o38b3o5b3o59b3o5b3o70b2o720b3o5b3o59b3o5b
3o38b3o720b2o2bo4bo4bo2bo5b2o49b3o38b3o5b3o59b3o5b3o70b2o420b3o5b3o59b
3o5b3o38b3o720b2o2bo4bo4bo2bo5b2o49b3o38b3o5b3o59b3o5b3o70b2o$1939bo
59b2o39b2o58b2o410b2o58b2o39b2o59bo708b2o9b2o5b4o4b2obo5b2o49bo59b2o
39b2o58b2o29b2o679b2o58b2o39b2o59bo708b2o9b2o5b4o4b2obo5b2o49bo59b2o
39b2o58b2o29b2o379b2o58b2o39b2o59bo708b2o9b2o5b4o4b2obo5b2o49bo59b2o
39b2o58b2o29b2o$1998b2o41b2o53bo3bo412bo18bo38b2o41b2o768bo8b3o7bo3b3o
118b2o41b2o53bo3bo712bo18bo38b2o41b2o768bo8b3o7bo3b3o118b2o41b2o53bo3b
o412bo18bo38b2o41b2o768bo8b3o7bo3b3o118b2o41b2o53bo3bo$2o2b2o2b2o2b2o
2b2o2b2o2b2o2b2o2b2o2b2o2b2o2b2o2b2o2b2o2b2o2b2o2b2o2b2o2b2o2b2o2b2o2b
2o2b2o2b2o2b2o2b2o2b2o2b2o2b2o2b2o2b2o2b2o354b2o2b2o2b2o2b2o2b2o2b2o2b
2o2b2o2b2o2b2o2b2o2b2o2b2o2b2o2b2o2b2o2b2o2b2o2b2o2b2o2b2o2b2o2b2o2b2o
2b2o2b2o2b2o2b2o2b2o2b2o2b2o2b2o146b2o2b2o2b2o2b2o2b2o2b2o2b2o2b2o2b2o
2b2o2b2o2b2o2b2o2b2o2b2o2b2o2b2o2b2o2b2o2b2o2b2o2b2o2b2o2b2o2b2o2b2o2b
2o2b2o2b2o2b2o2b2o2b2o410b2o2b2o2b2o2b2o2b2o2b2o2b2o2b2o2b2o2b2o2b2o2b
2o2b2o2b2o2b2o2b2o2b2o2b2o2b2o2b2o2b2o2b2o2b2o2b2o2b2o2b2o2b2o2b2o2b2o
2b2o2b2o2b2o586bo4b5o21b5o4bo53bobo4b3o406b3o20b2o38bo4b5o21b5o4bo767b
3o10b2o11b2o121bo4b5o21b5o4bo53bobo4b3o706b3o20b2o38bo4b5o21b5o4bo767b
3o10b2o11b2o121bo4b5o21b5o4bo53bobo4b3o406b3o20b2o38bo4b5o21b5o4bo767b
3o10b2o11b2o121bo4b5o21b5o4bo53bobo4b3o$2o2b2o2b2o2b2o2b2o2b2o2b2o2b2o
2b2o2b2o2b2o2b2o2b2o2b2o2b2o2b2o2b2o2b2o2b2o2b2o2b2o2b2o2b2o2b2o2b2o2b
2o2b2o2b2o2b2o2b2o2b2o2b2o354b2o2b2o2b2o2b2o2b2o2b2o2b2o2b2o2b2o2b2o2b
2o2b2o2b2o2b2o2b2o2b2o2b2o2b2o2b2o2b2o2b2o2b2o2b2o2b2o2b2o2b2o2b2o2b2o
2b2o2b2o2b2o2b2o146b2o2b2o2b2o2b2o2b2o2b2o2b2o2b2o2b2o2b2o2b2o2b2o2b2o
2b2o2b2o2b2o2b2o2b2o2b2o2b2o2b2o2b2o2b2o2b2o2b2o2b2o2b2o2b2o2b2o2b2o2b
2o2b2o410b2o2b2o2b2o2b2o2b2o2b2o2b2o2b2o2b2o2b2o2b2o2b2o2b2o2b2o2b2o2b
2o2b2o2b2o2b2o2b2o2b2o2b2o2b2o2b2o2b2o2b2o2b2o2b2o2b2o2b2o2b2o2b2o528b
o61bob3obo19bob3obo58b2o6bo406bo21b2o43bob3obo19bob3obo36bo734bo4b2o7b
2o75bo61bob3obo19bob3obo58b2o6bo706bo21b2o43bob3obo19bob3obo36bo734bo
4b2o7b2o75bo61bob3obo19bob3obo58b2o6bo406bo21b2o43bob3obo19bob3obo36bo
734bo4b2o7b2o75bo61bob3obo19bob3obo58b2o6bo$1940b2o63bo3bo21bo3bo542bo
3bo21bo3bo36bo739bobo8bo73b2o63bo3bo21bo3bo842bo3bo21bo3bo36bo739bobo
8bo73b2o63bo3bo21bo3bo542bo3bo21bo3bo36bo739bobo8bo73b2o63bo3bo21bo3bo
$1941b2o63b3o23b3o544b3o23b3o37b3o737bo85b2o63b3o23b3o844b3o23b3o37b3o
737bo85b2o63b3o23b3o544b3o23b3o37b3o737bo85b2o63b3o23b3o$2o2b2o2b2o2b
2o2b2o2b2o2b2o2b2o2b2o2b2o2b2o2b2o2b2o2b2o2b2o2b2o2b2o2b2o2b2o2b2o2b2o
2b2o2b2o2b2o2b2o2b2o2b2o2b2o2b2o2b2o2b2o2b2o354b2o2b2o2b2o2b2o2b2o2b2o
2b2o2b2o2b2o2b2o2b2o2b2o2b2o2b2o2b2o2b2o2b2o2b2o2b2o2b2o2b2o2b2o2b2o2b
2o2b2o2b2o2b2o2b2o2b2o2b2o2b2o2b2o146b2o2b2o2b2o2b2o2b2o2b2o2b2o2b2o2b
2o2b2o2b2o2b2o2b2o2b2o2b2o2b2o2b2o2b2o2b2o2b2o2b2o2b2o2b2o2b2o2b2o2b2o
2b2o2b2o2b2o2b2o2b2o2b2o410b2o2b2o2b2o2b2o2b2o2b2o2b2o2b2o2b2o2b2o2b2o
2b2o2b2o2b2o2b2o2b2o2b2o2b2o2b2o2b2o2b2o2b2o2b2o2b2o2b2o2b2o2b2o2b2o2b
2o2b2o2b2o2b2o593bo25bo546bo25bo777b2o151bo25bo846bo25bo777b2o151bo25b
o546bo25bo777b2o151bo25bo$2o2b2o2b2o2b2o2b2o2b2o2b2o2b2o2b2o2b2o2b2o2b
2o2b2o2b2o2b2o2b2o2b2o2b2o2b2o2b2o2b2o2b2o2b2o2b2o2b2o2b2o2b2o2b2o2b2o
2b2o2b2o2b2o354b2o2b2o2b2o2b2o2b2o2b2o2b2o2b2o2b2o2b2o2b2o2b2o2b2o2b2o
2b2o2b2o2b2o2b2o2b2o2b2o2b2o2b2o2b2o2b2o2b2o2b2o2b2o2b2o2b2o2b2o2b2o2b
2o146b2o2b2o2b2o2b2o2b2o2b2o2b2o2b2o2b2o2b2o2b2o2b2o2b2o2b2o2b2o2b2o2b
2o2b2o2b2o2b2o2b2o2b2o2b2o2b2o2b2o2b2o2b2o2b2o2b2o2b2o2b2o2b2o410b2o2b
2o2b2o2b2o2b2o2b2o2b2o2b2o2b2o2b2o2b2o2b2o2b2o2b2o2b2o2b2o2b2o2b2o2b2o
2b2o2b2o2b2o2b2o2b2o2b2o2b2o2b2o2b2o2b2o2b2o2b2o2b2o591b2o27b2o542b2o
27b2o926b2o27b2o118b2o722b2o27b2o926b2o27b2o118b2o422b2o27b2o926b2o27b
2o118b2o$1981b2o21bobo27bobo21b2o43bo450b2o21bobo27bobo21b2o878b2o21bo
bo27bobo21b2o43bo51bo698b2o21bobo27bobo21b2o878b2o21bobo27bobo21b2o43b
o51bo398b2o21bobo27bobo21b2o878b2o21bobo27bobo21b2o43bo51bo$1981b2o21b
obo27bobo21b2o44bo434bobo12b2o21bobo27bobo21b2o878b2o21bobo27bobo21b2o
44bo50bobo681bobo12b2o21bobo27bobo21b2o878b2o21bobo27bobo21b2o44bo50bo
bo381bobo12b2o21bobo27bobo21b2o878b2o21bobo27bobo21b2o44bo50bobo$2o2b
2o2b2o2b2o2b2o2b2o2b2o2b2o2b2o2b2o2b2o2b2o2b2o2b2o2b2o2b2o2b2o2b2o2b2o
2b2o2b2o2b2o2b2o2b2o2b2o2b2o2b2o2b2o2b2o2b2o2b2o2b2o354b2o2b2o2b2o2b2o
2b2o2b2o2b2o2b2o2b2o2b2o2b2o2b2o2b2o2b2o2b2o2b2o2b2o2b2o2b2o2b2o2b2o2b
2o2b2o2b2o2b2o2b2o2b2o2b2o2b2o2b2o2b2o2b2o146b2o2b2o2b2o2b2o2b2o2b2o2b
2o2b2o2b2o2b2o2b2o2b2o2b2o2b2o2b2o2b2o2b2o2b2o2b2o2b2o2b2o2b2o2b2o2b2o
2b2o2b2o2b2o2b2o2b2o2b2o2b2o2b2o410b2o2b2o2b2o2b2o2b2o2b2o2b2o2b2o2b2o
2b2o2b2o2b2o2b2o2b2o2b2o2b2o2b2o2b2o2b2o2b2o2b2o2b2o2b2o2b2o2b2o2b2o2b
2o2b2o2b2o2b2o2b2o2b2o575bobo13bo29bo13bobo50b3o435b2o20bobo13bo29bo
13bobo894bobo13bo29bo13bobo50b3o51b2o682b2o20bobo13bo29bo13bobo894bobo
13bo29bo13bobo50b3o51b2o382b2o20bobo13bo29bo13bobo894bobo13bo29bo13bob
o50b3o51b2o$2o2b2o2b2o2b2o2b2o2b2o2b2o2b2o2b2o2b2o2b2o2b2o2b2o2b2o2b2o
2b2o2b2o2b2o2b2o2b2o2b2o2b2o2b2o2b2o2b2o2b2o2b2o2b2o2b2o2b2o2b2o2b2o
354b2o2b2o2b2o2b2o2b2o2b2o2b2o2b2o2b2o2b2o2b2o2b2o2b2o2b2o2b2o2b2o2b2o
2b2o2b2o2b2o2b2o2b2o2b2o2b2o2b2o2b2o2b2o2b2o2b2o2b2o2b2o2b2o146b2o2b2o
2b2o2b2o2b2o2b2o2b2o2b2o2b2o2b2o2b2o2b2o2b2o2b2o2b2o2b2o2b2o2b2o2b2o2b
2o2b2o2b2o2b2o2b2o2b2o2b2o2b2o2b2o2b2o2b2o2b2o2b2o410b2o2b2o2b2o2b2o2b
2o2b2o2b2o2b2o2b2o2b2o2b2o2b2o2b2o2b2o2b2o2b2o2b2o2b2o2b2o2b2o2b2o2b2o
2b2o2b2o2b2o2b2o2b2o2b2o2b2o2b2o2b2o2b2o519bobo52bo63bo487bo20bo63bo
12bo824bobo52bo63bo787bo20bo63bo12bo824bobo52bo63bo487bo20bo63bo12bo
824bobo52bo63bo$1933b2o27b2o24bo63bo30bo446bo30bo63bo12bobo9b2o811b2o
27b2o24bo63bo30bo87b2o657bo30bo63bo12bobo9b2o811b2o27b2o24bo63bo30bo
87b2o357bo30bo63bo12bobo9b2o811b2o27b2o24bo63bo30bo87b2o$1902b2o30bo
27b2o24bo2bo10b2obob2o23b2obob2o10bo2bo28b3o446b3o28bo2bo10b2obob2o23b
2obob2o10bo2bo12b2o10b2o58b2o720b2o30bo27b2o24bo2bo10b2obob2o23b2obob
2o10bo2bo28b3o87b2o657b3o28bo2bo10b2obob2o23b2obob2o10bo2bo12b2o10b2o
58b2o720b2o30bo27b2o24bo2bo10b2obob2o23b2obob2o10bo2bo28b3o87b2o357b3o
28bo2bo10b2obob2o23b2obob2o10bo2bo12b2o10b2o58b2o720b2o30bo27b2o24bo2b
o10b2obob2o23b2obob2o10bo2bo28b3o87b2o$2o2b2o2b2o2b2o2b2o2b2o2b2o2b2o
2b2o2b2o2b2o2b2o2b2o2b2o2b2o2b2o2b2o2b2o2b2o2b2o2b2o2b2o2b2o2b2o2b2o2b
2o2b2o2b2o2b2o2b2o2b2o2b2o354b2o2b2o2b2o2b2o2b2o2b2o2b2o2b2o2b2o2b2o2b
2o2b2o2b2o2b2o2b2o2b2o2b2o2b2o2b2o2b2o2b2o2b2o2b2o2b2o2b2o2b2o2b2o2b2o
2b2o2b2o2b2o2b2o146b2o2b2o2b2o2b2o2b2o2b2o2b2o2b2o2b2o2b2o2b2o2b2o2b2o
2b2o2b2o2b2o2b2o2b2o2b2o2b2o2b2o2b2o2b2o2b2o2b2o2b2o2b2o2b2o2b2o2b2o2b
2o2b2o410b2o2b2o2b2o2b2o2b2o2b2o2b2o2b2o2b2o2b2o2b2o2b2o2b2o2b2o2b2o2b
2o2b2o2b2o2b2o2b2o2b2o2b2o2b2o2b2o2b2o2b2o2b2o2b2o2b2o2b2o2b2o2b2o488b
2o84b3o11bo5bo23bo5bo11b3o27bo452bo27b3o11bo5bo23bo5bo11b3o84b2o720b2o
84b3o11bo5bo23bo5bo11b3o27bo752bo27b3o11bo5bo23bo5bo11b3o84b2o720b2o
84b3o11bo5bo23bo5bo11b3o27bo452bo27b3o11bo5bo23bo5bo11b3o84b2o720b2o
84b3o11bo5bo23bo5bo11b3o27bo$2o2b2o2b2o2b2o2b2o2b2o2b2o2b2o2b2o2b2o2b
2o2b2o2b2o2b2o2b2o2b2o2b2o2b2o2b2o2b2o2b2o2b2o2b2o2b2o2b2o2b2o2b2o2b2o
2b2o2b2o2b2o2b2o354b2o2b2o2b2o2b2o2b2o2b2o2b2o2b2o2b2o2b2o2b2o2b2o2b2o
2b2o2b2o2b2o2b2o2b2o2b2o2b2o2b2o2b2o2b2o2b2o2b2o2b2o2b2o2b2o2b2o2b2o2b
2o2b2o146b2o2b2o2b2o2b2o2b2o2b2o2b2o2b2o2b2o2b2o2b2o2b2o2b2o2b2o2b2o2b
2o2b2o2b2o2b2o2b2o2b2o2b2o2b2o2b2o2b2o2b2o2b2o2b2o2b2o2b2o2b2o2b2o410b
2o2b2o2b2o2b2o2b2o2b2o2b2o2b2o2b2o2b2o2b2o2b2o2b2o2b2o2b2o2b2o2b2o2b2o
2b2o2b2o2b2o2b2o2b2o2b2o2b2o2b2o2b2o2b2o2b2o2b2o2b2o2b2o589bo3bo25bo3b
o42b2o56b2o334b2o56b2o42bo3bo25bo3bo922bo3bo25bo3bo42b2o56b2o634b2o56b
2o42bo3bo25bo3bo922bo3bo25bo3bo42b2o56b2o334b2o56b2o42bo3bo25bo3bo922b
o3bo25bo3bo42b2o56b2o$2004b3o27b3o74bo25bo2bo332bo2bo70bo29b3o27b3o
924b3o27b3o74bo25bo2bo13b2o617bo2bo70bo29b3o27b3o924b3o27b3o74bo25bo2b
o13b2o317bo2bo70bo29b3o27b3o924b3o27b3o74bo25bo2bo13b2o$2109bobo25bo
338bo71b2o1089bobo25bo16b2o5b2o613bo71b2o1089bobo25bo16b2o5b2o313bo71b
2o1089bobo25bo16b2o5b2o$2o2b2o2b2o2b2o2b2o2b2o2b2o2b2o2b2o2b2o2b2o2b2o
2b2o2b2o2b2o2b2o2b2o2b2o2b2o2b2o2b2o2b2o2b2o2b2o2b2o2b2o2b2o2b2o2b2o2b
2o2b2o2b2o354b2o2b2o2b2o2b2o2b2o2b2o2b2o2b2o2b2o2b2o2b2o2b2o2b2o2b2o2b
2o2b2o2b2o2b2o2b2o2b2o2b2o2b2o2b2o2b2o2b2o2b2o2b2o2b2o2b2o2b2o2b2o2b2o
146b2o2b2o2b2o2b2o2b2o2b2o2b2o2b2o2b2o2b2o2b2o2b2o2b2o2b2o2b2o2b2o2b2o
2b2o2b2o2b2o2b2o2b2o2b2o2b2o2b2o2b2o2b2o2b2o2b2o2b2o2b2o2b2o410b2o2b2o
2b2o2b2o2b2o2b2o2b2o2b2o2b2o2b2o2b2o2b2o2b2o2b2o2b2o2b2o2b2o2b2o2b2o2b
2o2b2o2b2o2b2o2b2o2b2o2b2o2b2o2b2o2b2o2b2o2b2o2b2o513bo182b2o25bo338bo
70b2o82bo825bo182b2o25bo23b2o613bo70b2o82bo825bo182b2o25bo23b2o313bo
70b2o82bo825bo182b2o25bo23b2o$2o2b2o2b2o2b2o2b2o2b2o2b2o2b2o2b2o2b2o2b
2o2b2o2b2o2b2o2b2o2b2o2b2o2b2o2b2o2b2o2b2o2b2o2b2o2b2o2b2o2b2o2b2o2b2o
2b2o2b2o2b2o2b2o354b2o2b2o2b2o2b2o2b2o2b2o2b2o2b2o2b2o2b2o2b2o2b2o2b2o
2b2o2b2o2b2o2b2o2b2o2b2o2b2o2b2o2b2o2b2o2b2o2b2o2b2o2b2o2b2o2b2o2b2o2b
2o2b2o146b2o2b2o2b2o2b2o2b2o2b2o2b2o2b2o2b2o2b2o2b2o2b2o2b2o2b2o2b2o2b
2o2b2o2b2o2b2o2b2o2b2o2b2o2b2o2b2o2b2o2b2o2b2o2b2o2b2o2b2o2b2o2b2o410b
2o2b2o2b2o2b2o2b2o2b2o2b2o2b2o2b2o2b2o2b2o2b2o2b2o2b2o2b2o2b2o2b2o2b2o
2b2o2b2o2b2o2b2o2b2o2b2o2b2o2b2o2b2o2b2o2b2o2b2o2b2o2b2o511b2o35b3o
112b3o57bobo334bobo57b3o93bo18b3o803b2o35b3o112b3o57bobo634bobo57b3o
93bo18b3o803b2o35b3o112b3o57bobo334bobo57b3o93bo18b3o803b2o35b3o112b3o
57bobo$1902b3o21b2o209bobo334bobo153b3o76b3o720b3o21b2o209bobo27bo606b
obo153b3o76b3o720b3o21b2o209bobo27bo306bobo153b3o76b3o720b3o21b2o209bo
bo27bo$1962bobo112bobo58bo336bo58bobo112bobo840bobo112bobo58bo27bobo
606bo58bobo112bobo840bobo112bobo58bo27bobo306bo58bobo112bobo840bobo
112bobo58bo27bobo$2o2b2o2b2o2b2o2b2o2b2o2b2o2b2o2b2o2b2o2b2o2b2o2b2o2b
2o2b2o2b2o2b2o2b2o2b2o2b2o2b2o2b2o2b2o2b2o2b2o2b2o2b2o2b2o2b2o2b2o2b2o
2b2o354b2o2b2o2b2o2b2o2b2o2b2o2b2o2b2o2b2o2b2o2b2o2b2o2b2o2b2o2b2o2b2o
2b2o2b2o2b2o2b2o2b2o2b2o2b2o2b2o2b2o2b2o2b2o2b2o2b2o2b2o2b2o2b2o146b2o
2b2o2b2o2b2o2b2o2b2o2b2o2b2o2b2o2b2o2b2o2b2o2b2o2b2o2b2o2b2o2b2o2b2o2b
2o2b2o2b2o2b2o2b2o2b2o2b2o2b2o2b2o2b2o2b2o2b2o2b2o2b2o410b2o2b2o2b2o2b
2o2b2o2b2o2b2o2b2o2b2o2b2o2b2o2b2o2b2o2b2o2b2o2b2o2b2o2b2o2b2o2b2o2b2o
2b2o2b2o2b2o2b2o2b2o2b2o2b2o2b2o2b2o2b2o2b2o488bobo56b5o110b5o452b5o
110b5o56bobo720bobo56b5o110b5o78b2o6b2o664b5o110b5o56bobo720bobo56b5o
110b5o78b2o6b2o364b5o110b5o56bobo720bobo56b5o110b5o78b2o6b2o$2o2b2o2b
2o2b2o2b2o2b2o2b2o2b2o2b2o2b2o2b2o2b2o2b2o2b2o2b2o2b2o2b2o2b2o2b2o2b2o
2b2o2b2o2b2o2b2o2b2o2b2o2b2o2b2o2b2o2b2o2b2o2b2o354b2o2b2o2b2o2b2o2b2o
2b2o2b2o2b2o2b2o2b2o2b2o2b2o2b2o2b2o2b2o2b2o2b2o2b2o2b2o2b2o2b2o2b2o2b
2o2b2o2b2o2b2o2b2o2b2o2b2o2b2o2b2o2b2o146b2o2b2o2b2o2b2o2b2o2b2o2b2o2b
2o2b2o2b2o2b2o2b2o2b2o2b2o2b2o2b2o2b2o2b2o2b2o2b2o2b2o2b2o2b2o2b2o2b2o
2b2o2b2o2b2o2b2o2b2o2b2o2b2o410b2o2b2o2b2o2b2o2b2o2b2o2b2o2b2o2b2o2b2o
2b2o2b2o2b2o2b2o2b2o2b2o2b2o2b2o2b2o2b2o2b2o2b2o2b2o2b2o2b2o2b2o2b2o2b
2o2b2o2b2o2b2o2b2o487b5o54b2o3b2o108b2o3b2o36bo413b2o3b2o108b2o3b2o54b
5o718b5o54b2o3b2o108b2o3b2o36bo41bo671b2o3b2o108b2o3b2o54b5o718b5o54b
2o3b2o108b2o3b2o36bo41bo371b2o3b2o108b2o3b2o54b5o718b5o54b2o3b2o108b2o
3b2o36bo41bo$1900b2o3b2o37b2o14b2o3b2o37b2o29b2o38b2o3b2o14b2o21bo15b
2o3b2o330b2o3b2o37b2o14b2o3b2o15bobo20b2o29b2o37b2o3b2o14b2o37b2o3b2o
716b2o3b2o37b2o14b2o3b2o37b2o29b2o38b2o3b2o14b2o21bo15b2o3b2o15b3o612b
2o3b2o37b2o14b2o3b2o15bobo20b2o29b2o37b2o3b2o14b2o37b2o3b2o716b2o3b2o
37b2o14b2o3b2o37b2o29b2o38b2o3b2o14b2o21bo15b2o3b2o15b3o312b2o3b2o37b
2o14b2o3b2o15bobo20b2o29b2o37b2o3b2o14b2o37b2o3b2o716b2o3b2o37b2o14b2o
3b2o37b2o29b2o38b2o3b2o14b2o21bo15b2o3b2o15b3o$1900b2o3b2o37b2o41bobo
14b2o29b2o14bobo42b2o19b3o15bo5bo330bo5bo37b2o37b2o3bobo14b2o29b2o58b
2o37b2o3b2o716b2o3b2o37b2o41bobo14b2o29b2o14bobo42b2o19b3o15bo5bo15bo
614bo5bo37b2o37b2o3bobo14b2o29b2o58b2o37b2o3b2o716b2o3b2o37b2o41bobo
14b2o29b2o14bobo42b2o19b3o15bo5bo15bo314bo5bo37b2o37b2o3bobo14b2o29b2o
14bobo41b2o37b2o3b2o716b2o3b2o37b2o41bobo14b2o29b2o14bobo42b2o19b3o15b
o5bo15bo$2o2b2o2b2o2b2o2b2o2b2o2b2o2b2o2b2o2b2o2b2o2b2o2b2o2b2o2b2o2b
2o2b2o2b2o2b2o2b2o2b2o2b2o2b2o2b2o2b2o2b2o2b2o2b2o2b2o2b2o2b2o2b2o354b
2o2b2o2b2o2b2o2b2o2b2o2b2o2b2o2b2o2b2o2b2o2b2o2b2o2b2o2b2o2b2o2b2o2b2o
2b2o2b2o2b2o2b2o2b2o2b2o2b2o2b2o2b2o2b2o2b2o2b2o2b2o2b2o146b2o2b2o2b2o
2b2o2b2o2b2o2b2o2b2o2b2o2b2o2b2o2b2o2b2o2b2o2b2o2b2o2b2o2b2o2b2o2b2o2b
2o2b2o2b2o2b2o2b2o2b2o2b2o2b2o2b2o2b2o2b2o2b2o410b2o2b2o2b2o2b2o2b2o2b
2o2b2o2b2o2b2o2b2o2b2o2b2o2b2o2b2o2b2o2b2o2b2o2b2o2b2o2b2o2b2o2b2o2b2o
2b2o2b2o2b2o2b2o2b2o2b2o2b2o2b2o2b2o504bobo69bo59bo504bo7bo884bobo69bo
59bo804bo7bo884bobo69bo59bo504bo7bo59bo69bobo752bobo69bo59bo$2o2b2o2b
2o2b2o2b2o2b2o2b2o2b2o2b2o2b2o2b2o2b2o2b2o2b2o2b2o2b2o2b2o2b2o2b2o2b2o
2b2o2b2o2b2o2b2o2b2o2b2o2b2o2b2o2b2o2b2o2b2o2b2o354b2o2b2o2b2o2b2o2b2o
2b2o2b2o2b2o2b2o2b2o2b2o2b2o2b2o2b2o2b2o2b2o2b2o2b2o2b2o2b2o2b2o2b2o2b
2o2b2o2b2o2b2o2b2o2b2o2b2o2b2o2b2o2b2o146b2o2b2o2b2o2b2o2b2o2b2o2b2o2b
2o2b2o2b2o2b2o2b2o2b2o2b2o2b2o2b2o2b2o2b2o2b2o2b2o2b2o2b2o2b2o2b2o2b2o
2b2o2b2o2b2o2b2o2b2o2b2o2b2o410b2o2b2o2b2o2b2o2b2o2b2o2b2o2b2o2b2o2b2o
2b2o2b2o2b2o2b2o2b2o2b2o2b2o2b2o2b2o2b2o2b2o2b2o2b2o2b2o2b2o2b2o2b2o2b
2o2b2o2b2o2b2o2b2o504b2o43b2o25bo59bo26b2o57bo3bo332bo3bo57b2o26bo85b
2o797b2o43b2o25bo59bo26b2o57bo3bo632bo3bo57b2o26bo85b2o797b2o43b2o25bo
59bo26b2o57bo3bo332bo3bo57b2o26bo59bo25b2o43b2o752b2o43b2o25bo59bo26b
2o57bo3bo$1902b2o15bo41b2ob2o21bo2bo22bo13bo22bo2bo22b2ob2o56b3o334b3o
56b2ob2o22bo2bo22bo13bo47b2ob2o57b2o720b2o15bo41b2ob2o21bo2bo22bo13bo
22bo2bo22b2ob2o56b3o634b3o56b2ob2o22bo2bo22bo13bo47b2ob2o57b2o720b2o
15bo41b2ob2o21bo2bo22bo13bo22bo2bo22b2ob2o56b3o334b3o56b2ob2o22bo2bo
22bo13bo22bo2bo21b2ob2o41bo15b2o720b2o15bo41b2ob2o21bo2bo22bo13bo22bo
2bo22b2ob2o56b3o$1901b2ob2o55bo2bo23b3o20b3o13b3o20b3o24bo2bo452bo2bo
24b3o20b3o13b3o46bo2bo55b2ob2o718b2ob2o55bo2bo23b3o20b3o13b3o20b3o24bo
2bo752bo2bo24b3o20b3o13b3o46bo2bo55b2ob2o718b2ob2o55bo2bo23b3o20b3o13b
3o20b3o24bo2bo452bo2bo24b3o20b3o13b3o20b3o23bo2bo55b2ob2o718b2ob2o55bo
2bo23b3o20b3o13b3o20b3o24bo2bo$2o2b2o2b2o2b2o2b2o2b2o2b2o2b2o2b2o2b2o
2b2o2b2o2b2o2b2o2b2o2b2o2b2o2b2o2b2o2b2o2b2o2b2o2b2o2b2o2b2o2b2o2b2o2b
2o2b2o2b2o2b2o2b2o354b2o2b2o2b2o2b2o2b2o2b2o2b2o2b2o2b2o2b2o2b2o2b2o2b
2o2b2o2b2o2b2o2b2o2b2o2b2o2b2o2b2o2b2o2b2o2b2o2b2o2b2o2b2o2b2o2b2o2b2o
2b2o2b2o146b2o2b2o2b2o2b2o2b2o2b2o2b2o2b2o2b2o2b2o2b2o2b2o2b2o2b2o2b2o
2b2o2b2o2b2o2b2o2b2o2b2o2b2o2b2o2b2o2b2o2b2o2b2o2b2o2b2o2b2o2b2o2b2o
410b2o2b2o2b2o2b2o2b2o2b2o2b2o2b2o2b2o2b2o2b2o2b2o2b2o2b2o2b2o2b2o2b2o
2b2o2b2o2b2o2b2o2b2o2b2o2b2o2b2o2b2o2b2o2b2o2b2o2b2o2b2o2b2o488bo2bo
58bo45bo19bo46bo458bo46bo19bo45bo58bo2bo720bo2bo58bo45bo19bo46bo758bo
46bo19bo45bo58bo2bo720bo2bo58bo45bo19bo46bo458bo46bo19bo45bo58bo2bo
720bo2bo58bo45bo19bo46bo$2o2b2o2b2o2b2o2b2o2b2o2b2o2b2o2b2o2b2o2b2o2b
2o2b2o2b2o2b2o2b2o2b2o2b2o2b2o2b2o2b2o2b2o2b2o2b2o2b2o2b2o2b2o2b2o2b2o
2b2o2b2o2b2o354b2o2b2o2b2o2b2o2b2o2b2o2b2o2b2o2b2o2b2o2b2o2b2o2b2o2b2o
2b2o2b2o2b2o2b2o2b2o2b2o2b2o2b2o2b2o2b2o2b2o2b2o2b2o2b2o2b2o2b2o2b2o2b
2o146b2o2b2o2b2o2b2o2b2o2b2o2b2o2b2o2b2o2b2o2b2o2b2o2b2o2b2o2b2o2b2o2b
2o2b2o2b2o2b2o2b2o2b2o2b2o2b2o2b2o2b2o2b2o2b2o2b2o2b2o2b2o2b2o410b2o2b
2o2b2o2b2o2b2o2b2o2b2o2b2o2b2o2b2o2b2o2b2o2b2o2b2o2b2o2b2o2b2o2b2o2b2o
2b2o2b2o2b2o2b2o2b2o2b2o2b2o2b2o2b2o2b2o2b2o2b2o2b2o488bo41bo16bo48b2o
17b2o49bo16bo28bo389bo16bo28bo20b2o17b2o48bo16bo41bo720bo41bo16bo48b2o
17b2o49bo16bo28bo689bo16bo28bo20b2o17b2o48bo16bo41bo720bo41bo16bo48b2o
17b2o49bo16bo28bo360bo28bo16bo49b2o17b2o48bo16bo41bo720bo41bo16bo48b2o
17b2o49bo16bo28bo$1905bo37b3o16b2o114b2o16b3o25bobo388b3o16b2o27b2o85b
2o16b3o37bo726bo37b3o16b2o114b2o16b3o25bobo688b3o16b2o27b2o85b2o16b3o
37bo726bo37b3o16b2o114b2o16b3o25bobo360bobo25b3o16b2o114b2o16b3o37bo
726bo37b3o16b2o114b2o16b3o25bobo$1903b2o7bo30b3o150b3o26b2o388b3o44b2o
104b3o38b2o722b2o7bo30b3o150b3o26b2o688b3o44b2o104b3o38b2o722b2o7bo30b
3o150b3o26b2o360b2o26b3o150b3o30bo7b2o722b2o7bo30b3o150b3o26b2o$2o2b2o
2b2o2b2o2b2o2b2o2b2o2b2o2b2o2b2o2b2o2b2o2b2o2b2o2b2o2b2o2b2o2b2o2b2o2b
2o2b2o2b2o2b2o2b2o2b2o2b2o2b2o2b2o2b2o2b2o2b2o2b2o354b2o2b2o2b2o2b2o2b
2o2b2o2b2o2b2o2b2o2b2o2b2o2b2o2b2o2b2o2b2o2b2o2b2o2b2o2b2o2b2o2b2o2b2o
2b2o2b2o2b2o2b2o2b2o2b2o2b2o2b2o2b2o2b2o146b2o2b2o2b2o2b2o2b2o2b2o2b2o
2b2o2b2o2b2o2b2o2b2o2b2o2b2o2b2o2b2o2b2o2b2o2b2o2b2o2b2o2b2o2b2o2b2o2b
2o2b2o2b2o2b2o2b2o2b2o2b2o2b2o410b2o2b2o2b2o2b2o2b2o2b2o2b2o2b2o2b2o2b
2o2b2o2b2o2b2o2b2o2b2o2b2o2b2o2b2o2b2o2b2o2b2o2b2o2b2o2b2o2b2o2b2o2b2o
2b2o2b2o2b2o2b2o2b2o496b2o1528b2o1828b2o790b2o736b2o$2o2b2o2b2o2b2o2b
2o2b2o2b2o2b2o2b2o2b2o2b2o2b2o2b2o2b2o2b2o2b2o2b2o2b2o2b2o2b2o2b2o2b2o
2b2o2b2o2b2o2b2o2b2o2b2o2b2o2b2o2b2o2b2o354b2o2b2o2b2o2b2o2b2o2b2o2b2o
2b2o2b2o2b2o2b2o2b2o2b2o2b2o2b2o2b2o2b2o2b2o2b2o2b2o2b2o2b2o2b2o2b2o2b
2o2b2o2b2o2b2o2b2o2b2o2b2o2b2o146b2o2b2o2b2o2b2o2b2o2b2o2b2o2b2o2b2o2b
2o2b2o2b2o2b2o2b2o2b2o2b2o2b2o2b2o2b2o2b2o2b2o2b2o2b2o2b2o2b2o2b2o2b2o
2b2o2b2o2b2o2b2o2b2o410b2o2b2o2b2o2b2o2b2o2b2o2b2o2b2o2b2o2b2o2b2o2b2o
2b2o2b2o2b2o2b2o2b2o2b2o2b2o2b2o2b2o2b2o2b2o2b2o2b2o2b2o2b2o2b2o2b2o2b
2o2b2o2b2o497b2o28b2o3b2o14b2o3b2o104b2o3b2o14b2o3b2o34bo342bo34b2o3b
2o14b2o3b2o104b2o3b2o14b2o3b2o768b2o28b2o3b2o14b2o3b2o104b2o3b2o14b2o
3b2o34bo642bo34b2o3b2o14b2o3b2o104b2o3b2o14b2o3b2o768b2o28b2o3b2o14b2o
3b2o104b2o3b2o14b2o3b2o34bo342bo34b2o3b2o14b2o3b2o104b2o3b2o14b2o3b2o
28b2o738b2o28b2o3b2o14b2o3b2o104b2o3b2o14b2o3b2o34bo$1898b2o3b2o6bo29b
2o3b2o9bo5b5o106b5o5bo9b2o3b2o34bobo338bobo34b2o3b2o9bo5b5o106b5o5bo9b
2o3b2o36b2o3b2o712b2o3b2o6bo29b2o3b2o9bo5b5o106b5o5bo9b2o3b2o34bobo
638bobo34b2o3b2o9bo5b5o106b5o5bo9b2o3b2o36b2o3b2o712b2o3b2o6bo29b2o3b
2o9bo5b5o106b5o5bo9b2o3b2o34bobo338bobo34b2o3b2o9bo5b5o106b5o5bo9b2o3b
2o29bo6b2o3b2o712b2o3b2o6bo29b2o3b2o9bo5b5o106b5o5bo9b2o3b2o34bobo$
1899b5o5bo5b2o38b2o7b3o108b3o7b2o48b2o340b2o48b2o7b3o108b3o7b2o38b2o5b
o5b5o714b5o5bo5b2o38b2o7b3o108b3o7b2o48b2o640b2o48b2o7b3o108b3o7b2o38b
2o5bo5b5o714b5o5bo5b2o38b2o7b3o108b3o7b2o48b2o340b2o48b2o7b3o108b3o7b
2o38b2o5bo5b5o714b5o5bo5b2o38b2o7b3o108b3o7b2o48b2o$2o2b2o2b2o2b2o2b2o
2b2o2b2o2b2o2b2o2b2o2b2o2b2o2b2o2b2o2b2o2b2o2b2o2b2o2b2o2b2o2b2o2b2o2b
2o2b2o2b2o2b2o2b2o2b2o2b2o2b2o2b2o2b2o354b2o2b2o2b2o2b2o2b2o2b2o2b2o2b
2o2b2o2b2o2b2o2b2o2b2o2b2o2b2o2b2o2b2o2b2o2b2o2b2o2b2o2b2o2b2o2b2o2b2o
2b2o2b2o2b2o2b2o2b2o2b2o2b2o146b2o2b2o2b2o2b2o2b2o2b2o2b2o2b2o2b2o2b2o
2b2o2b2o2b2o2b2o2b2o2b2o2b2o2b2o2b2o2b2o2b2o2b2o2b2o2b2o2b2o2b2o2b2o2b
2o2b2o2b2o2b2o2b2o410b2o2b2o2b2o2b2o2b2o2b2o2b2o2b2o2b2o2b2o2b2o2b2o2b
2o2b2o2b2o2b2o2b2o2b2o2b2o2b2o2b2o2b2o2b2o2b2o2b2o2b2o2b2o2b2o2b2o2b2o
2b2o2b2o486b3o7b2o3b2o39b2o7bo41b3o21b3o42bo7b2o442b2o7bo110bo7b2o39b
2o3b2o7b3o716b3o7b2o3b2o39b2o7bo41b3o21b3o42bo7b2o742b2o7bo110bo7b2o
39b2o3b2o7b3o716b3o7b2o3b2o39b2o7bo41b3o21b3o42bo7b2o442b2o7bo42b3o21b
3o41bo7b2o39b2o3b2o7b3o716b3o7b2o3b2o39b2o7bo41b3o21b3o42bo7b2o$2o2b2o
2b2o2b2o2b2o2b2o2b2o2b2o2b2o2b2o2b2o2b2o2b2o2b2o2b2o2b2o2b2o2b2o2b2o2b
2o2b2o2b2o2b2o2b2o2b2o2b2o2b2o2b2o2b2o2b2o2b2o2b2o354b2o2b2o2b2o2b2o2b
2o2b2o2b2o2b2o2b2o2b2o2b2o2b2o2b2o2b2o2b2o2b2o2b2o2b2o2b2o2b2o2b2o2b2o
2b2o2b2o2b2o2b2o2b2o2b2o2b2o2b2o2b2o2b2o146b2o2b2o2b2o2b2o2b2o2b2o2b2o
2b2o2b2o2b2o2b2o2b2o2b2o2b2o2b2o2b2o2b2o2b2o2b2o2b2o2b2o2b2o2b2o2b2o2b
2o2b2o2b2o2b2o2b2o2b2o2b2o2b2o410b2o2b2o2b2o2b2o2b2o2b2o2b2o2b2o2b2o2b
2o2b2o2b2o2b2o2b2o2b2o2b2o2b2o2b2o2b2o2b2o2b2o2b2o2b2o2b2o2b2o2b2o2b2o
2b2o2b2o2b2o2b2o2b2o487bo7b2o32b2o61bo2bo21bo2bo62b2o26b2o13bo332bo13b
2o26b2o152b2o32b2o7bo718bo7b2o32b2o61bo2bo21bo2bo62b2o26b2o13bo632bo
13b2o26b2o152b2o32b2o7bo718bo7b2o32b2o61bo2bo21bo2bo62b2o26b2o13bo332b
o13b2o26b2o62bo2bo21bo2bo61b2o32b2o7bo718bo7b2o32b2o61bo2bo21bo2bo62b
2o26b2o13bo$1943bobo43bobo17bo21bo17bobo44bobo26b2o12b3o330b3o12b2o26b
obo150bobo802bobo43bobo17bo21bo17bobo44bobo26b2o12b3o630b3o12b2o26bobo
150bobo802bobo43bobo17bo21bo17bobo44bobo26b2o12b3o330b3o12b2o26bobo44b
obo17bo21bo17bobo43bobo802bobo43bobo17bo21bo17bobo44bobo26b2o12b3o$
1942bo2b2o41bo20bo21bo20bo42b2o2bo38b5o328b5o38bo2b2o148b2o2bo800bo2b
2o41bo20bo21bo20bo42b2o2bo38b5o628b5o38bo2b2o148b2o2bo800bo2b2o41bo20b
o21bo20bo42b2o2bo38b5o328b5o38bo2b2o42bo20bo21bo20bo41b2o2bo800bo2b2o
41bo20bo21bo20bo42b2o2bo38b5o$2o2b2o2b2o2b2o2b2o2b2o2b2o2b2o2b2o2b2o2b
2o2b2o2b2o2b2o2b2o2b2o2b2o2b2o2b2o2b2o2b2o2b2o2b2o2b2o2b2o2b2o2b2o2b2o
2b2o2b2o2b2o2b2o354b2o2b2o2b2o2b2o2b2o2b2o2b2o2b2o2b2o2b2o2b2o2b2o2b2o
2b2o2b2o2b2o2b2o2b2o2b2o2b2o2b2o2b2o2b2o2b2o2b2o2b2o2b2o2b2o2b2o2b2o2b
2o2b2o146b2o2b2o2b2o2b2o2b2o2b2o2b2o2b2o2b2o2b2o2b2o2b2o2b2o2b2o2b2o2b
2o2b2o2b2o2b2o2b2o2b2o2b2o2b2o2b2o2b2o2b2o2b2o2b2o2b2o2b2o2b2o2b2o410b
2o2b2o2b2o2b2o2b2o2b2o2b2o2b2o2b2o2b2o2b2o2b2o2b2o2b2o2b2o2b2o2b2o2b2o
2b2o2b2o2b2o2b2o2b2o2b2o2b2o2b2o2b2o2b2o2b2o2b2o2b2o2b2o530b2o42bo17bo
bo23bobo17bo43b2o33bo5b2o3b2o326b2o3b2o8bo30b2o150b2o804b2o42bo17bobo
23bobo17bo43b2o33bo5b2o3b2o626b2o3b2o8bo30b2o150b2o804b2o42bo17bobo23b
obo17bo43b2o33bo5b2o3b2o326b2o3b2o5bo33b2o43bo17bobo23bobo17bo42b2o
804b2o42bo17bobo23bobo17bo43b2o33bo5b2o3b2o$2o2b2o2b2o2b2o2b2o2b2o2b2o
2b2o2b2o2b2o2b2o2b2o2b2o2b2o2b2o2b2o2b2o2b2o2b2o2b2o2b2o2b2o2b2o2b2o2b
2o2b2o2b2o2b2o2b2o2b2o2b2o2b2o354b2o2b2o2b2o2b2o2b2o2b2o2b2o2b2o2b2o2b
2o2b2o2b2o2b2o2b2o2b2o2b2o2b2o2b2o2b2o2b2o2b2o2b2o2b2o2b2o2b2o2b2o2b2o
2b2o2b2o2b2o2b2o2b2o146b2o2b2o2b2o2b2o2b2o2b2o2b2o2b2o2b2o2b2o2b2o2b2o
2b2o2b2o2b2o2b2o2b2o2b2o2b2o2b2o2b2o2b2o2b2o2b2o2b2o2b2o2b2o2b2o2b2o2b
2o2b2o2b2o410b2o2b2o2b2o2b2o2b2o2b2o2b2o2b2o2b2o2b2o2b2o2b2o2b2o2b2o2b
2o2b2o2b2o2b2o2b2o2b2o2b2o2b2o2b2o2b2o2b2o2b2o2b2o2b2o2b2o2b2o2b2o2b2o
530b2o42bo2bo57bo2bo43b2o34b2o4b5o328b5o10bo29b2o150b2o804b2o42bo2bo
57bo2bo43b2o34b2o4b5o628b5o10bo29b2o150b2o804b2o42bo2bo57bo2bo43b2o34b
2o4b5o328b5o4b2o34b2o43bo2bo57bo2bo42b2o804b2o42bo2bo57bo2bo43b2o34b2o
4b5o$1905bo39bo42b3o59b3o43bo34b2o5bo3bo328bo3bo8b3o30bo150bo766bo39bo
42b3o59b3o43bo34b2o5bo3bo628bo3bo8b3o30bo150bo766bo39bo42b3o59b3o43bo
34b2o5bo3bo328bo3bo5b2o34bo43b3o59b3o42bo39bo726bo39bo42b3o59b3o43bo
34b2o5bo3bo$1898b2o4bo45bo140bo47bobo330bobo47bo140bo31bobo16b2o712b2o
4bo45bo140bo47bobo630bobo47bo140bo31bobo16b2o712b2o4bo45bo140bo47bobo
330bobo47bo140bo45bo4b2o712b2o4bo45bo140bo47bobo$2o2b2o2b2o2b2o2b2o2b
2o2b2o2b2o2b2o2b2o2b2o2b2o2b2o2b2o2b2o2b2o2b2o2b2o2b2o2b2o2b2o2b2o2b2o
2b2o2b2o2b2o2b2o2b2o2b2o2b2o2b2o2b2o354b2o2b2o2b2o2b2o2b2o2b2o2b2o2b2o
2b2o2b2o2b2o2b2o2b2o2b2o2b2o2b2o2b2o2b2o2b2o2b2o2b2o2b2o2b2o2b2o2b2o2b
2o2b2o2b2o2b2o2b2o2b2o2b2o146b2o2b2o2b2o2b2o2b2o2b2o2b2o2b2o2b2o2b2o2b
2o2b2o2b2o2b2o2b2o2b2o2b2o2b2o2b2o2b2o2b2o2b2o2b2o2b2o2b2o2b2o2b2o2b2o
2b2o2b2o2b2o2b2o410b2o2b2o2b2o2b2o2b2o2b2o2b2o2b2o2b2o2b2o2b2o2b2o2b2o
2b2o2b2o2b2o2b2o2b2o2b2o2b2o2b2o2b2o2b2o2b2o2b2o2b2o2b2o2b2o2b2o2b2o2b
2o2b2o485bo4b3o32bo5bo2bo2bo138bo2bo2bo5bo37b3o328b3o37bo5bo2bo2bo138b
o2bo2bo5bo20b2o17bo714bo4b3o32bo5bo2bo2bo138bo2bo2bo5bo37b3o628b3o37bo
5bo2bo2bo138bo2bo2bo5bo20b2o17bo714bo4b3o32bo5bo2bo2bo138bo2bo2bo5bo
37b3o328b3o37bo5bo2bo2bo138bo2bo2bo5bo32b3o4bo714bo4b3o32bo5bo2bo2bo
138bo2bo2bo5bo37b3o$2o2b2o2b2o2b2o2b2o2b2o2b2o2b2o2b2o2b2o2b2o2b2o2b2o
2b2o2b2o2b2o2b2o2b2o2b2o2b2o2b2o2b2o2b2o2b2o2b2o2b2o2b2o2b2o2b2o2b2o2b
2o2b2o354b2o2b2o2b2o2b2o2b2o2b2o2b2o2b2o2b2o2b2o2b2o2b2o2b2o2b2o2b2o2b
2o2b2o2b2o2b2o2b2o2b2o2b2o2b2o2b2o2b2o2b2o2b2o2b2o2b2o2b2o2b2o2b2o146b
2o2b2o2b2o2b2o2b2o2b2o2b2o2b2o2b2o2b2o2b2o2b2o2b2o2b2o2b2o2b2o2b2o2b2o
2b2o2b2o2b2o2b2o2b2o2b2o2b2o2b2o2b2o2b2o2b2o2b2o2b2o2b2o410b2o2b2o2b2o
2b2o2b2o2b2o2b2o2b2o2b2o2b2o2b2o2b2o2b2o2b2o2b2o2b2o2b2o2b2o2b2o2b2o2b
2o2b2o2b2o2b2o2b2o2b2o2b2o2b2o2b2o2b2o2b2o2b2o482b3o40bo5bo5bo138bo5bo
5bo39b2o326b2o39bo5bo5bo138bo5bo5bo21bo18b3o708b3o40bo5bo5bo138bo5bo5b
o39b2o626b2o39bo5bo5bo138bo5bo5bo21bo18b3o708b3o40bo5bo5bo138bo5bo5bo
39b2o326b2o39bo5bo5bo138bo5bo5bo40b3o708b3o40bo5bo5bo138bo5bo5bo39b2o$
1896bo4b2o37bo3bo3bo2bo138bo2bo3bo3bo40bo328bo40bo3bo3bo2bo138bo2bo3bo
3bo37b2o4bo708bo4b2o37bo3bo3bo2bo138bo2bo3bo3bo40bo628bo40bo3bo3bo2bo
138bo2bo3bo3bo37b2o4bo708bo4b2o37bo3bo3bo2bo138bo2bo3bo3bo40bo328bo40b
o3bo3bo2bo138bo2bo3bo3bo37b2o4bo708bo4b2o37bo3bo3bo2bo138bo2bo3bo3bo
40bo$1900bobo38b3o5b3o138b3o5b3o42b3o322b3o42b3o5b3o138b3o5b3o38bobo
716bobo38b3o5b3o138b3o5b3o42b3o622b3o42b3o5b3o138b3o5b3o38bobo716bobo
38b3o5b3o138b3o5b3o42b3o322b3o42b3o5b3o138b3o5b3o38bobo716bobo38b3o5b
3o138b3o5b3o42b3o$2o2b2o2b2o2b2o2b2o2b2o2b2o2b2o2b2o2b2o2b2o2b2o2b2o2b
2o2b2o2b2o2b2o2b2o2b2o2b2o2b2o2b2o2b2o2b2o2b2o2b2o2b2o2b2o2b2o2b2o2b2o
2b2o354b2o2b2o2b2o2b2o2b2o2b2o2b2o2b2o2b2o2b2o2b2o2b2o2b2o2b2o2b2o2b2o
2b2o2b2o2b2o2b2o2b2o2b2o2b2o2b2o2b2o2b2o2b2o2b2o2b2o2b2o2b2o2b2o146b2o
2b2o2b2o2b2o2b2o2b2o2b2o2b2o2b2o2b2o2b2o2b2o2b2o2b2o2b2o2b2o2b2o2b2o2b
2o2b2o2b2o2b2o2b2o2b2o2b2o2b2o2b2o2b2o2b2o2b2o2b2o2b2o410b2o2b2o2b2o2b
2o2b2o2b2o2b2o2b2o2b2o2b2o2b2o2b2o2b2o2b2o2b2o2b2o2b2o2b2o2b2o2b2o2b2o
2b2o2b2o2b2o2b2o2b2o2b2o2b2o2b2o2b2o2b2o2b2o486bo59b2o118b2o57b2o4bo
322bo4b2o18bo38b2o118b2o59bo716bo59b2o118b2o57b2o4bo622bo4b2o18bo38b2o
118b2o59bo716bo59b2o118b2o57b2o4bo322bo4b2o57b2o118b2o59bo716bo59b2o
118b2o57b2o4bo$2o2b2o2b2o2b2o2b2o2b2o2b2o2b2o2b2o2b2o2b2o2b2o2b2o2b2o
2b2o2b2o2b2o2b2o2b2o2b2o2b2o2b2o2b2o2b2o2b2o2b2o2b2o2b2o2b2o2b2o2b2o2b
2o354b2o2b2o2b2o2b2o2b2o2b2o2b2o2b2o2b2o2b2o2b2o2b2o2b2o2b2o2b2o2b2o2b
2o2b2o2b2o2b2o2b2o2b2o2b2o2b2o2b2o2b2o2b2o2b2o2b2o2b2o2b2o2b2o146b2o2b
2o2b2o2b2o2b2o2b2o2b2o2b2o2b2o2b2o2b2o2b2o2b2o2b2o2b2o2b2o2b2o2b2o2b2o
2b2o2b2o2b2o2b2o2b2o2b2o2b2o2b2o2b2o2b2o2b2o2b2o2b2o410b2o2b2o2b2o2b2o
2b2o2b2o2b2o2b2o2b2o2b2o2b2o2b2o2b2o2b2o2b2o2b2o2b2o2b2o2b2o2b2o2b2o2b
2o2b2o2b2o2b2o2b2o2b2o2b2o2b2o2b2o2b2o2b2o485b2o58b2o120b2o56bobo330bo
bo16bobo37b2o120b2o58b2o714b2o58b2o120b2o56bobo630bobo16bobo37b2o120b
2o58b2o714b2o58b2o120b2o56bobo330bobo56b2o120b2o58b2o714b2o58b2o120b2o
56bobo$1961bo4b5o100b5o4bo60bo330bo19b2o39bo4b5o100b5o4bo36bo801bo4b5o
100b5o4bo60bo630bo19b2o39bo4b5o100b5o4bo36bo801bo4b5o100b5o4bo60bo330b
o60bo4b5o100b5o4bo838bo4b5o100b5o4bo60bo$1965bob3obo35b3o21b3o36bob3ob
o64b2o328b2o64bob3obo98bob3obo38b2o806bob3obo35b3o21b3o36bob3obo64b2o
628b2o64bob3obo98bob3obo38b2o806bob3obo35b3o21b3o36bob3obo64b2o328b2o
64bob3obo36b3o21b3o35bob3obo846bob3obo35b3o21b3o36bob3obo64b2o$2o2b2o
2b2o2b2o2b2o2b2o2b2o2b2o2b2o2b2o2b2o2b2o2b2o2b2o2b2o2b2o2b2o2b2o2b2o2b
2o2b2o2b2o2b2o2b2o2b2o2b2o2b2o2b2o2b2o2b2o2b2o2b2o354b2o2b2o2b2o2b2o2b
2o2b2o2b2o2b2o2b2o2b2o2b2o2b2o2b2o2b2o2b2o2b2o2b2o2b2o2b2o2b2o2b2o2b2o
2b2o2b2o2b2o2b2o2b2o2b2o2b2o2b2o2b2o2b2o146b2o2b2o2b2o2b2o2b2o2b2o2b2o
2b2o2b2o2b2o2b2o2b2o2b2o2b2o2b2o2b2o2b2o2b2o2b2o2b2o2b2o2b2o2b2o2b2o2b
2o2b2o2b2o2b2o2b2o2b2o2b2o2b2o410b2o2b2o2b2o2b2o2b2o2b2o2b2o2b2o2b2o2b
2o2b2o2b2o2b2o2b2o2b2o2b2o2b2o2b2o2b2o2b2o2b2o2b2o2b2o2b2o2b2o2b2o2b2o
2b2o2b2o2b2o2b2o2b2o552bo3bo36bo2bo19bo2bo37bo3bo462bo3bo100bo3bo40b2o
806bo3bo36bo2bo19bo2bo37bo3bo762bo3bo100bo3bo40b2o806bo3bo36bo2bo19bo
2bo37bo3bo462bo3bo37bo2bo19bo2bo36bo3bo848bo3bo36bo2bo19bo2bo37bo3bo$
2o2b2o2b2o2b2o2b2o2b2o2b2o2b2o2b2o2b2o2b2o2b2o2b2o2b2o2b2o2b2o2b2o2b2o
2b2o2b2o2b2o2b2o2b2o2b2o2b2o2b2o2b2o2b2o2b2o2b2o2b2o2b2o354b2o2b2o2b2o
2b2o2b2o2b2o2b2o2b2o2b2o2b2o2b2o2b2o2b2o2b2o2b2o2b2o2b2o2b2o2b2o2b2o2b
2o2b2o2b2o2b2o2b2o2b2o2b2o2b2o2b2o2b2o2b2o2b2o146b2o2b2o2b2o2b2o2b2o2b
2o2b2o2b2o2b2o2b2o2b2o2b2o2b2o2b2o2b2o2b2o2b2o2b2o2b2o2b2o2b2o2b2o2b2o
2b2o2b2o2b2o2b2o2b2o2b2o2b2o2b2o2b2o410b2o2b2o2b2o2b2o2b2o2b2o2b2o2b2o
2b2o2b2o2b2o2b2o2b2o2b2o2b2o2b2o2b2o2b2o2b2o2b2o2b2o2b2o2b2o2b2o2b2o2b
2o2b2o2b2o2b2o2b2o2b2o2b2o553b3o17bobo17bo25bo17bobo18b3o464b3o102b3o
850b3o17bobo17bo25bo17bobo18b3o764b3o102b3o850b3o17bobo17bo25bo17bobo
18b3o464b3o18bobo17bo25bo17bobo17b3o850b3o17bobo17bo25bo17bobo18b3o$
1968bo21bo16bo25bo16bo22bo466bo104bo852bo21bo16bo25bo16bo22bo766bo104b
o852bo21bo16bo25bo16bo22bo466bo22bo16bo25bo16bo21bo852bo21bo16bo25bo
16bo22bo$1966b2o22bo17bobo19bobo17bo23b2o424bo37b2o106b2o848b2o22bo17b
obo19bobo17bo23b2o724bo37b2o106b2o848b2o22bo17bobo19bobo17bo23b2o462b
2o23bo17bobo19bobo17bo22b2o848b2o22bo17bobo19bobo17bo23b2o$2o2b2o2b2o
2b2o2b2o2b2o2b2o2b2o2b2o2b2o2b2o2b2o2b2o2b2o2b2o2b2o2b2o2b2o2b2o2b2o2b
2o2b2o2b2o2b2o2b2o2b2o2b2o2b2o2b2o2b2o2b2o2b2o354b2o2b2o2b2o2b2o2b2o2b
2o2b2o2b2o2b2o2b2o2b2o2b2o2b2o2b2o2b2o2b2o2b2o2b2o2b2o2b2o2b2o2b2o2b2o
2b2o2b2o2b2o2b2o2b2o2b2o2b2o2b2o2b2o146b2o2b2o2b2o2b2o2b2o2b2o2b2o2b2o
2b2o2b2o2b2o2b2o2b2o2b2o2b2o2b2o2b2o2b2o2b2o2b2o2b2o2b2o2b2o2b2o2b2o2b
2o2b2o2b2o2b2o2b2o2b2o2b2o410b2o2b2o2b2o2b2o2b2o2b2o2b2o2b2o2b2o2b2o2b
2o2b2o2b2o2b2o2b2o2b2o2b2o2b2o2b2o2b2o2b2o2b2o2b2o2b2o2b2o2b2o2b2o2b2o
2b2o2b2o2b2o2b2o528b2o21bobo19bo2bo59bo2bo20bobo21b2o401bo12b2o21bobo
106bobo21b2o800b2o21bobo19bo2bo59bo2bo20bobo21b2o701bo12b2o21bobo106bo
bo21b2o800b2o21bobo19bo2bo59bo2bo20bobo21b2o414b2o21bobo20bo2bo59bo2bo
19bobo21b2o800b2o21bobo19bo2bo59bo2bo20bobo21b2o$2o2b2o2b2o2b2o2b2o2b
2o2b2o2b2o2b2o2b2o2b2o2b2o2b2o2b2o2b2o2b2o2b2o2b2o2b2o2b2o2b2o2b2o2b2o
2b2o2b2o2b2o2b2o2b2o2b2o2b2o2b2o2b2o354b2o2b2o2b2o2b2o2b2o2b2o2b2o2b2o
2b2o2b2o2b2o2b2o2b2o2b2o2b2o2b2o2b2o2b2o2b2o2b2o2b2o2b2o2b2o2b2o2b2o2b
2o2b2o2b2o2b2o2b2o2b2o2b2o146b2o2b2o2b2o2b2o2b2o2b2o2b2o2b2o2b2o2b2o2b
2o2b2o2b2o2b2o2b2o2b2o2b2o2b2o2b2o2b2o2b2o2b2o2b2o2b2o2b2o2b2o2b2o2b2o
2b2o2b2o2b2o2b2o410b2o2b2o2b2o2b2o2b2o2b2o2b2o2b2o2b2o2b2o2b2o2b2o2b2o
2b2o2b2o2b2o2b2o2b2o2b2o2b2o2b2o2b2o2b2o2b2o2b2o2b2o2b2o2b2o2b2o2b2o2b
2o2b2o528b2o21bobo20b3o59b3o21bobo21b2o399b3o12b2o21bobo106bobo21b2o
800b2o21bobo20b3o59b3o21bobo21b2o699b3o12b2o21bobo106bobo21b2o800b2o
21bobo20b3o59b3o21bobo21b2o414b2o21bobo21b3o59b3o20bobo21b2o800b2o21bo
bo20b3o59b3o21bobo21b2o$1950bobo13bo108bo13bobo430bobo13bo108bo13bobo
16bobo797bobo13bo108bo13bobo730bobo13bo108bo13bobo16bobo797bobo13bo
108bo13bobo430bobo13bo108bo13bobo816bobo13bo108bo13bobo$1949bo142bo
428bo142bo15b2o797bo142bo728bo142bo15b2o797bo142bo428bo142bo814bo142bo
$2o2b2o2b2o2b2o2b2o2b2o2b2o2b2o2b2o2b2o2b2o2b2o2b2o2b2o2b2o2b2o2b2o2b
2o2b2o2b2o2b2o2b2o2b2o2b2o2b2o2b2o2b2o2b2o2b2o2b2o2b2o2b2o354b2o2b2o2b
2o2b2o2b2o2b2o2b2o2b2o2b2o2b2o2b2o2b2o2b2o2b2o2b2o2b2o2b2o2b2o2b2o2b2o
2b2o2b2o2b2o2b2o2b2o2b2o2b2o2b2o2b2o2b2o2b2o2b2o146b2o2b2o2b2o2b2o2b2o
2b2o2b2o2b2o2b2o2b2o2b2o2b2o2b2o2b2o2b2o2b2o2b2o2b2o2b2o2b2o2b2o2b2o2b
2o2b2o2b2o2b2o2b2o2b2o2b2o2b2o2b2o2b2o410b2o2b2o2b2o2b2o2b2o2b2o2b2o2b
2o2b2o2b2o2b2o2b2o2b2o2b2o2b2o2b2o2b2o2b2o2b2o2b2o2b2o2b2o2b2o2b2o2b2o
2b2o2b2o2b2o2b2o2b2o2b2o2b2o535bo142bo428bo142bo16bo797bo142bo728bo
142bo16bo797bo142bo428bo142bo814bo142bo$2o2b2o2b2o2b2o2b2o2b2o2b2o2b2o
2b2o2b2o2b2o2b2o2b2o2b2o2b2o2b2o2b2o2b2o2b2o2b2o2b2o2b2o2b2o2b2o2b2o2b
2o2b2o2b2o2b2o2b2o2b2o2b2o354b2o2b2o2b2o2b2o2b2o2b2o2b2o2b2o2b2o2b2o2b
2o2b2o2b2o2b2o2b2o2b2o2b2o2b2o2b2o2b2o2b2o2b2o2b2o2b2o2b2o2b2o2b2o2b2o
2b2o2b2o2b2o2b2o146b2o2b2o2b2o2b2o2b2o2b2o2b2o2b2o2b2o2b2o2b2o2b2o2b2o
2b2o2b2o2b2o2b2o2b2o2b2o2b2o2b2o2b2o2b2o2b2o2b2o2b2o2b2o2b2o2b2o2b2o2b
2o2b2o410b2o2b2o2b2o2b2o2b2o2b2o2b2o2b2o2b2o2b2o2b2o2b2o2b2o2b2o2b2o2b
2o2b2o2b2o2b2o2b2o2b2o2b2o2b2o2b2o2b2o2b2o2b2o2b2o2b2o2b2o2b2o2b2o535b
o2bo10b2obob2o102b2obob2o10bo2bo428bo2bo10b2obob2o102b2obob2o10bo2bo
814bo2bo10b2obob2o102b2obob2o10bo2bo728bo2bo10b2obob2o102b2obob2o10bo
2bo814bo2bo10b2obob2o102b2obob2o10bo2bo428bo2bo10b2obob2o102b2obob2o
10bo2bo814bo2bo10b2obob2o102b2obob2o10bo2bo$1949b3o11bo5bo102bo5bo11b
3o428b3o11bo5bo102bo5bo11b3o814b3o11bo5bo102bo5bo11b3o728b3o11bo5bo
102bo5bo11b3o814b3o11bo5bo102bo5bo11b3o428b3o11bo5bo102bo5bo11b3o814b
3o11bo5bo102bo5bo11b3o$1964bo3bo104bo3bo430bo27bo3bo104bo3bo844bo3bo
104bo3bo730bo27bo3bo104bo3bo844bo3bo104bo3bo281b2o175bo3bo104bo3bo844b
o3bo104bo3bo$2o2b2o2b2o2b2o2b2o2b2o2b2o2b2o2b2o2b2o2b2o2b2o2b2o2b2o2b
2o2b2o2b2o2b2o2b2o2b2o2b2o2b2o2b2o2b2o2b2o2b2o2b2o2b2o2b2o2b2o2b2o2b2o
354b2o2b2o2b2o2b2o2b2o2b2o2b2o2b2o2b2o2b2o2b2o2b2o2b2o2b2o2b2o2b2o2b2o
2b2o2b2o2b2o2b2o2b2o2b2o2b2o2b2o2b2o2b2o2b2o2b2o2b2o2b2o2b2o146b2o2b2o
2b2o2b2o2b2o2b2o2b2o2b2o2b2o2b2o2b2o2b2o2b2o2b2o2b2o2b2o2b2o2b2o2b2o2b
2o2b2o2b2o2b2o2b2o2b2o2b2o2b2o2b2o2b2o2b2o2b2o2b2o410b2o2b2o2b2o2b2o2b
2o2b2o2b2o2b2o2b2o2b2o2b2o2b2o2b2o2b2o2b2o2b2o2b2o2b2o2b2o2b2o2b2o2b2o
2b2o2b2o2b2o2b2o2b2o2b2o2b2o2b2o2b2o2b2o551b3o106b3o429bobo28b3o106b3o
846b3o106b3o729bobo28b3o106b3o846b3o106b3o281b3o176b3o106b3o846b3o106b
3o$2o2b2o2b2o2b2o2b2o2b2o2b2o2b2o2b2o2b2o2b2o2b2o2b2o2b2o2b2o2b2o2b2o
2b2o2b2o2b2o2b2o2b2o2b2o2b2o2b2o2b2o2b2o2b2o2b2o2b2o2b2o2b2o354b2o2b2o
2b2o2b2o2b2o2b2o2b2o2b2o2b2o2b2o2b2o2b2o2b2o2b2o2b2o2b2o2b2o2b2o2b2o2b
2o2b2o2b2o2b2o2b2o2b2o2b2o2b2o2b2o2b2o2b2o2b2o2b2o146b2o2b2o2b2o2b2o2b
2o2b2o2b2o2b2o2b2o2b2o2b2o2b2o2b2o2b2o2b2o2b2o2b2o2b2o2b2o2b2o2b2o2b2o
2b2o2b2o2b2o2b2o2b2o2b2o2b2o2b2o2b2o2b2o410b2o2b2o2b2o2b2o2b2o2b2o2b2o
2b2o2b2o2b2o2b2o2b2o2b2o2b2o2b2o2b2o2b2o2b2o2b2o2b2o2b2o2b2o2b2o2b2o2b
2o2b2o2b2o2b2o2b2o2b2o2b2o2b2o1093b2o165bo1662b2o165bo1213b2obo$2007b
3o21b3o638b2o863b3o21b3o938b2o863b3o21b3o325b3o218b3o21b3o930b3o21b3o$
2006bo2bo21bo2bo638b2o861bo2bo21bo2bo938b2o861bo2bo21bo2bo325bo218bo2b
o21bo2bo928bo2bo21bo2bo$2o2b2o2b2o2b2o2b2o2b2o2b2o2b2o2b2o2b2o2b2o2b2o
2b2o2b2o2b2o2b2o2b2o2b2o2b2o2b2o2b2o2b2o2b2o2b2o2b2o2b2o2b2o2b2o2b2o2b
2o2b2o2b2o354b2o2b2o2b2o2b2o2b2o2b2o2b2o2b2o2b2o2b2o2b2o2b2o2b2o2b2o2b
2o2b2o2b2o2b2o2b2o2b2o2b2o2b2o2b2o2b2o2b2o2b2o2b2o2b2o2b2o2b2o2b2o2b2o
146b2o2b2o2b2o2b2o2b2o2b2o2b2o2b2o2b2o2b2o2b2o2b2o2b2o2b2o2b2o2b2o2b2o
2b2o2b2o2b2o2b2o2b2o2b2o2b2o2b2o2b2o2b2o2b2o2b2o2b2o2b2o2b2o410b2o2b2o
2b2o2b2o2b2o2b2o2b2o2b2o2b2o2b2o2b2o2b2o2b2o2b2o2b2o2b2o2b2o2b2o2b2o2b
2o2b2o2b2o2b2o2b2o2b2o2b2o2b2o2b2o2b2o2b2o2b2o2b2o575bobo17bo21bo17bob
o1467bobo17bo21bo17bobo1767bobo17bo21bo17bobo510bobo17bo21bo17bobo894b
obo17bo21bo17bobo$2o2b2o2b2o2b2o2b2o2b2o2b2o2b2o2b2o2b2o2b2o2b2o2b2o2b
2o2b2o2b2o2b2o2b2o2b2o2b2o2b2o2b2o2b2o2b2o2b2o2b2o2b2o2b2o2b2o2b2o2b2o
2b2o354b2o2b2o2b2o2b2o2b2o2b2o2b2o2b2o2b2o2b2o2b2o2b2o2b2o2b2o2b2o2b2o
2b2o2b2o2b2o2b2o2b2o2b2o2b2o2b2o2b2o2b2o2b2o2b2o2b2o2b2o2b2o2b2o146b2o
2b2o2b2o2b2o2b2o2b2o2b2o2b2o2b2o2b2o2b2o2b2o2b2o2b2o2b2o2b2o2b2o2b2o2b
2o2b2o2b2o2b2o2b2o2b2o2b2o2b2o2b2o2b2o2b2o2b2o2b2o2b2o410b2o2b2o2b2o2b
2o2b2o2b2o2b2o2b2o2b2o2b2o2b2o2b2o2b2o2b2o2b2o2b2o2b2o2b2o2b2o2b2o2b2o
2b2o2b2o2b2o2b2o2b2o2b2o2b2o2b2o2b2o2b2o2b2o574bo20bo21bo20bo1465bo20b
o21bo20bo1765bo20bo21bo20bo508bo20bo21bo20bo892bo20bo21bo20bo$1988bo
17bobo23bobo17bo462bo1002bo17bobo23bobo17bo762bo1002bo17bobo23bobo17bo
508bo17bobo23bobo17bo892bo17bobo23bobo17bo$1988bo2bo57bo2bo463bo1001bo
2bo57bo2bo763bo1001bo2bo57bo2bo508bo2bo57bo2bo892bo2bo57bo2bo$2o2b2o2b
2o2b2o2b2o2b2o2b2o2b2o2b2o2b2o2b2o2b2o2b2o2b2o2b2o2b2o2b2o2b2o2b2o2b2o
2b2o2b2o2b2o2b2o2b2o2b2o2b2o2b2o2b2o2b2o2b2o2b2o354b2o2b2o2b2o2b2o2b2o
2b2o2b2o2b2o2b2o2b2o2b2o2b2o2b2o2b2o2b2o2b2o2b2o2b2o2b2o2b2o2b2o2b2o2b
2o2b2o2b2o2b2o2b2o2b2o2b2o2b2o2b2o2b2o146b2o2b2o2b2o2b2o2b2o2b2o2b2o2b
2o2b2o2b2o2b2o2b2o2b2o2b2o2b2o2b2o2b2o2b2o2b2o2b2o2b2o2b2o2b2o2b2o2b2o
2b2o2b2o2b2o2b2o2b2o2b2o2b2o410b2o2b2o2b2o2b2o2b2o2b2o2b2o2b2o2b2o2b2o
2b2o2b2o2b2o2b2o2b2o2b2o2b2o2b2o2b2o2b2o2b2o2b2o2b2o2b2o2b2o2b2o2b2o2b
2o2b2o2b2o2b2o2b2o551b2o21b3o59b3o22b2o437b3o20b2o108b2o846b2o21b3o59b
3o22b2o737b3o20b2o108b2o846b2o21b3o59b3o22b2o460b2o22b3o59b3o21b2o846b
2o21b3o59b3o22b2o$2o2b2o2b2o2b2o2b2o2b2o2b2o2b2o2b2o2b2o2b2o2b2o2b2o2b
2o2b2o2b2o2b2o2b2o2b2o2b2o2b2o2b2o2b2o2b2o2b2o2b2o2b2o2b2o2b2o2b2o2b2o
2b2o354b2o2b2o2b2o2b2o2b2o2b2o2b2o2b2o2b2o2b2o2b2o2b2o2b2o2b2o2b2o2b2o
2b2o2b2o2b2o2b2o2b2o2b2o2b2o2b2o2b2o2b2o2b2o2b2o2b2o2b2o2b2o2b2o146b2o
2b2o2b2o2b2o2b2o2b2o2b2o2b2o2b2o2b2o2b2o2b2o2b2o2b2o2b2o2b2o2b2o2b2o2b
2o2b2o2b2o2b2o2b2o2b2o2b2o2b2o2b2o2b2o2b2o2b2o2b2o2b2o410b2o2b2o2b2o2b
2o2b2o2b2o2b2o2b2o2b2o2b2o2b2o2b2o2b2o2b2o2b2o2b2o2b2o2b2o2b2o2b2o2b2o
2b2o2b2o2b2o2b2o2b2o2b2o2b2o2b2o2b2o2b2o2b2o534bobo14b2o108b2o14bobo
428bo14b2o108b2o829bobo14b2o108b2o14bobo728bo14b2o108b2o829bobo14b2o
108b2o14bobo426bobo14b2o108b2o14bobo812bobo14b2o108b2o14bobo$1951bo22b
o92bo22bo455bo92bo841bo22bo92bo22bo755bo92bo841bo22bo92bo22bo432bo22bo
92bo22bo818bo22bo92bo22bo$1951bo20b3o92b3o20bo431bo21b3o92b3o839bo20b
3o92b3o20bo731bo21b3o92b3o839bo20b3o92b3o20bo432bo20b3o92b3o20bo818bo
20b3o92b3o20bo$2o2b2o2b2o2b2o2b2o2b2o2b2o2b2o2b2o2b2o2b2o2b2o2b2o2b2o
2b2o2b2o2b2o2b2o2b2o2b2o2b2o2b2o2b2o2b2o2b2o2b2o2b2o2b2o2b2o2b2o2b2o2b
2o354b2o2b2o2b2o2b2o2b2o2b2o2b2o2b2o2b2o2b2o2b2o2b2o2b2o2b2o2b2o2b2o2b
2o2b2o2b2o2b2o2b2o2b2o2b2o2b2o2b2o2b2o2b2o2b2o2b2o2b2o2b2o2b2o146b2o2b
2o2b2o2b2o2b2o2b2o2b2o2b2o2b2o2b2o2b2o2b2o2b2o2b2o2b2o2b2o2b2o2b2o2b2o
2b2o2b2o2b2o2b2o2b2o2b2o2b2o2b2o2b2o2b2o2b2o2b2o2b2o410b2o2b2o2b2o2b2o
2b2o2b2o2b2o2b2o2b2o2b2o2b2o2b2o2b2o2b2o2b2o2b2o2b2o2b2o2b2o2b2o2b2o2b
2o2b2o2b2o2b2o2b2o2b2o2b2o2b2o2b2o2b2o2b2o534bo2bo19bo98bo19bo2bo428bo
20bo98bo835bo2bo19bo98bo19bo2bo728bo20bo98bo835bo2bo19bo98bo19bo2bo
426bo2bo19bo98bo19bo2bo812bo2bo19bo98bo19bo2bo$2o2b2o2b2o2b2o2b2o2b2o
2b2o2b2o2b2o2b2o2b2o2b2o2b2o2b2o2b2o2b2o2b2o2b2o2b2o2b2o2b2o2b2o2b2o2b
2o2b2o2b2o2b2o2b2o2b2o2b2o2b2o2b2o354b2o2b2o2b2o2b2o2b2o2b2o2b2o2b2o2b
2o2b2o2b2o2b2o2b2o2b2o2b2o2b2o2b2o2b2o2b2o2b2o2b2o2b2o2b2o2b2o2b2o2b2o
2b2o2b2o2b2o2b2o2b2o2b2o146b2o2b2o2b2o2b2o2b2o2b2o2b2o2b2o2b2o2b2o2b2o
2b2o2b2o2b2o2b2o2b2o2b2o2b2o2b2o2b2o2b2o2b2o2b2o2b2o2b2o2b2o2b2o2b2o2b
2o2b2o2b2o2b2o410b2o2b2o2b2o2b2o2b2o2b2o2b2o2b2o2b2o2b2o2b2o2b2o2b2o2b
2o2b2o2b2o2b2o2b2o2b2o2b2o2b2o2b2o2b2o2b2o2b2o2b2o2b2o2b2o2b2o2b2o2b2o
2b2o535b3o19b2o96b2o19b3o430b2o18b2o96b2o836b3o19b2o96b2o19b3o730b2o
18b2o96b2o836b3o19b2o96b2o19b3o428b3o19b2o96b2o19b3o814b3o19b2o96b2o
19b3o$2523b2o1828b2o$2522b2o1828b2o$2o2b2o2b2o2b2o2b2o2b2o2b2o2b2o2b2o
2b2o2b2o2b2o2b2o2b2o2b2o2b2o2b2o2b2o2b2o2b2o2b2o2b2o2b2o2b2o2b2o2b2o2b
2o2b2o2b2o2b2o2b2o2b2o354b2o2b2o2b2o2b2o2b2o2b2o2b2o2b2o2b2o2b2o2b2o2b
2o2b2o2b2o2b2o2b2o2b2o2b2o2b2o2b2o2b2o2b2o2b2o2b2o2b2o2b2o2b2o2b2o2b2o
2b2o2b2o2b2o146b2o2b2o2b2o2b2o2b2o2b2o2b2o2b2o2b2o2b2o2b2o2b2o2b2o2b2o
2b2o2b2o2b2o2b2o2b2o2b2o2b2o2b2o2b2o2b2o2b2o2b2o2b2o2b2o2b2o2b2o2b2o2b
2o410b2o2b2o2b2o2b2o2b2o2b2o2b2o2b2o2b2o2b2o2b2o2b2o2b2o2b2o2b2o2b2o2b
2o2b2o2b2o2b2o2b2o2b2o2b2o2b2o2b2o2b2o2b2o2b2o2b2o2b2o2b2o2b2o1108b2o
1828b2o$2o2b2o2b2o2b2o2b2o2b2o2b2o2b2o2b2o2b2o2b2o2b2o2b2o2b2o2b2o2b2o
2b2o2b2o2b2o2b2o2b2o2b2o2b2o2b2o2b2o2b2o2b2o2b2o2b2o2b2o2b2o2b2o354b2o
2b2o2b2o2b2o2b2o2b2o2b2o2b2o2b2o2b2o2b2o2b2o2b2o2b2o2b2o2b2o2b2o2b2o2b
2o2b2o2b2o2b2o2b2o2b2o2b2o2b2o2b2o2b2o2b2o2b2o2b2o2b2o146b2o2b2o2b2o2b
2o2b2o2b2o2b2o2b2o2b2o2b2o2b2o2b2o2b2o2b2o2b2o2b2o2b2o2b2o2b2o2b2o2b2o
2b2o2b2o2b2o2b2o2b2o2b2o2b2o2b2o2b2o2b2o2b2o410b2o2b2o2b2o2b2o2b2o2b2o
2b2o2b2o2b2o2b2o2b2o2b2o2b2o2b2o2b2o2b2o2b2o2b2o2b2o2b2o2b2o2b2o2b2o2b
2o2b2o2b2o2b2o2b2o2b2o2b2o2b2o2b2o593b3o21b3o1503b3o21b3o1803b3o21b3o
546b3o21b3o930b3o21b3o$2007bo2bo19bo2bo1503bo2bo19bo2bo1803bo2bo19bo2b
o546bo2bo19bo2bo930bo2bo19bo2bo$1987bobo17bo25bo17bobo1463bobo17bo25bo
17bobo1763bobo17bo25bo17bobo506bobo17bo25bo17bobo890bobo17bo25bo17bobo
$2o2b2o2b2o2b2o2b2o2b2o2b2o2b2o2b2o2b2o2b2o2b2o2b2o2b2o2b2o2b2o2b2o2b
2o2b2o2b2o2b2o2b2o2b2o2b2o2b2o2b2o2b2o2b2o2b2o2b2o2b2o2b2o354b2o2b2o2b
2o2b2o2b2o2b2o2b2o2b2o2b2o2b2o2b2o2b2o2b2o2b2o2b2o2b2o2b2o2b2o2b2o2b2o
2b2o2b2o2b2o2b2o2b2o2b2o2b2o2b2o2b2o2b2o2b2o2b2o146b2o2b2o2b2o2b2o2b2o
2b2o2b2o2b2o2b2o2b2o2b2o2b2o2b2o2b2o2b2o2b2o2b2o2b2o2b2o2b2o2b2o2b2o2b
2o2b2o2b2o2b2o2b2o2b2o2b2o2b2o2b2o2b2o410b2o2b2o2b2o2b2o2b2o2b2o2b2o2b
2o2b2o2b2o2b2o2b2o2b2o2b2o2b2o2b2o2b2o2b2o2b2o2b2o2b2o2b2o2b2o2b2o2b2o
2b2o2b2o2b2o2b2o2b2o2b2o2b2o576bo16bo25bo16bo1469bo16bo25bo16bo1769bo
16bo25bo16bo512bo16bo25bo16bo896bo16bo25bo16bo$2o2b2o2b2o2b2o2b2o2b2o
2b2o2b2o2b2o2b2o2b2o2b2o2b2o2b2o2b2o2b2o2b2o2b2o2b2o2b2o2b2o2b2o2b2o2b
2o2b2o2b2o2b2o2b2o2b2o2b2o2b2o2b2o354b2o2b2o2b2o2b2o2b2o2b2o2b2o2b2o2b
2o2b2o2b2o2b2o2b2o2b2o2b2o2b2o2b2o2b2o2b2o2b2o2b2o2b2o2b2o2b2o2b2o2b2o
2b2o2b2o2b2o2b2o2b2o2b2o146b2o2b2o2b2o2b2o2b2o2b2o2b2o2b2o2b2o2b2o2b2o
2b2o2b2o2b2o2b2o2b2o2b2o2b2o2b2o2b2o2b2o2b2o2b2o2b2o2b2o2b2o2b2o2b2o2b
2o2b2o2b2o2b2o410b2o2b2o2b2o2b2o2b2o2b2o2b2o2b2o2b2o2b2o2b2o2b2o2b2o2b
2o2b2o2b2o2b2o2b2o2b2o2b2o2b2o2b2o2b2o2b2o2b2o2b2o2b2o2b2o2b2o2b2o2b2o
2b2o576bo17bobo19bobo17bo1469bo17bobo19bobo17bo1769bo17bobo19bobo17bo
512bo17bobo19bobo17bo896bo17bobo19bobo17bo$1987bo2bo59bo2bo1463bo2bo
59bo2bo1763bo2bo59bo2bo506bo2bo59bo2bo890bo2bo59bo2bo$1988b3o59b3o
1465b3o59b3o1765b3o59b3o508b3o59b3o892b3o59b3o$2o2b2o2b2o2b2o2b2o2b2o
2b2o2b2o2b2o2b2o2b2o2b2o2b2o2b2o2b2o2b2o2b2o2b2o2b2o2b2o2b2o2b2o2b2o2b
2o2b2o2b2o2b2o2b2o2b2o2b2o2b2o2b2o354b2o2b2o2b2o2b2o2b2o2b2o2b2o2b2o2b
2o2b2o2b2o2b2o2b2o2b2o2b2o2b2o2b2o2b2o2b2o2b2o2b2o2b2o2b2o2b2o2b2o2b2o
2b2o2b2o2b2o2b2o2b2o2b2o146b2o2b2o2b2o2b2o2b2o2b2o2b2o2b2o2b2o2b2o2b2o
2b2o2b2o2b2o2b2o2b2o2b2o2b2o2b2o2b2o2b2o2b2o2b2o2b2o2b2o2b2o2b2o2b2o2b
2o2b2o2b2o2b2o410b2o2b2o2b2o2b2o2b2o2b2o2b2o2b2o2b2o2b2o2b2o2b2o2b2o2b
2o2b2o2b2o2b2o2b2o2b2o2b2o2b2o2b2o2b2o2b2o2b2o2b2o2b2o2b2o2b2o2b2o2b2o
2b2o536bobo136bobo1388bobo136bobo1688bobo136bobo430bobo136bobo816bobo
136bobo$2o2b2o2b2o2b2o2b2o2b2o2b2o2b2o2b2o2b2o2b2o2b2o2b2o2b2o2b2o2b2o
2b2o2b2o2b2o2b2o2b2o2b2o2b2o2b2o2b2o2b2o2b2o2b2o2b2o2b2o2b2o2b2o354b2o
2b2o2b2o2b2o2b2o2b2o2b2o2b2o2b2o2b2o2b2o2b2o2b2o2b2o2b2o2b2o2b2o2b2o2b
2o2b2o2b2o2b2o2b2o2b2o2b2o2b2o2b2o2b2o2b2o2b2o2b2o2b2o146b2o2b2o2b2o2b
2o2b2o2b2o2b2o2b2o2b2o2b2o2b2o2b2o2b2o2b2o2b2o2b2o2b2o2b2o2b2o2b2o2b2o
2b2o2b2o2b2o2b2o2b2o2b2o2b2o2b2o2b2o2b2o2b2o410b2o2b2o2b2o2b2o2b2o2b2o
2b2o2b2o2b2o2b2o2b2o2b2o2b2o2b2o2b2o2b2o2b2o2b2o2b2o2b2o2b2o2b2o2b2o2b
2o2b2o2b2o2b2o2b2o2b2o2b2o2b2o2b2o535bo142bo1386bo142bo1686bo142bo428b
o142bo814bo142bo$1949bo142bo1386bo142bo1686bo142bo428bo142bo814bo142bo
$1949bo2bo15b3o100b3o15bo2bo1386bo2bo15b3o100b3o15bo2bo1686bo2bo15b3o
100b3o15bo2bo428bo2bo15b3o100b3o15bo2bo814bo2bo15b3o100b3o15bo2bo$2o2b
2o2b2o2b2o2b2o2b2o2b2o2b2o2b2o2b2o2b2o2b2o2b2o2b2o2b2o2b2o2b2o2b2o2b2o
2b2o2b2o2b2o2b2o2b2o2b2o2b2o2b2o2b2o2b2o2b2o2b2o2b2o354b2o2b2o2b2o2b2o
2b2o2b2o2b2o2b2o2b2o2b2o2b2o2b2o2b2o2b2o2b2o2b2o2b2o2b2o2b2o2b2o2b2o2b
2o2b2o2b2o2b2o2b2o2b2o2b2o2b2o2b2o2b2o2b2o146b2o2b2o2b2o2b2o2b2o2b2o2b
2o2b2o2b2o2b2o2b2o2b2o2b2o2b2o2b2o2b2o2b2o2b2o2b2o2b2o2b2o2b2o2b2o2b2o
2b2o2b2o2b2o2b2o2b2o2b2o2b2o2b2o410b2o2b2o2b2o2b2o2b2o2b2o2b2o2b2o2b2o
2b2o2b2o2b2o2b2o2b2o2b2o2b2o2b2o2b2o2b2o2b2o2b2o2b2o2b2o2b2o2b2o2b2o2b
2o2b2o2b2o2b2o2b2o2b2o535b3o16bo2bo98bo2bo16b3o1386b3o16bo2bo98bo2bo
16b3o1686b3o16bo2bo98bo2bo16b3o428b3o16bo2bo98bo2bo16b3o814b3o16bo2bo
98bo2bo16b3o$2o2b2o2b2o2b2o2b2o2b2o2b2o2b2o2b2o2b2o2b2o2b2o2b2o2b2o2b
2o2b2o2b2o2b2o2b2o2b2o2b2o2b2o2b2o2b2o2b2o2b2o2b2o2b2o2b2o2b2o2b2o2b2o
354b2o2b2o2b2o2b2o2b2o2b2o2b2o2b2o2b2o2b2o2b2o2b2o2b2o2b2o2b2o2b2o2b2o
2b2o2b2o2b2o2b2o2b2o2b2o2b2o2b2o2b2o2b2o2b2o2b2o2b2o2b2o2b2o146b2o2b2o
2b2o2b2o2b2o2b2o2b2o2b2o2b2o2b2o2b2o2b2o2b2o2b2o2b2o2b2o2b2o2b2o2b2o2b
2o2b2o2b2o2b2o2b2o2b2o2b2o2b2o2b2o2b2o2b2o2b2o2b2o410b2o2b2o2b2o2b2o2b
2o2b2o2b2o2b2o2b2o2b2o2b2o2b2o2b2o2b2o2b2o2b2o2b2o2b2o2b2o2b2o2b2o2b2o
2b2o2b2o2b2o2b2o2b2o2b2o2b2o2b2o2b2o2b2o554bo104bo1424bo104bo1724bo
104bo466bo104bo852bo104bo$1968bo104bo1424bo104bo1724bo104bo466bo104bo
852bo104bo$1969bobo98bobo1426bobo98bobo1726bobo98bobo468bobo98bobo854b
obo98bobo$2o2b2o2b2o2b2o2b2o2b2o2b2o2b2o2b2o2b2o2b2o2b2o2b2o2b2o2b2o2b
2o2b2o2b2o2b2o2b2o2b2o2b2o2b2o2b2o2b2o2b2o2b2o2b2o2b2o2b2o2b2o2b2o354b
2o2b2o2b2o2b2o2b2o2b2o2b2o2b2o2b2o2b2o2b2o2b2o2b2o2b2o2b2o2b2o2b2o2b2o
2b2o2b2o2b2o2b2o2b2o2b2o2b2o2b2o2b2o2b2o2b2o2b2o2b2o2b2o146b2o2b2o2b2o
2b2o2b2o2b2o2b2o2b2o2b2o2b2o2b2o2b2o2b2o2b2o2b2o2b2o2b2o2b2o2b2o2b2o2b
2o2b2o2b2o2b2o2b2o2b2o2b2o2b2o2b2o2b2o2b2o2b2o410b2o2b2o2b2o2b2o2b2o2b
2o2b2o2b2o2b2o2b2o2b2o2b2o2b2o2b2o2b2o2b2o2b2o2b2o2b2o2b2o2b2o2b2o2b2o
2b2o2b2o2b2o2b2o2b2o2b2o2b2o2b2o2b2o593b3o21b3o1503b3o21b3o1803b3o21b
3o546b3o21b3o930b3o21b3o$2o2b2o2b2o2b2o2b2o2b2o2b2o2b2o2b2o2b2o2b2o2b
2o2b2o2b2o2b2o2b2o2b2o2b2o2b2o2b2o2b2o2b2o2b2o2b2o2b2o2b2o2b2o2b2o2b2o
2b2o2b2o2b2o354b2o2b2o2b2o2b2o2b2o2b2o2b2o2b2o2b2o2b2o2b2o2b2o2b2o2b2o
2b2o2b2o2b2o2b2o2b2o2b2o2b2o2b2o2b2o2b2o2b2o2b2o2b2o2b2o2b2o2b2o2b2o2b
2o146b2o2b2o2b2o2b2o2b2o2b2o2b2o2b2o2b2o2b2o2b2o2b2o2b2o2b2o2b2o2b2o2b
2o2b2o2b2o2b2o2b2o2b2o2b2o2b2o2b2o2b2o2b2o2b2o2b2o2b2o2b2o2b2o410b2o2b
2o2b2o2b2o2b2o2b2o2b2o2b2o2b2o2b2o2b2o2b2o2b2o2b2o2b2o2b2o2b2o2b2o2b2o
2b2o2b2o2b2o2b2o2b2o2b2o2b2o2b2o2b2o2b2o2b2o2b2o2b2o592bo2bo21bo2bo
1501bo2bo21bo2bo1801bo2bo21bo2bo544bo2bo21bo2bo928bo2bo21bo2bo$1989bob
o17bo21bo17bobo1467bobo17bo21bo17bobo1767bobo17bo21bo17bobo510bobo17bo
21bo17bobo894bobo17bo21bo17bobo$1988bo20bo21bo20bo1465bo20bo21bo20bo
1765bo20bo21bo20bo508bo20bo21bo20bo892bo20bo21bo20bo$1988bo17bobo23bob
o17bo1465bo17bobo23bobo17bo1765bo17bobo23bobo17bo508bo17bobo23bobo17bo
892bo17bobo23bobo17bo$1988bo2bo57bo2bo1465bo2bo57bo2bo1765bo2bo57bo2bo
508bo2bo57bo2bo892bo2bo57bo2bo$1988b3o59b3o1465b3o59b3o1765b3o59b3o
508b3o59b3o892b3o59b3o$1948bobo140bobo1384bobo140bobo1684bobo140bobo
426bobo140bobo812bobo140bobo$1951bo138bo1390bo138bo1690bo138bo432bo
138bo818bo138bo$1951bo138bo1390bo138bo1690bo138bo432bo138bo818bo138bo$
1948bo2bo16b3o100b3o16bo2bo1384bo2bo16b3o100b3o16bo2bo1684bo2bo16b3o
100b3o16bo2bo426bo2bo16b3o100b3o16bo2bo812bo2bo16b3o100b3o16bo2bo$
1949b3o15bo2bo100bo2bo15b3o1386b3o15bo2bo100bo2bo15b3o1686b3o15bo2bo
100bo2bo15b3o428b3o15bo2bo100bo2bo15b3o814b3o15bo2bo100bo2bo15b3o$
1970bo100bo1428bo100bo1728bo100bo470bo100bo856bo100bo$1970bo100bo1428b
o100bo1728bo100bo470bo100bo856bo100bo$1967bobo102bobo1422bobo102bobo
1722bobo102bobo464bobo102bobo850bobo102bobo$2007b3o21b3o1503b3o21b3o
1803b3o21b3o546b3o21b3o930b3o21b3o$2007bo2bo19bo2bo1503bo2bo19bo2bo
1803bo2bo19bo2bo546bo2bo19bo2bo930bo2bo19bo2bo$1987bobo17bo25bo17bobo
1463bobo17bo25bo17bobo1763bobo17bo25bo17bobo506bobo17bo25bo17bobo890bo
bo17bo25bo17bobo$1990bo16bo25bo16bo1469bo16bo25bo16bo1769bo16bo25bo16b
o512bo16bo25bo16bo896bo16bo25bo16bo$1990bo17bobo19bobo17bo1469bo17bobo
19bobo17bo1769bo17bobo19bobo17bo512bo17bobo19bobo17bo896bo17bobo19bobo
17bo$1987bo2bo59bo2bo1463bo2bo59bo2bo1763bo2bo59bo2bo506bo2bo59bo2bo
890bo2bo59bo2bo$1988b3o59b3o1465b3o59b3o1765b3o59b3o508b3o59b3o892b3o
59b3o$1950bobo136bobo1388bobo136bobo1688bobo136bobo430bobo136bobo816bo
bo136bobo$1949bo142bo1386bo142bo1686bo142bo428bo142bo814bo142bo$1949bo
142bo1386bo142bo1686bo142bo428bo142bo814bo142bo$1949bo2bo15b3o100b3o
15bo2bo1386bo2bo15b3o100b3o15bo2bo1686bo2bo15b3o100b3o15bo2bo428bo2bo
15b3o100b3o15bo2bo814bo2bo15b3o100b3o15bo2bo$1949b3o16bo2bo98bo2bo16b
3o1386b3o16bo2bo98bo2bo16b3o1686b3o16bo2bo98bo2bo16b3o428b3o16bo2bo98b
o2bo16b3o814b3o16bo2bo98bo2bo16b3o$1968bo104bo1424bo104bo1724bo104bo
466bo104bo852bo104bo$1968bo104bo1424bo104bo1724bo104bo466bo104bo852bo
104bo$1969bobo98bobo1426bobo98bobo1726bobo98bobo468bobo98bobo854bobo
98bobo$2007b3o21b3o1503b3o21b3o1803b3o21b3o546b3o21b3o930b3o21b3o$
2006bo2bo21bo2bo1501bo2bo21bo2bo1801bo2bo21bo2bo544bo2bo21bo2bo928bo2b
o21bo2bo$1989bobo17bo21bo17bobo1467bobo17bo21bo17bobo1767bobo17bo21bo
17bobo510bobo17bo21bo17bobo894bobo17bo21bo17bobo$1988bo20bo21bo20bo
1465bo20bo21bo20bo1765bo20bo21bo20bo508bo20bo21bo20bo892bo20bo21bo20bo
$1988bo17bobo23bobo17bo1465bo17bobo23bobo17bo1765bo17bobo23bobo17bo
508bo17bobo23bobo17bo892bo17bobo23bobo17bo$1988bo2bo57bo2bo1465bo2bo
57bo2bo1765bo2bo57bo2bo508bo2bo57bo2bo892bo2bo57bo2bo$1988b3o59b3o
1465b3o59b3o1765b3o59b3o508b3o59b3o892b3o59b3o$1948bobo140bobo1384bobo
140bobo1684bobo140bobo426bobo140bobo812bobo140bobo$1951bo138bo1390bo
138bo1690bo138bo432bo138bo818bo138bo$1951bo138bo1390bo138bo1690bo138bo
432bo138bo818bo138bo$1948bo2bo16b3o100b3o16bo2bo1384bo2bo16b3o100b3o
16bo2bo1684bo2bo16b3o100b3o16bo2bo426bo2bo16b3o100b3o16bo2bo812bo2bo
16b3o100b3o16bo2bo$1949b3o15bo2bo100bo2bo15b3o1386b3o15bo2bo100bo2bo
15b3o1686b3o15bo2bo100bo2bo15b3o428b3o15bo2bo100bo2bo15b3o814b3o15bo2b
o100bo2bo15b3o$1970bo100bo1428bo100bo1728bo100bo470bo100bo856bo100bo$
1970bo100bo1428bo100bo1728bo100bo470bo100bo856bo100bo$1967bobo102bobo
1422bobo102bobo1722bobo102bobo464bobo102bobo850bobo102bobo$2007b3o21b
3o1503b3o21b3o1803b3o21b3o546b3o21b3o930b3o21b3o$2007bo2bo19bo2bo1503b
o2bo19bo2bo1803bo2bo19bo2bo546bo2bo19bo2bo930bo2bo19bo2bo$1987bobo17bo
25bo17bobo1463bobo17bo25bo17bobo1763bobo17bo25bo17bobo506bobo17bo25bo
17bobo890bobo17bo25bo17bobo$1990bo16bo25bo16bo1469bo16bo25bo16bo1769bo
16bo25bo16bo512bo16bo25bo16bo896bo16bo25bo16bo$1990bo17bobo19bobo17bo
1469bo17bobo19bobo17bo1769bo17bobo19bobo17bo512bo17bobo19bobo17bo896bo
17bobo19bobo17bo$1987bo2bo59bo2bo1463bo2bo59bo2bo1763bo2bo59bo2bo506bo
2bo59bo2bo890bo2bo59bo2bo$1988b3o59b3o1465b3o59b3o1765b3o59b3o508b3o
59b3o892b3o59b3o$1950bobo136bobo1388bobo136bobo1688bobo136bobo430bobo
136bobo816bobo136bobo$1949bo142bo1386bo142bo1686bo142bo428bo142bo814bo
142bo$1949bo142bo1386bo142bo1686bo142bo428bo142bo814bo142bo$1949bo2bo
15b3o100b3o15bo2bo1386bo2bo15b3o100b3o15bo2bo1686bo2bo15b3o100b3o15bo
2bo428bo2bo15b3o100b3o15bo2bo814bo2bo15b3o100b3o15bo2bo$1949b3o16bo2bo
98bo2bo16b3o1386b3o16bo2bo98bo2bo16b3o1686b3o16bo2bo98bo2bo16b3o428b3o
16bo2bo98bo2bo16b3o814b3o16bo2bo98bo2bo16b3o$1968bo104bo1424bo104bo
1724bo104bo466bo104bo852bo104bo$1968bo104bo1424bo104bo1724bo104bo466bo
104bo852bo104bo$1969bobo98bobo1426bobo98bobo1726bobo98bobo468bobo98bob
o854bobo98bobo$2007b3o21b3o1503b3o21b3o1803b3o21b3o546b3o21b3o930b3o
21b3o$2006bo2bo21bo2bo1501bo2bo21bo2bo1801bo2bo21bo2bo544bo2bo21bo2bo
928bo2bo21bo2bo$1989bobo17bo21bo17bobo1467bobo17bo21bo17bobo1767bobo
17bo21bo17bobo510bobo17bo21bo17bobo894bobo17bo21bo17bobo$1988bo20bo21b
o20bo1465bo20bo21bo20bo1765bo20bo21bo20bo508bo20bo21bo20bo892bo20bo21b
o20bo$1988bo17bobo23bobo17bo1465bo17bobo23bobo17bo1765bo17bobo23bobo
17bo508bo17bobo23bobo17bo892bo17bobo23bobo17bo$1988bo2bo57bo2bo1465bo
2bo57bo2bo1765bo2bo57bo2bo508bo2bo57bo2bo892bo2bo57bo2bo$1988b3o59b3o
1465b3o59b3o1765b3o59b3o508b3o59b3o892b3o59b3o$1948bobo140bobo1384bobo
140bobo1684bobo140bobo426bobo140bobo812bobo140bobo$1951bo138bo1390bo
138bo1690bo138bo432bo138bo818bo138bo$1951bo138bo1390bo138bo1690bo138bo
432bo138bo818bo138bo$1948bo2bo16b3o100b3o16bo2bo1384bo2bo16b3o100b3o
16bo2bo1684bo2bo16b3o100b3o16bo2bo426bo2bo16b3o100b3o16bo2bo812bo2bo
16b3o100b3o16bo2bo$1949b3o15bo2bo100bo2bo15b3o1386b3o15bo2bo100bo2bo
15b3o1686b3o15bo2bo100bo2bo15b3o428b3o15bo2bo100bo2bo15b3o814b3o15bo2b
o100bo2bo15b3o$1970bo100bo1428bo100bo1728bo100bo470bo100bo856bo100bo$
1970bo100bo1428bo100bo1728bo100bo470bo100bo856bo100bo$1967bobo102bobo
1422bobo102bobo1722bobo102bobo464bobo102bobo850bobo102bobo$2007b3o21b
3o1503b3o21b3o1803b3o21b3o546b3o21b3o930b3o21b3o$2007bo2bo19bo2bo1503b
o2bo19bo2bo1803bo2bo19bo2bo546bo2bo19bo2bo930bo2bo19bo2bo$1987bobo17bo
25bo17bobo1463bobo17bo25bo17bobo1763bobo17bo25bo17bobo506bobo17bo25bo
17bobo890bobo17bo25bo17bobo$1990bo16bo25bo16bo1469bo16bo25bo16bo1769bo
16bo25bo16bo512bo16bo25bo16bo896bo16bo25bo16bo$1990bo17bobo19bobo17bo
1469bo17bobo19bobo17bo1769bo17bobo19bobo17bo512bo17bobo19bobo17bo896bo
17bobo19bobo17bo$1987bo2bo59bo2bo1463bo2bo59bo2bo1763bo2bo59bo2bo506bo
2bo59bo2bo890bo2bo59bo2bo$1988b3o59b3o1465b3o59b3o1765b3o59b3o508b3o
59b3o892b3o59b3o$1950bobo136bobo1388bobo136bobo1688bobo136bobo430bobo
136bobo816bobo136bobo$1949bo142bo1386bo142bo1686bo142bo428bo142bo814bo
142bo$1949bo142bo1386bo142bo1686bo142bo428bo142bo814bo142bo$1949bo2bo
15b3o100b3o15bo2bo1386bo2bo15b3o100b3o15bo2bo1686bo2bo15b3o100b3o15bo
2bo428bo2bo15b3o100b3o15bo2bo814bo2bo15b3o100b3o15bo2bo$1949b3o16bo2bo
98bo2bo16b3o1386b3o16bo2bo98bo2bo16b3o1686b3o16bo2bo98bo2bo16b3o428b3o
16bo2bo98bo2bo16b3o814b3o16bo2bo98bo2bo16b3o$1968bo104bo1424bo104bo
1724bo104bo466bo104bo852bo104bo$1968bo104bo1424bo104bo1724bo104bo466bo
104bo852bo104bo$1969bobo98bobo1426bobo98bobo1726bobo98bobo468bobo98bob
o854bobo98bobo$2007b3o21b3o1503b3o21b3o1803b3o21b3o546b3o21b3o930b3o
21b3o$2006bo2bo21bo2bo1501bo2bo21bo2bo1801bo2bo21bo2bo544bo2bo21bo2bo
928bo2bo21bo2bo$1989bobo17bo21bo17bobo1467bobo17bo21bo17bobo1767bobo
17bo21bo17bobo510bobo17bo21bo17bobo894bobo17bo21bo17bobo$1988bo20bo21b
o20bo1465bo20bo21bo20bo1765bo20bo21bo20bo508bo20bo21bo20bo892bo20bo21b
o20bo$1988bo17bobo23bobo17bo1465bo17bobo23bobo17bo1765bo17bobo23bobo
17bo508bo17bobo23bobo17bo892bo17bobo23bobo17bo$1988bo2bo57bo2bo1465bo
2bo57bo2bo1765bo2bo57bo2bo508bo2bo57bo2bo892bo2bo57bo2bo$1988b3o59b3o
1465b3o59b3o1765b3o59b3o508b3o59b3o892b3o59b3o$1948bobo140bobo1384bobo
140bobo1684bobo140bobo426bobo140bobo812bobo140bobo$1951bo138bo1390bo
138bo1690bo138bo432bo138bo818bo138bo$1951bo138bo1390bo138bo1690bo138bo
432bo138bo818bo138bo$1948bo2bo16b3o100b3o16bo2bo1384bo2bo16b3o100b3o
16bo2bo1684bo2bo16b3o100b3o16bo2bo426bo2bo16b3o100b3o16bo2bo812bo2bo
16b3o100b3o16bo2bo$1949b3o15bo2bo100bo2bo15b3o1386b3o15bo2bo100bo2bo
15b3o1686b3o15bo2bo100bo2bo15b3o428b3o15bo2bo100bo2bo15b3o814b3o15bo2b
o100bo2bo15b3o$1970bo100bo1428bo100bo1728bo100bo470bo100bo856bo100bo$
1970bo100bo1428bo100bo1728bo100bo470bo100bo856bo100bo$1967bobo102bobo
1422bobo102bobo1722bobo102bobo464bobo102bobo850bobo102bobo$2007b3o21b
3o1503b3o21b3o1803b3o21b3o546b3o21b3o930b3o21b3o$2007bo2bo19bo2bo1503b
o2bo19bo2bo1803bo2bo19bo2bo546bo2bo19bo2bo930bo2bo19bo2bo$1987bobo17bo
25bo17bobo1463bobo17bo25bo17bobo1763bobo17bo25bo17bobo506bobo17bo25bo
17bobo890bobo17bo25bo17bobo$1990bo16bo25bo16bo1469bo16bo25bo16bo1769bo
16bo25bo16bo512bo16bo25bo16bo896bo16bo25bo16bo$1990bo17bobo19bobo17bo
1469bo17bobo19bobo17bo1769bo17bobo19bobo17bo512bo17bobo19bobo17bo896bo
17bobo19bobo17bo$1987bo2bo59bo2bo1463bo2bo59bo2bo1763bo2bo59bo2bo506bo
2bo59bo2bo890bo2bo59bo2bo$1988b3o59b3o1465b3o59b3o1765b3o59b3o508b3o
59b3o892b3o59b3o$1950bobo136bobo1388bobo136bobo1688bobo136bobo430bobo
136bobo816bobo136bobo$1949bo142bo1386bo142bo1686bo142bo428bo142bo814bo
142bo$1949bo142bo1386bo142bo1686bo142bo428bo142bo814bo142bo$1949bo2bo
15b3o100b3o15bo2bo1386bo2bo15b3o100b3o15bo2bo1686bo2bo15b3o100b3o15bo
2bo428bo2bo15b3o100b3o15bo2bo814bo2bo15b3o100b3o15bo2bo$1949b3o16bo2bo
98bo2bo16b3o1386b3o16bo2bo98bo2bo16b3o1686b3o16bo2bo98bo2bo16b3o428b3o
16bo2bo98bo2bo16b3o814b3o16bo2bo98bo2bo16b3o$1968bo104bo1424bo104bo
1724bo104bo466bo104bo852bo104bo$1968bo104bo1424bo104bo1724bo104bo466bo
104bo852bo104bo$1969bobo98bobo1426bobo98bobo1726bobo98bobo468bobo98bob
o854bobo98bobo$2007b3o21b3o1503b3o21b3o1803b3o21b3o546b3o21b3o930b3o
21b3o$2006bo2bo21bo2bo1501bo2bo21bo2bo1801bo2bo21bo2bo544bo2bo21bo2bo
928bo2bo21bo2bo$1989bobo17bo21bo17bobo1467bobo17bo21bo17bobo1767bobo
17bo21bo17bobo510bobo17bo21bo17bobo894bobo17bo21bo17bobo$1988bo20bo21b
o20bo1465bo20bo21bo20bo1765bo20bo21bo20bo508bo20bo21bo20bo892bo20bo21b
o20bo$1988bo17bobo23bobo17bo1465bo17bobo23bobo17bo1765bo17bobo23bobo
17bo508bo17bobo23bobo17bo892bo17bobo23bobo17bo$1988bo2bo57bo2bo1465bo
2bo57bo2bo1765bo2bo57bo2bo508bo2bo57bo2bo892bo2bo57bo2bo$1988b3o59b3o
1465b3o59b3o1765b3o59b3o508b3o59b3o892b3o59b3o$1948bobo140bobo1384bobo
140bobo1684bobo140bobo426bobo140bobo812bobo140bobo$1951bo138bo1390bo
138bo1690bo138bo432bo138bo818bo138bo$1951bo138bo1390bo138bo1690bo138bo
432bo138bo818bo138bo$1948bo2bo16b3o100b3o16bo2bo1384bo2bo16b3o100b3o
16bo2bo1684bo2bo16b3o100b3o16bo2bo426bo2bo16b3o100b3o16bo2bo812bo2bo
16b3o100b3o16bo2bo$1949b3o15bo2bo100bo2bo15b3o1386b3o15bo2bo100bo2bo
15b3o1686b3o15bo2bo100bo2bo15b3o428b3o15bo2bo100bo2bo15b3o814b3o15bo2b
o100bo2bo15b3o$1970bo100bo1428bo100bo1728bo100bo470bo100bo856bo100bo$
1970bo100bo1428bo100bo1728bo100bo470bo100bo856bo100bo$1967bobo102bobo
1422bobo102bobo1722bobo102bobo464bobo102bobo850bobo102bobo$2007b3o21b
3o1503b3o21b3o1803b3o21b3o546b3o21b3o930b3o21b3o$2007bo2bo19bo2bo1503b
o2bo19bo2bo1803bo2bo19bo2bo546bo2bo19bo2bo930bo2bo19bo2bo$1987bobo17bo
25bo17bobo1463bobo17bo25bo17bobo1763bobo17bo25bo17bobo506bobo17bo25bo
17bobo890bobo17bo25bo17bobo$1990bo16bo25bo16bo1469bo16bo25bo16bo1769bo
16bo25bo16bo512bo16bo25bo16bo896bo16bo25bo16bo$1990bo17bobo19bobo17bo
1469bo17bobo19bobo17bo1769bo17bobo19bobo17bo512bo17bobo19bobo17bo896bo
17bobo19bobo17bo$1987bo2bo59bo2bo1463bo2bo59bo2bo1763bo2bo59bo2bo506bo
2bo59bo2bo890bo2bo59bo2bo$1988b3o59b3o1465b3o59b3o1765b3o59b3o508b3o
59b3o892b3o59b3o$1950bobo136bobo1388bobo136bobo1688bobo136bobo430bobo
136bobo816bobo136bobo$1949bo142bo1386bo142bo1686bo142bo428bo142bo814bo
142bo$1949bo142bo1386bo142bo1686bo142bo428bo142bo814bo142bo$1949bo2bo
15b3o100b3o15bo2bo1386bo2bo15b3o100b3o15bo2bo1686bo2bo15b3o100b3o15bo
2bo428bo2bo15b3o100b3o15bo2bo814bo2bo15b3o100b3o15bo2bo$1949b3o16bo2bo
98bo2bo16b3o1386b3o16bo2bo98bo2bo16b3o1686b3o16bo2bo98bo2bo16b3o428b3o
16bo2bo98bo2bo16b3o814b3o16bo2bo98bo2bo16b3o$1968bo104bo1424bo104bo
1724bo104bo466bo104bo852bo104bo$1968bo104bo1424bo104bo1724bo104bo466bo
104bo852bo104bo$1969bobo98bobo1426bobo98bobo1726bobo98bobo468bobo98bob
o854bobo98bobo$2007b3o21b3o1503b3o21b3o1803b3o21b3o546b3o21b3o930b3o
21b3o$2006bo2bo21bo2bo1501bo2bo21bo2bo1801bo2bo21bo2bo544bo2bo21bo2bo
928bo2bo21bo2bo$1989bobo17bo21bo17bobo1467bobo17bo21bo17bobo1767bobo
17bo21bo17bobo510bobo17bo21bo17bobo894bobo17bo21bo17bobo$1988bo20bo21b
o20bo1465bo20bo21bo20bo1765bo20bo21bo20bo508bo20bo21bo20bo892bo20bo21b
o20bo$1988bo17bobo23bobo17bo1465bo17bobo23bobo17bo1765bo17bobo23bobo
17bo508bo17bobo23bobo17bo892bo17bobo23bobo17bo$1988bo2bo57bo2bo1465bo
2bo57bo2bo1765bo2bo57bo2bo508bo2bo57bo2bo892bo2bo57bo2bo$1988b3o59b3o
1465b3o59b3o1765b3o59b3o508b3o59b3o892b3o59b3o$1948bobo140bobo1384bobo
140bobo1684bobo140bobo426bobo140bobo812bobo140bobo$1951bo138bo1390bo
138bo1690bo138bo432bo138bo818bo138bo$1951bo138bo1390bo138bo1690bo138bo
432bo138bo818bo138bo$1948bo2bo16b3o100b3o16bo2bo1384bo2bo16b3o100b3o
16bo2bo1684bo2bo16b3o100b3o16bo2bo426bo2bo16b3o100b3o16bo2bo812bo2bo
16b3o100b3o16bo2bo$1949b3o15bo2bo100bo2bo15b3o1386b3o15bo2bo100bo2bo
15b3o1686b3o15bo2bo100bo2bo15b3o428b3o15bo2bo100bo2bo15b3o814b3o15bo2b
o100bo2bo15b3o$1970bo100bo1428bo100bo1728bo100bo470bo100bo856bo100bo$
1970bo100bo1428bo100bo1728bo100bo470bo100bo856bo100bo$1967bobo102bobo
1422bobo102bobo1722bobo102bobo464bobo102bobo850bobo102bobo$2007b3o21b
3o1503b3o21b3o1803b3o21b3o546b3o21b3o930b3o21b3o$2007bo2bo19bo2bo1503b
o2bo19bo2bo1803bo2bo19bo2bo546bo2bo19bo2bo930bo2bo19bo2bo$1987bobo17bo
25bo17bobo1463bobo17bo25bo17bobo1763bobo17bo25bo17bobo506bobo17bo25bo
17bobo890bobo17bo25bo17bobo$1990bo16bo25bo16bo1469bo16bo25bo16bo1769bo
16bo25bo16bo512bo16bo25bo16bo896bo16bo25bo16bo$1990bo17bobo19bobo17bo
1469bo17bobo19bobo17bo1769bo17bobo19bobo17bo512bo17bobo19bobo17bo896bo
17bobo19bobo17bo$1987bo2bo59bo2bo1463bo2bo59bo2bo382b2o2b2o2b2o2b2o2b
2o2b2o2b2o2b2o2b2o2b2o1343bo2bo59bo2bo506bo2bo59bo2bo890bo2bo59bo2bo$
1988b3o59b3o1465b3o59b3o383b2o2b2o2b2o2b2o2b2o2b2o2b2o2b2o2b2o2b2o
1344b3o59b3o508b3o59b3o892b3o59b3o$1950bobo136bobo1388bobo136bobo1688b
obo136bobo430bobo136bobo816bobo136bobo$1949bo142bo1386bo142bo1686bo
142bo428bo142bo814bo142bo$1949bo142bo1386bo142bo331b2o2b2o2b2o2b2o2b2o
2b2o2b2o2b2o2b2o2b2o2b2o2b2o2b2o2b2o2b2o2b2o1293bo142bo428bo142bo814bo
142bo$1949bo2bo15b3o100b3o15bo2bo1386bo2bo15b3o100b3o15bo2bo331b2o2b2o
2b2o2b2o2b2o2b2o2b2o2b2o2b2o2b2o2b2o2b2o2b2o2b2o2b2o2b2o1293bo2bo15b3o
100b3o15bo2bo428bo2bo15b3o100b3o15bo2bo814bo2bo15b3o100b3o15bo2bo$
1949b3o16bo2bo98bo2bo16b3o1386b3o16bo2bo98bo2bo16b3o1686b3o16bo2bo98bo
2bo16b3o428b3o16bo2bo98bo2bo16b3o814b3o16bo2bo98bo2bo16b3o$1968bo104bo
1424bo104bo1724bo104bo466bo104bo852bo104bo$1968bo104bo1424bo104bo338b
2o2b2o2b2o2b2o2b2o2b2o2b2o2b2o2b2o2b2o2b2o2b2o2b2o2b2o2b2o2b2o2b2o2b2o
2b2o2b2o2b2o2b2o1300bo104bo466bo104bo852bo104bo$1969bobo98bobo1426bobo
98bobo339b2o2b2o2b2o2b2o2b2o2b2o2b2o2b2o2b2o2b2o2b2o2b2o2b2o2b2o2b2o2b
2o2b2o2b2o2b2o2b2o2b2o2b2o1301bobo98bobo468bobo98bobo854bobo98bobo$
2007b3o21b3o1503b3o21b3o1803b3o21b3o546b3o21b3o930b3o21b3o$2006bo2bo
21bo2bo1501bo2bo21bo2bo1801bo2bo21bo2bo544bo2bo21bo2bo928bo2bo21bo2bo$
1989bobo17bo21bo17bobo1467bobo17bo21bo17bobo352b2o2b2o2b2o2b2o2b2o2b2o
2b2o2b2o2b2o2b2o2b2o2b2o2b2o2b2o2b2o2b2o2b2o2b2o2b2o2b2o2b2o2b2o2b2o2b
2o2b2o2b2o1313bobo17bo21bo17bobo510bobo17bo21bo17bobo894bobo17bo21bo
17bobo$1988bo20bo21bo20bo1465bo20bo21bo20bo351b2o2b2o2b2o2b2o2b2o2b2o
2b2o2b2o2b2o2b2o2b2o2b2o2b2o2b2o2b2o2b2o2b2o2b2o2b2o2b2o2b2o2b2o2b2o2b
2o2b2o2b2o1312bo20bo21bo20bo508bo20bo21bo20bo892bo20bo21bo20bo$1988bo
17bobo23bobo17bo1465bo17bobo23bobo17bo1765bo17bobo23bobo17bo508bo17bob
o23bobo17bo892bo17bobo23bobo17bo$1988bo2bo57bo2bo1465bo2bo57bo2bo1765b
o2bo57bo2bo508bo2bo57bo2bo892bo2bo57bo2bo$1988b3o59b3o1465b3o59b3o343b
2o2b2o2b2o2b2o2b2o2b2o2b2o2b2o2b2o2b2o2b2o2b2o2b2o2b2o2b2o2b2o2b2o2b2o
2b2o2b2o2b2o2b2o2b2o2b2o2b2o2b2o2b2o2b2o2b2o2b2o1304b3o59b3o508b3o59b
3o892b3o59b3o$1948bobo140bobo1384bobo140bobo302b2o2b2o2b2o2b2o2b2o2b2o
2b2o2b2o2b2o2b2o2b2o2b2o2b2o2b2o2b2o2b2o2b2o2b2o2b2o2b2o2b2o2b2o2b2o2b
2o2b2o2b2o2b2o2b2o2b2o2b2o1264bobo140bobo426bobo140bobo812bobo140bobo$
1951bo138bo1390bo138bo1690bo138bo432bo138bo818bo138bo$1951bo138bo1390b
o138bo1690bo138bo432bo138bo818bo138bo$1948bo2bo16b3o100b3o16bo2bo1384b
o2bo16b3o100b3o16bo2bo298b2o2b2o2b2o2b2o2b2o2b2o2b2o2b2o2b2o2b2o2b2o2b
2o2b2o2b2o2b2o2b2o2b2o2b2o2b2o2b2o2b2o2b2o2b2o2b2o2b2o2b2o2b2o2b2o2b2o
2b2o2b2o2b2o1260bo2bo16b3o100b3o16bo2bo426bo2bo16b3o100b3o16bo2bo812bo
2bo16b3o100b3o16bo2bo$1949b3o15bo2bo100bo2bo15b3o1386b3o15bo2bo100bo2b
o15b3o299b2o2b2o2b2o2b2o2b2o2b2o2b2o2b2o2b2o2b2o2b2o2b2o2b2o2b2o2b2o2b
2o2b2o2b2o2b2o2b2o2b2o2b2o2b2o2b2o2b2o2b2o2b2o2b2o2b2o2b2o2b2o2b2o
1261b3o15bo2bo100bo2bo15b3o428b3o15bo2bo100bo2bo15b3o814b3o15bo2bo100b
o2bo15b3o$1970bo100bo1428bo100bo1728bo100bo470bo100bo856bo100bo$1970bo
100bo1428bo100bo1728bo100bo470bo100bo856bo100bo$1967bobo102bobo1422bob
o102bobo313b2o2b2o2b2o2b2o2b2o2b2o2b2o2b2o2b2o2b2o2b2o2b2o2b2o2b2o2b2o
2b2o2b2o2b2o2b2o2b2o2b2o2b2o2b2o2b2o2b2o2b2o2b2o2b2o2b2o2b2o2b2o2b2o2b
2o2b2o1275bobo102bobo464bobo102bobo850bobo102bobo$2007b3o21b3o1503b3o
21b3o354b2o2b2o2b2o2b2o2b2o2b2o2b2o2b2o2b2o2b2o2b2o2b2o2b2o2b2o2b2o2b
2o2b2o2b2o2b2o2b2o2b2o2b2o2b2o2b2o2b2o2b2o2b2o2b2o2b2o2b2o2b2o2b2o2b2o
2b2o1315b3o21b3o546b3o21b3o930b3o21b3o$2007bo2bo19bo2bo1503bo2bo19bo2b
o1803bo2bo19bo2bo546bo2bo19bo2bo930bo2bo19bo2bo$1987bobo17bo25bo17bobo
1463bobo17bo25bo17bobo1763bobo17bo25bo17bobo506bobo17bo25bo17bobo890bo
bo17bo25bo17bobo$1990bo16bo25bo16bo1469bo16bo25bo16bo333b2o2b2o2b2o2b
2o2b2o2b2o2b2o2b2o2b2o2b2o2b2o2b2o2b2o2b2o2b2o2b2o2b2o2b2o2b2o2b2o2b2o
2b2o2b2o2b2o2b2o2b2o2b2o2b2o2b2o2b2o2b2o2b2o2b2o2b2o2b2o2b2o1294bo16bo
25bo16bo512bo16bo25bo16bo896bo16bo25bo16bo$1990bo17bobo19bobo17bo1469b
o17bobo19bobo17bo333b2o2b2o2b2o2b2o2b2o2b2o2b2o2b2o2b2o2b2o2b2o2b2o2b
2o2b2o2b2o2b2o2b2o2b2o2b2o2b2o2b2o2b2o2b2o2b2o2b2o2b2o2b2o2b2o2b2o2b2o
2b2o2b2o2b2o2b2o2b2o2b2o1294bo17bobo19bobo17bo512bo17bobo19bobo17bo
896bo17bobo19bobo17bo$1987bo2bo59bo2bo1463bo2bo59bo2bo1763bo2bo59bo2bo
506bo2bo59bo2bo890bo2bo59bo2bo$1988b3o59b3o1465b3o59b3o1765b3o59b3o
508b3o59b3o892b3o59b3o$1950bobo136bobo1388bobo136bobo288b2o2b2o2b2o2b
2o2b2o2b2o2b2o2b2o2b2o2b2o2b2o2b2o2b2o2b2o2b2o2b2o2b2o2b2o2b2o2b2o2b2o
2b2o2b2o2b2o2b2o2b2o2b2o2b2o2b2o2b2o2b2o2b2o2b2o2b2o2b2o2b2o2b2o2b2o
1250bobo136bobo430bobo136bobo816bobo136bobo$1949bo142bo1386bo142bo287b
2o2b2o2b2o2b2o2b2o2b2o2b2o2b2o2b2o2b2o2b2o2b2o2b2o2b2o2b2o2b2o2b2o2b2o
2b2o2b2o2b2o2b2o2b2o2b2o2b2o2b2o2b2o2b2o2b2o2b2o2b2o2b2o2b2o2b2o2b2o2b
2o2b2o2b2o1249bo142bo428bo142bo814bo142bo$1949bo142bo1386bo142bo1686bo
142bo428bo142bo814bo142bo$1949bo2bo15b3o100b3o15bo2bo1386bo2bo15b3o
100b3o15bo2bo1686bo2bo15b3o100b3o15bo2bo428bo2bo15b3o100b3o15bo2bo814b
o2bo15b3o100b3o15bo2bo$1949b3o16bo2bo98bo2bo16b3o1386b3o16bo2bo98bo2bo
16b3o283b2o2b2o2b2o2b2o2b2o2b2o2b2o2b2o2b2o2b2o2b2o2b2o2b2o2b2o2b2o2b
2o2b2o2b2o2b2o2b2o2b2o2b2o2b2o2b2o2b2o2b2o2b2o2b2o2b2o2b2o2b2o2b2o2b2o
2b2o2b2o2b2o2b2o2b2o2b2o2b2o1245b3o16bo2bo98bo2bo16b3o428b3o16bo2bo98b
o2bo16b3o814b3o16bo2bo98bo2bo16b3o$1968bo104bo1424bo104bo302b2o2b2o2b
2o2b2o2b2o2b2o2b2o2b2o2b2o2b2o2b2o2b2o2b2o2b2o2b2o2b2o2b2o2b2o2b2o2b2o
2b2o2b2o2b2o2b2o2b2o2b2o2b2o2b2o2b2o2b2o2b2o2b2o2b2o2b2o2b2o2b2o2b2o2b
2o2b2o2b2o1264bo104bo466bo104bo852bo104bo$1968bo104bo1424bo104bo1724bo
104bo466bo104bo852bo104bo$1969bobo98bobo1426bobo98bobo1726bobo98bobo
468bobo98bobo854bobo98bobo$2007b3o21b3o1503b3o21b3o342b2o2b2o2b2o2b2o
2b2o2b2o2b2o2b2o2b2o2b2o2b2o2b2o2b2o2b2o2b2o2b2o2b2o2b2o2b2o2b2o2b2o2b
2o2b2o2b2o2b2o2b2o2b2o2b2o2b2o2b2o2b2o2b2o2b2o2b2o2b2o2b2o2b2o2b2o2b2o
2b2o1303b3o21b3o546b3o21b3o930b3o21b3o$2006bo2bo21bo2bo1501bo2bo21bo2b
o341b2o2b2o2b2o2b2o2b2o2b2o2b2o2b2o2b2o2b2o2b2o2b2o2b2o2b2o2b2o2b2o2b
2o2b2o2b2o2b2o2b2o2b2o2b2o2b2o2b2o2b2o2b2o2b2o2b2o2b2o2b2o2b2o2b2o2b2o
2b2o2b2o2b2o2b2o2b2o2b2o1302bo2bo21bo2bo544bo2bo21bo2bo928bo2bo21bo2bo
$1989bobo17bo21bo17bobo1467bobo17bo21bo17bobo1767bobo17bo21bo17bobo
510bobo17bo21bo17bobo894bobo17bo21bo17bobo$1988bo20bo21bo20bo1465bo20b
o21bo20bo1765bo20bo21bo20bo508bo20bo21bo20bo892bo20bo21bo20bo$1988bo
17bobo23bobo17bo1465bo17bobo23bobo17bo319b2o2b2o2b2o2b2o2b2o2b2o2b2o2b
2o2b2o2b2o2b2o2b2o2b2o2b2o2b2o2b2o2b2o2b2o2b2o2b2o2b2o2b2o2b2o2b2o2b2o
2b2o2b2o2b2o2b2o2b2o2b2o2b2o2b2o2b2o2b2o2b2o2b2o2b2o2b2o2b2o2b2o2b2o
1280bo17bobo23bobo17bo508bo17bobo23bobo17bo892bo17bobo23bobo17bo$1988b
o2bo57bo2bo1465bo2bo57bo2bo319b2o2b2o2b2o2b2o2b2o2b2o2b2o2b2o2b2o2b2o
2b2o2b2o2b2o2b2o2b2o2b2o2b2o2b2o2b2o2b2o2b2o2b2o2b2o2b2o2b2o2b2o2b2o2b
2o2b2o2b2o2b2o2b2o2b2o2b2o2b2o2b2o2b2o2b2o2b2o2b2o2b2o2b2o1280bo2bo57b
o2bo508bo2bo57bo2bo892bo2bo57bo2bo$1988b3o59b3o1465b3o59b3o1765b3o59b
3o508b3o59b3o892b3o59b3o$1948bobo140bobo1384bobo140bobo1684bobo140bobo
426bobo140bobo812bobo140bobo$1951bo138bo1390bo138bo281b2o2b2o2b2o2b2o
2b2o2b2o2b2o2b2o2b2o2b2o2b2o2b2o2b2o2b2o2b2o2b2o2b2o2b2o2b2o2b2o2b2o2b
2o2b2o2b2o2b2o2b2o2b2o2b2o2b2o2b2o2b2o2b2o2b2o2b2o2b2o2b2o2b2o2b2o2b2o
2b2o2b2o2b2o1243bo138bo432bo138bo818bo138bo$1951bo138bo1390bo138bo281b
2o2b2o2b2o2b2o2b2o2b2o2b2o2b2o2b2o2b2o2b2o2b2o2b2o2b2o2b2o2b2o2b2o2b2o
2b2o2b2o2b2o2b2o2b2o2b2o2b2o2b2o2b2o2b2o2b2o2b2o2b2o2b2o2b2o2b2o2b2o2b
2o2b2o2b2o2b2o2b2o2b2o2b2o1243bo138bo432bo138bo818bo138bo$1948bo2bo16b
3o100b3o16bo2bo1384bo2bo16b3o100b3o16bo2bo1684bo2bo16b3o100b3o16bo2bo
426bo2bo16b3o100b3o16bo2bo812bo2bo16b3o100b3o16bo2bo$1949b3o15bo2bo
100bo2bo15b3o1386b3o15bo2bo100bo2bo15b3o1686b3o15bo2bo100bo2bo15b3o
428b3o15bo2bo100bo2bo15b3o814b3o15bo2bo100bo2bo15b3o$1970bo100bo1428bo
100bo296b2o2b2o2b2o2b2o2b2o2b2o2b2o2b2o2b2o2b2o2b2o2b2o2b2o2b2o2b2o2b
2o2b2o2b2o2b2o2b2o2b2o2b2o2b2o2b2o2b2o2b2o2b2o2b2o2b2o2b2o2b2o2b2o2b2o
2b2o2b2o2b2o2b2o2b2o2b2o2b2o2b2o2b2o2b2o2b2o1258bo100bo470bo100bo856bo
100bo$1970bo100bo1428bo100bo296b2o2b2o2b2o2b2o2b2o2b2o2b2o2b2o2b2o2b2o
2b2o2b2o2b2o2b2o2b2o2b2o2b2o2b2o2b2o2b2o2b2o2b2o2b2o2b2o2b2o2b2o2b2o2b
2o2b2o2b2o2b2o2b2o2b2o2b2o2b2o2b2o2b2o2b2o2b2o2b2o2b2o2b2o2b2o2b2o
1258bo100bo470bo100bo856bo100bo$1967bobo102bobo1422bobo102bobo1722bobo
102bobo464bobo102bobo850bobo102bobo$2007b3o21b3o1503b3o21b3o1803b3o21b
3o546b3o21b3o930b3o21b3o$2007bo2bo19bo2bo1503bo2bo19bo2bo334b2o2b2o2b
2o2b2o2b2o2b2o2b2o2b2o2b2o2b2o2b2o2b2o2b2o2b2o2b2o2b2o2b2o2b2o2b2o2b2o
2b2o2b2o2b2o2b2o2b2o2b2o2b2o2b2o2b2o2b2o2b2o2b2o2b2o2b2o2b2o2b2o2b2o2b
2o2b2o2b2o2b2o2b2o2b2o2b2o1295bo2bo19bo2bo546bo2bo19bo2bo930bo2bo19bo
2bo$1987bobo17bo25bo17bobo1463bobo17bo25bo17bobo314b2o2b2o2b2o2b2o2b2o
2b2o2b2o2b2o2b2o2b2o2b2o2b2o2b2o2b2o2b2o2b2o2b2o2b2o2b2o2b2o2b2o2b2o2b
2o2b2o2b2o2b2o2b2o2b2o2b2o2b2o2b2o2b2o2b2o2b2o2b2o2b2o2b2o2b2o2b2o2b2o
2b2o2b2o2b2o2b2o1275bobo17bo25bo17bobo506bobo17bo25bo17bobo890bobo17bo
25bo17bobo$1990bo16bo25bo16bo1469bo16bo25bo16bo1769bo16bo25bo16bo512bo
16bo25bo16bo896bo16bo25bo16bo$1990bo17bobo19bobo17bo1469bo17bobo19bobo
17bo1769bo17bobo19bobo17bo512bo17bobo19bobo17bo896bo17bobo19bobo17bo$
1987bo2bo59bo2bo1463bo2bo59bo2bo314b2o2b2o2b2o2b2o2b2o2b2o2b2o2b2o2b2o
2b2o2b2o2b2o2b2o2b2o2b2o2b2o2b2o2b2o2b2o2b2o2b2o2b2o2b2o2b2o2b2o2b2o2b
2o2b2o2b2o2b2o2b2o2b2o2b2o2b2o2b2o2b2o2b2o2b2o2b2o2b2o2b2o2b2o2b2o2b2o
1275bo2bo59bo2bo506bo2bo59bo2bo890bo2bo59bo2bo$1988b3o59b3o1465b3o59b
3o315b2o2b2o2b2o2b2o2b2o2b2o2b2o2b2o2b2o2b2o2b2o2b2o2b2o2b2o2b2o2b2o2b
2o2b2o2b2o2b2o2b2o2b2o2b2o2b2o2b2o2b2o2b2o2b2o2b2o2b2o2b2o2b2o2b2o2b2o
2b2o2b2o2b2o2b2o2b2o2b2o2b2o2b2o2b2o2b2o1276b3o59b3o508b3o59b3o892b3o
59b3o$1950bobo136bobo1388bobo136bobo1688bobo136bobo430bobo136bobo816bo
bo136bobo$1949bo142bo1386bo142bo1686bo142bo428bo142bo814bo142bo$1949bo
142bo1386bo142bo271b2o2b2o2b2o2b2o2b2o2b2o2b2o2b2o2b2o2b2o2b2o2b2o2b2o
2b2o2b2o2b2o2b2o2b2o2b2o2b2o2b2o2b2o2b2o2b2o2b2o2b2o2b2o2b2o2b2o2b2o2b
2o2b2o2b2o2b2o2b2o2b2o2b2o2b2o2b2o2b2o2b2o2b2o2b2o2b2o2b2o2b2o1233bo
142bo428bo142bo814bo142bo$1949bo2bo15b3o100b3o15bo2bo1386bo2bo15b3o
100b3o15bo2bo271b2o2b2o2b2o2b2o2b2o2b2o2b2o2b2o2b2o2b2o2b2o2b2o2b2o2b
2o2b2o2b2o2b2o2b2o2b2o2b2o2b2o2b2o2b2o2b2o2b2o2b2o2b2o2b2o2b2o2b2o2b2o
2b2o2b2o2b2o2b2o2b2o2b2o2b2o2b2o2b2o2b2o2b2o2b2o2b2o2b2o2b2o1233bo2bo
15b3o100b3o15bo2bo428bo2bo15b3o100b3o15bo2bo814bo2bo15b3o100b3o15bo2bo
$1949b3o16bo2bo98bo2bo16b3o1386b3o16bo2bo98bo2bo16b3o1686b3o16bo2bo98b
o2bo16b3o428b3o16bo2bo98bo2bo16b3o814b3o16bo2bo98bo2bo16b3o$1968bo104b
o1424bo104bo1724bo104bo466bo104bo852bo104bo$1968bo104bo1424bo104bo290b
2o2b2o2b2o2b2o2b2o2b2o2b2o2b2o2b2o2b2o2b2o2b2o2b2o2b2o2b2o2b2o2b2o2b2o
2b2o2b2o2b2o2b2o2b2o2b2o2b2o2b2o2b2o2b2o2b2o2b2o2b2o2b2o2b2o2b2o2b2o2b
2o2b2o2b2o2b2o2b2o2b2o2b2o2b2o2b2o2b2o2b2o1252bo104bo466bo104bo852bo
104bo$1969bobo98bobo1426bobo98bobo291b2o2b2o2b2o2b2o2b2o2b2o2b2o2b2o2b
2o2b2o2b2o2b2o2b2o2b2o2b2o2b2o2b2o2b2o2b2o2b2o2b2o2b2o2b2o2b2o2b2o2b2o
2b2o2b2o2b2o2b2o2b2o2b2o2b2o2b2o2b2o2b2o2b2o2b2o2b2o2b2o2b2o2b2o2b2o2b
2o2b2o2b2o1253bobo98bobo468bobo98bobo854bobo98bobo$2007b3o21b3o1503b3o
21b3o1803b3o21b3o546b3o21b3o930b3o21b3o$2006bo2bo21bo2bo1501bo2bo21bo
2bo1801bo2bo21bo2bo544bo2bo21bo2bo928bo2bo21bo2bo$1989bobo17bo21bo17bo
bo1467bobo17bo21bo17bobo312b2o2b2o2b2o2b2o2b2o2b2o2b2o2b2o2b2o2b2o2b2o
2b2o2b2o2b2o2b2o2b2o2b2o2b2o2b2o2b2o2b2o2b2o2b2o2b2o2b2o2b2o2b2o2b2o2b
2o2b2o2b2o2b2o2b2o2b2o2b2o2b2o2b2o2b2o2b2o2b2o2b2o2b2o2b2o2b2o2b2o2b2o
1273bobo17bo21bo17bobo510bobo17bo21bo17bobo894bobo17bo21bo17bobo$1988b
o20bo21bo20bo1465bo20bo21bo20bo311b2o2b2o2b2o2b2o2b2o2b2o2b2o2b2o2b2o
2b2o2b2o2b2o2b2o2b2o2b2o2b2o2b2o2b2o2b2o2b2o2b2o2b2o2b2o2b2o2b2o2b2o2b
2o2b2o2b2o2b2o2b2o2b2o2b2o2b2o2b2o2b2o2b2o2b2o2b2o2b2o2b2o2b2o2b2o2b2o
2b2o2b2o1272bo20bo21bo20bo508bo20bo21bo20bo892bo20bo21bo20bo$1988bo17b
obo23bobo17bo1465bo17bobo23bobo17bo1765bo17bobo23bobo17bo508bo17bobo
23bobo17bo892bo17bobo23bobo17bo$1988bo2bo57bo2bo1465bo2bo57bo2bo1765bo
2bo57bo2bo508bo2bo57bo2bo892bo2bo57bo2bo$1988b3o59b3o1465b3o59b3o307b
2o2b2o2b2o2b2o2b2o2b2o2b2o2b2o2b2o2b2o2b2o2b2o2b2o2b2o2b2o2b2o2b2o2b2o
2b2o2b2o2b2o2b2o2b2o2b2o2b2o2b2o2b2o2b2o2b2o2b2o2b2o2b2o2b2o2b2o2b2o2b
2o2b2o2b2o2b2o2b2o2b2o2b2o2b2o2b2o2b2o2b2o2b2o2b2o1268b3o59b3o508b3o
59b3o892b3o59b3o$1948bobo140bobo1384bobo140bobo266b2o2b2o2b2o2b2o2b2o
2b2o2b2o2b2o2b2o2b2o2b2o2b2o2b2o2b2o2b2o2b2o2b2o2b2o2b2o2b2o2b2o2b2o2b
2o2b2o2b2o2b2o2b2o2b2o2b2o2b2o2b2o2b2o2b2o2b2o2b2o2b2o2b2o2b2o2b2o2b2o
2b2o2b2o2b2o2b2o2b2o2b2o2b2o2b2o1228bobo140bobo426bobo140bobo812bobo
140bobo$1951bo138bo1390bo138bo1690bo138bo432bo138bo818bo138bo$1951bo
138bo1390bo138bo1690bo138bo432bo138bo818bo138bo$1948bo2bo16b3o100b3o
16bo2bo1384bo2bo16b3o100b3o16bo2bo266b2o2b2o2b2o2b2o2b2o2b2o2b2o2b2o2b
2o2b2o2b2o2b2o2b2o2b2o2b2o2b2o2b2o2b2o2b2o2b2o2b2o2b2o2b2o2b2o2b2o2b2o
2b2o2b2o2b2o2b2o2b2o2b2o2b2o2b2o2b2o2b2o2b2o2b2o2b2o2b2o2b2o2b2o2b2o2b
2o2b2o2b2o2b2o2b2o1228bo2bo16b3o100b3o16bo2bo426bo2bo16b3o100b3o16bo2b
o812bo2bo16b3o100b3o16bo2bo$1949b3o15bo2bo100bo2bo15b3o1386b3o15bo2bo
100bo2bo15b3o267b2o2b2o2b2o2b2o2b2o2b2o2b2o2b2o2b2o2b2o2b2o2b2o2b2o2b
2o2b2o2b2o2b2o2b2o2b2o2b2o2b2o2b2o2b2o2b2o2b2o2b2o2b2o2b2o2b2o2b2o2b2o
2b2o2b2o2b2o2b2o2b2o2b2o2b2o2b2o2b2o2b2o2b2o2b2o2b2o2b2o2b2o2b2o2b2o
1229b3o15bo2bo100bo2bo15b3o428b3o15bo2bo100bo2bo15b3o814b3o15bo2bo100b
o2bo15b3o$1970bo100bo1428bo100bo1728bo100bo470bo100bo856bo100bo$1970bo
100bo1428bo100bo1728bo100bo470bo100bo856bo100bo$1967bobo102bobo1422bob
o102bobo285b2o2b2o2b2o2b2o2b2o2b2o2b2o2b2o2b2o2b2o2b2o2b2o2b2o2b2o2b2o
2b2o2b2o2b2o2b2o2b2o2b2o2b2o2b2o2b2o2b2o2b2o2b2o2b2o2b2o2b2o2b2o2b2o2b
2o2b2o2b2o2b2o2b2o2b2o2b2o2b2o2b2o2b2o2b2o2b2o2b2o2b2o2b2o2b2o1247bobo
102bobo464bobo102bobo850bobo102bobo$2007b3o21b3o1503b3o21b3o326b2o2b2o
2b2o2b2o2b2o2b2o2b2o2b2o2b2o2b2o2b2o2b2o2b2o2b2o2b2o2b2o2b2o2b2o2b2o2b
2o2b2o2b2o2b2o2b2o2b2o2b2o2b2o2b2o2b2o2b2o2b2o2b2o2b2o2b2o2b2o2b2o2b2o
2b2o2b2o2b2o2b2o2b2o2b2o2b2o2b2o2b2o2b2o2b2o1287b3o21b3o546b3o21b3o
930b3o21b3o$2007bo2bo19bo2bo1503bo2bo19bo2bo1803bo2bo19bo2bo546bo2bo
19bo2bo930bo2bo19bo2bo$1987bobo17bo25bo17bobo1463bobo17bo25bo17bobo
1763bobo17bo25bo17bobo506bobo17bo25bo17bobo890bobo17bo25bo17bobo$1990b
o16bo25bo16bo1469bo16bo25bo16bo309b2o2b2o2b2o2b2o2b2o2b2o2b2o2b2o2b2o
2b2o2b2o2b2o2b2o2b2o2b2o2b2o2b2o2b2o2b2o2b2o2b2o2b2o2b2o2b2o2b2o2b2o2b
2o2b2o2b2o2b2o2b2o2b2o2b2o2b2o2b2o2b2o2b2o2b2o2b2o2b2o2b2o2b2o2b2o2b2o
2b2o2b2o2b2o2b2o1270bo16bo25bo16bo512bo16bo25bo16bo896bo16bo25bo16bo$
1990bo17bobo19bobo17bo1469bo17bobo19bobo17bo309b2o2b2o2b2o2b2o2b2o2b2o
2b2o2b2o2b2o2b2o2b2o2b2o2b2o2b2o2b2o2b2o2b2o2b2o2b2o2b2o2b2o2b2o2b2o2b
2o2b2o2b2o2b2o2b2o2b2o2b2o2b2o2b2o2b2o2b2o2b2o2b2o2b2o2b2o2b2o2b2o2b2o
2b2o2b2o2b2o2b2o2b2o2b2o2b2o1270bo17bobo19bobo17bo512bo17bobo19bobo17b
o896bo17bobo19bobo17bo$1987bo2bo59bo2bo1463bo2bo59bo2bo1763bo2bo59bo2b
o506bo2bo59bo2bo890bo2bo59bo2bo$1988b3o59b3o1465b3o59b3o1765b3o59b3o
508b3o59b3o892b3o59b3o$1950bobo136bobo1388bobo136bobo268b2o2b2o2b2o2b
2o2b2o2b2o2b2o2b2o2b2o2b2o2b2o2b2o2b2o2b2o2b2o2b2o2b2o2b2o2b2o2b2o2b2o
2b2o2b2o10b2o2b2o2b2o2b2o2b2o2b2o2b2o2b2o2b2o2b2o2b2o2b2o2b2o2b2o2b2o
2b2o2b2o2b2o2b2o2b2o2b2o2b2o2b2o1230bobo136bobo430bobo136bobo816bobo
136bobo$1949bo142bo1386bo142bo267b2o2b2o2b2o2b2o2b2o2b2o2b2o2b2o2b2o2b
2o2b2o2b2o2b2o2b2o2b2o2b2o2b2o2b2o2b2o2b2o2b2o2b2o2b2o10b2o2b2o2b2o2b
2o2b2o2b2o2b2o2b2o2b2o2b2o2b2o2b2o2b2o2b2o2b2o2b2o2b2o2b2o2b2o2b2o2b2o
2b2o2b2o1229bo142bo428bo142bo814bo142bo$1949bo142bo1386bo142bo1686bo
142bo428bo142bo814bo142bo$1949bo2bo15b3o100b3o15bo2bo1386bo2bo15b3o
100b3o15bo2bo1686bo2bo15b3o100b3o15bo2bo428bo2bo15b3o100b3o15bo2bo814b
o2bo15b3o100b3o15bo2bo$1949b3o16bo2bo98bo2bo16b3o1386b3o16bo2bo98bo2bo
16b3o267b2o2b2o2b2o2b2o2b2o2b2o2b2o2b2o2b2o2b2o2b2o2b2o2b2o2b2o2b2o2b
2o2b2o2b2o2b2o2b2o2b2o2b2o2b2o10b2o2b2o2b2o2b2o2b2o2b2o2b2o2b2o2b2o2b
2o2b2o2b2o2b2o2b2o2b2o2b2o2b2o2b2o2b2o2b2o2b2o2b2o2b2o1229b3o16bo2bo
98bo2bo16b3o428b3o16bo2bo98bo2bo16b3o814b3o16bo2bo98bo2bo16b3o$1968bo
104bo1424bo104bo286b2o2b2o2b2o2b2o2b2o2b2o2b2o2b2o2b2o2b2o2b2o2b2o2b2o
2b2o2b2o2b2o2b2o2b2o2b2o2b2o2b2o2b2o2b2o10b2o2b2o2b2o2b2o2b2o2b2o2b2o
2b2o2b2o2b2o2b2o2b2o2b2o2b2o2b2o2b2o2b2o2b2o2b2o2b2o2b2o2b2o2b2o1248bo
104bo466bo104bo852bo104bo$1968bo104bo1424bo104bo1724bo104bo466bo104bo
852bo104bo$1969bobo98bobo1426bobo98bobo1726bobo98bobo468bobo98bobo854b
obo98bobo$2007b3o21b3o1503b3o21b3o326b2o2b2o2b2o2b2o2b2o2b2o2b2o2b2o2b
2o2b2o2b2o2b2o2b2o2b2o2b2o2b2o2b2o2b2o2b2o2b2o2b2o2b2o2b2o2b2o2b2o2b2o
2b2o2b2o2b2o2b2o2b2o2b2o2b2o2b2o2b2o2b2o2b2o2b2o2b2o2b2o2b2o2b2o2b2o2b
2o2b2o2b2o2b2o2b2o1287b3o21b3o546b3o21b3o930b3o21b3o$2006bo2bo21bo2bo
1501bo2bo21bo2bo325b2o2b2o2b2o2b2o2b2o2b2o2b2o2b2o2b2o2b2o2b2o2b2o2b2o
2b2o2b2o2b2o2b2o2b2o2b2o2b2o2b2o2b2o2b2o2b2o2b2o2b2o2b2o2b2o2b2o2b2o2b
2o2b2o2b2o2b2o2b2o2b2o2b2o2b2o2b2o2b2o2b2o2b2o2b2o2b2o2b2o2b2o2b2o2b2o
1286bo2bo21bo2bo544bo2bo21bo2bo928bo2bo21bo2bo$1989bobo17bo21bo17bobo
1467bobo17bo21bo17bobo1767bobo17bo21bo17bobo510bobo17bo21bo17bobo894bo
bo17bo21bo17bobo$1988bo20bo21bo20bo1465bo20bo21bo20bo1765bo20bo21bo20b
o508bo20bo21bo20bo892bo20bo21bo20bo$1988bo17bobo23bobo17bo1465bo17bobo
23bobo17bo307b2o2b2o2b2o2b2o2b2o2b2o2b2o2b2o2b2o2b2o2b2o2b2o2b2o2b2o2b
2o2b2o2b2o2b2o2b2o2b2o2b2o2b2o2b2o2b2o2b2o2b2o2b2o2b2o2b2o2b2o2b2o2b2o
2b2o2b2o2b2o2b2o2b2o2b2o2b2o2b2o2b2o2b2o2b2o2b2o2b2o2b2o2b2o2b2o1268bo
17bobo23bobo17bo508bo17bobo23bobo17bo892bo17bobo23bobo17bo$1988bo2bo
57bo2bo1465bo2bo57bo2bo307b2o2b2o2b2o2b2o2b2o2b2o2b2o2b2o2b2o2b2o2b2o
2b2o2b2o2b2o2b2o2b2o2b2o2b2o2b2o2b2o2b2o2b2o2b2o2b2o2b2o2b2o2b2o2b2o2b
2o2b2o2b2o2b2o2b2o2b2o2b2o2b2o2b2o2b2o2b2o2b2o2b2o2b2o2b2o2b2o2b2o2b2o
2b2o2b2o1268bo2bo57bo2bo508bo2bo57bo2bo892bo2bo57bo2bo$1988b3o59b3o
1465b3o59b3o1765b3o59b3o508b3o59b3o892b3o59b3o$1948bobo140bobo1384bobo
140bobo1684bobo140bobo426bobo140bobo812bobo140bobo$1951bo138bo1390bo
138bo269b2o2b2o2b2o2b2o2b2o2b2o2b2o2b2o2b2o2b2o2b2o2b2o2b2o2b2o2b2o2b
2o2b2o2b2o2b2o2b2o2b2o2b2o2b2o2b2o2b2o2b2o2b2o2b2o2b2o2b2o2b2o2b2o2b2o
2b2o2b2o2b2o2b2o2b2o2b2o2b2o2b2o2b2o2b2o2b2o2b2o2b2o2b2o2b2o1231bo138b
o432bo138bo818bo138bo$1951bo138bo1390bo138bo269b2o2b2o2b2o2b2o2b2o2b2o
2b2o2b2o2b2o2b2o2b2o2b2o2b2o2b2o2b2o2b2o2b2o2b2o2b2o2b2o2b2o2b2o2b2o2b
2o2b2o2b2o2b2o2b2o2b2o2b2o2b2o2b2o2b2o2b2o2b2o2b2o2b2o2b2o2b2o2b2o2b2o
2b2o2b2o2b2o2b2o2b2o2b2o2b2o1231bo138bo432bo138bo818bo138bo$1948bo2bo
16b3o100b3o16bo2bo1384bo2bo16b3o100b3o16bo2bo1684bo2bo16b3o100b3o16bo
2bo426bo2bo16b3o100b3o16bo2bo812bo2bo16b3o100b3o16bo2bo$1949b3o15bo2bo
100bo2bo15b3o1386b3o15bo2bo100bo2bo15b3o1686b3o15bo2bo100bo2bo15b3o
428b3o15bo2bo100bo2bo15b3o814b3o15bo2bo100bo2bo15b3o$1970bo100bo1428bo
100bo288b2o2b2o2b2o2b2o2b2o2b2o2b2o2b2o2b2o2b2o2b2o2b2o2b2o2b2o2b2o2b
2o2b2o2b2o2b2o2b2o2b2o2b2o2b2o2b2o2b2o2b2o2b2o2b2o2b2o2b2o2b2o2b2o2b2o
2b2o2b2o2b2o2b2o2b2o2b2o2b2o2b2o2b2o2b2o2b2o2b2o2b2o2b2o2b2o1250bo100b
o470bo100bo856bo100bo$1970bo100bo1428bo100bo288b2o2b2o2b2o2b2o2b2o2b2o
2b2o2b2o2b2o2b2o2b2o2b2o2b2o2b2o2b2o2b2o2b2o2b2o2b2o2b2o2b2o2b2o2b2o2b
2o2b2o2b2o2b2o2b2o2b2o2b2o2b2o2b2o2b2o2b2o2b2o2b2o2b2o2b2o2b2o2b2o2b2o
2b2o2b2o2b2o2b2o2b2o2b2o2b2o1250bo100bo470bo100bo856bo100bo$1967bobo
102bobo1422bobo102bobo1722bobo102bobo464bobo102bobo850bobo102bobo$
2007b3o21b3o1503b3o21b3o1803b3o21b3o546b3o21b3o930b3o21b3o$2007bo2bo
19bo2bo1503bo2bo19bo2bo330b2o2b2o2b2o2b2o2b2o2b2o2b2o2b2o2b2o2b2o2b2o
2b2o2b2o2b2o2b2o2b2o2b2o2b2o2b2o2b2o2b2o2b2o2b2o2b2o2b2o2b2o2b2o2b2o2b
2o2b2o2b2o2b2o2b2o2b2o2b2o2b2o2b2o2b2o2b2o2b2o2b2o2b2o2b2o2b2o2b2o2b2o
1291bo2bo19bo2bo546bo2bo19bo2bo930bo2bo19bo2bo$1987bobo17bo25bo17bobo
1463bobo17bo25bo17bobo310b2o2b2o2b2o2b2o2b2o2b2o2b2o2b2o2b2o2b2o2b2o2b
2o2b2o2b2o2b2o2b2o2b2o2b2o2b2o2b2o2b2o2b2o2b2o2b2o2b2o2b2o2b2o2b2o2b2o
2b2o2b2o2b2o2b2o2b2o2b2o2b2o2b2o2b2o2b2o2b2o2b2o2b2o2b2o2b2o2b2o2b2o
1271bobo17bo25bo17bobo506bobo17bo25bo17bobo890bobo17bo25bo17bobo$1990b
o16bo25bo16bo1469bo16bo25bo16bo1769bo16bo25bo16bo512bo16bo25bo16bo896b
o16bo25bo16bo$1990bo17bobo19bobo17bo1469bo17bobo19bobo17bo1769bo17bobo
19bobo17bo512bo17bobo19bobo17bo896bo17bobo19bobo17bo$1987bo2bo59bo2bo
1463bo2bo59bo2bo310b2o2b2o2b2o2b2o2b2o2b2o2b2o2b2o2b2o2b2o2b2o2b2o2b2o
2b2o2b2o2b2o2b2o2b2o2b2o2b2o2b2o2b2o2b2o2b2o2b2o2b2o2b2o2b2o2b2o2b2o2b
2o2b2o2b2o2b2o2b2o2b2o2b2o2b2o2b2o2b2o2b2o2b2o2b2o2b2o2b2o2b2o1271bo2b
o59bo2bo506bo2bo59bo2bo890bo2bo59bo2bo$1988b3o59b3o1465b3o59b3o311b2o
2b2o2b2o2b2o2b2o2b2o2b2o2b2o2b2o2b2o2b2o2b2o2b2o2b2o2b2o2b2o2b2o2b2o2b
2o2b2o2b2o2b2o2b2o2b2o2b2o2b2o2b2o2b2o2b2o2b2o2b2o2b2o2b2o2b2o2b2o2b2o
2b2o2b2o2b2o2b2o2b2o2b2o2b2o2b2o2b2o2b2o1272b3o59b3o508b3o59b3o892b3o
59b3o$1950bobo136bobo1388bobo136bobo1688bobo136bobo430bobo136bobo816bo
bo136bobo$1949bo142bo1386bo142bo1686bo142bo428bo142bo814bo142bo$1949bo
142bo1386bo142bo271b2o2b2o2b2o2b2o2b2o2b2o2b2o2b2o2b2o2b2o2b2o2b2o2b2o
2b2o2b2o2b2o2b2o2b2o2b2o2b2o2b2o2b2o2b2o2b2o2b2o2b2o2b2o2b2o2b2o2b2o2b
2o2b2o2b2o2b2o2b2o2b2o2b2o2b2o2b2o2b2o2b2o2b2o2b2o2b2o2b2o2b2o1233bo
142bo428bo142bo814bo142bo$1949bo2bo15b3o100b3o15bo2bo1386bo2bo15b3o
100b3o15bo2bo271b2o2b2o2b2o2b2o2b2o2b2o2b2o2b2o2b2o2b2o2b2o2b2o2b2o2b
2o2b2o2b2o2b2o2b2o2b2o2b2o2b2o2b2o2b2o2b2o2b2o2b2o2b2o2b2o2b2o2b2o2b2o
2b2o2b2o2b2o2b2o2b2o2b2o2b2o2b2o2b2o2b2o2b2o2b2o2b2o2b2o2b2o1233bo2bo
15b3o100b3o15bo2bo428bo2bo15b3o100b3o15bo2bo814bo2bo15b3o100b3o15bo2bo
$1949b3o16bo2bo98bo2bo16b3o1386b3o16bo2bo98bo2bo16b3o1686b3o16bo2bo98b
o2bo16b3o428b3o16bo2bo98bo2bo16b3o814b3o16bo2bo98bo2bo16b3o$1968bo104b
o1424bo104bo1724bo104bo466bo104bo852bo104bo$1968bo104bo1424bo104bo294b
2o2b2o2b2o2b2o2b2o2b2o2b2o2b2o2b2o2b2o2b2o2b2o2b2o2b2o2b2o2b2o2b2o2b2o
2b2o2b2o2b2o2b2o2b2o2b2o2b2o2b2o2b2o2b2o2b2o2b2o2b2o2b2o2b2o2b2o2b2o2b
2o2b2o2b2o2b2o2b2o2b2o2b2o2b2o2b2o1256bo104bo466bo104bo852bo104bo$
1969bobo98bobo1426bobo98bobo295b2o2b2o2b2o2b2o2b2o2b2o2b2o2b2o2b2o2b2o
2b2o2b2o2b2o2b2o2b2o2b2o2b2o2b2o2b2o2b2o2b2o2b2o2b2o2b2o2b2o2b2o2b2o2b
2o2b2o2b2o2b2o2b2o2b2o2b2o2b2o2b2o2b2o2b2o2b2o2b2o2b2o2b2o2b2o2b2o
1257bobo98bobo468bobo98bobo854bobo98bobo$2007b3o21b3o1503b3o21b3o1803b
3o21b3o546b3o21b3o930b3o21b3o$2006bo2bo21bo2bo1501bo2bo21bo2bo1801bo2b
o21bo2bo544bo2bo21bo2bo928bo2bo21bo2bo$1989bobo17bo21bo17bobo1467bobo
17bo21bo17bobo316b2o2b2o2b2o2b2o2b2o2b2o2b2o2b2o2b2o2b2o2b2o2b2o2b2o2b
2o2b2o2b2o2b2o2b2o2b2o2b2o2b2o2b2o2b2o2b2o2b2o2b2o2b2o2b2o2b2o2b2o2b2o
2b2o2b2o2b2o2b2o2b2o2b2o2b2o2b2o2b2o2b2o2b2o2b2o2b2o1277bobo17bo21bo
17bobo510bobo17bo21bo17bobo894bobo17bo21bo17bobo$1988bo20bo21bo20bo
1465bo20bo21bo20bo315b2o2b2o2b2o2b2o2b2o2b2o2b2o2b2o2b2o2b2o2b2o2b2o2b
2o2b2o2b2o2b2o2b2o2b2o2b2o2b2o2b2o2b2o2b2o2b2o2b2o2b2o2b2o2b2o2b2o2b2o
2b2o2b2o2b2o2b2o2b2o2b2o2b2o2b2o2b2o2b2o2b2o2b2o2b2o2b2o1276bo20bo21bo
20bo508bo20bo21bo20bo892bo20bo21bo20bo$1988bo17bobo23bobo17bo1465bo17b
obo23bobo17bo1765bo17bobo23bobo17bo508bo17bobo23bobo17bo892bo17bobo23b
obo17bo$1988bo2bo57bo2bo1465bo2bo57bo2bo1765bo2bo57bo2bo508bo2bo57bo2b
o892bo2bo57bo2bo$1988b3o59b3o1465b3o59b3o315b2o2b2o2b2o2b2o2b2o2b2o2b
2o2b2o2b2o2b2o2b2o2b2o2b2o2b2o2b2o2b2o2b2o2b2o2b2o2b2o2b2o2b2o2b2o2b2o
2b2o2b2o2b2o2b2o2b2o2b2o2b2o2b2o2b2o2b2o2b2o2b2o2b2o2b2o2b2o2b2o2b2o2b
2o2b2o2b2o1276b3o59b3o508b3o59b3o892b3o59b3o$1948bobo140bobo1384bobo
140bobo274b2o2b2o2b2o2b2o2b2o2b2o2b2o2b2o2b2o2b2o2b2o2b2o2b2o2b2o2b2o
2b2o2b2o2b2o2b2o2b2o2b2o2b2o2b2o2b2o2b2o2b2o2b2o2b2o2b2o2b2o2b2o2b2o2b
2o2b2o2b2o2b2o2b2o2b2o2b2o2b2o2b2o2b2o2b2o2b2o1236bobo140bobo426bobo
140bobo812bobo140bobo$1951bo138bo1390bo138bo1690bo138bo432bo138bo818bo
138bo$1951bo138bo1390bo138bo1690bo138bo432bo138bo818bo138bo$1948bo2bo
16b3o100b3o16bo2bo1384bo2bo16b3o100b3o16bo2bo278b2o2b2o2b2o2b2o2b2o2b
2o2b2o2b2o2b2o2b2o2b2o2b2o2b2o2b2o2b2o2b2o2b2o2b2o2b2o2b2o2b2o2b2o2b2o
2b2o2b2o2b2o2b2o2b2o2b2o2b2o2b2o2b2o2b2o2b2o2b2o2b2o2b2o2b2o2b2o2b2o2b
2o2b2o1240bo2bo16b3o100b3o16bo2bo426bo2bo16b3o100b3o16bo2bo812bo2bo16b
3o100b3o16bo2bo$1949b3o15bo2bo100bo2bo15b3o1386b3o15bo2bo100bo2bo15b3o
279b2o2b2o2b2o2b2o2b2o2b2o2b2o2b2o2b2o2b2o2b2o2b2o2b2o2b2o2b2o2b2o2b2o
2b2o2b2o2b2o2b2o2b2o2b2o2b2o2b2o2b2o2b2o2b2o2b2o2b2o2b2o2b2o2b2o2b2o2b
2o2b2o2b2o2b2o2b2o2b2o2b2o2b2o1241b3o15bo2bo100bo2bo15b3o428b3o15bo2bo
100bo2bo15b3o814b3o15bo2bo100bo2bo15b3o$1970bo100bo1428bo100bo1728bo
100bo470bo100bo856bo100bo$1970bo100bo1428bo100bo1728bo100bo470bo100bo
856bo100bo$1967bobo102bobo1422bobo102bobo297b2o2b2o2b2o2b2o2b2o2b2o2b
2o2b2o2b2o2b2o2b2o2b2o2b2o2b2o2b2o2b2o2b2o2b2o2b2o2b2o2b2o2b2o2b2o2b2o
2b2o2b2o2b2o2b2o2b2o2b2o2b2o2b2o2b2o2b2o2b2o2b2o2b2o2b2o2b2o2b2o2b2o2b
2o1259bobo102bobo464bobo102bobo850bobo102bobo$2007b3o21b3o1503b3o21b3o
338b2o2b2o2b2o2b2o2b2o2b2o2b2o2b2o2b2o2b2o2b2o2b2o2b2o2b2o2b2o2b2o2b2o
2b2o2b2o2b2o2b2o2b2o2b2o2b2o2b2o2b2o2b2o2b2o2b2o2b2o2b2o2b2o2b2o2b2o2b
2o2b2o2b2o2b2o2b2o2b2o2b2o2b2o1299b3o21b3o546b3o21b3o930b3o21b3o$2007b
o2bo19bo2bo1503bo2bo19bo2bo1803bo2bo19bo2bo546bo2bo19bo2bo930bo2bo19bo
2bo$1987bobo17bo25bo17bobo1463bobo17bo25bo17bobo1763bobo17bo25bo17bobo
506bobo17bo25bo17bobo890bobo17bo25bo17bobo$1990bo16bo25bo16bo1469bo16b
o25bo16bo325b2o2b2o2b2o2b2o2b2o2b2o2b2o2b2o2b2o2b2o2b2o2b2o2b2o2b2o2b
2o2b2o2b2o2b2o2b2o2b2o2b2o2b2o2b2o2b2o2b2o2b2o2b2o2b2o2b2o2b2o2b2o2b2o
2b2o2b2o2b2o2b2o2b2o2b2o2b2o2b2o1286bo16bo25bo16bo512bo16bo25bo16bo
896bo16bo25bo16bo$1990bo17bobo19bobo17bo1469bo17bobo19bobo17bo325b2o2b
2o2b2o2b2o2b2o2b2o2b2o2b2o2b2o2b2o2b2o2b2o2b2o2b2o2b2o2b2o2b2o2b2o2b2o
2b2o2b2o2b2o2b2o2b2o2b2o2b2o2b2o2b2o2b2o2b2o2b2o2b2o2b2o2b2o2b2o2b2o2b
2o2b2o2b2o2b2o1286bo17bobo19bobo17bo512bo17bobo19bobo17bo896bo17bobo
19bobo17bo$1987bo2bo59bo2bo1463bo2bo59bo2bo1763bo2bo59bo2bo506bo2bo59b
o2bo890bo2bo59bo2bo$1988b3o59b3o1465b3o59b3o1765b3o59b3o508b3o59b3o
892b3o59b3o$1950bobo136bobo1388bobo136bobo284b2o2b2o2b2o2b2o2b2o2b2o2b
2o2b2o2b2o2b2o2b2o2b2o2b2o2b2o2b2o2b2o2b2o2b2o2b2o2b2o2b2o2b2o2b2o2b2o
2b2o2b2o2b2o2b2o2b2o2b2o2b2o2b2o2b2o2b2o2b2o2b2o2b2o2b2o2b2o2b2o1246bo
bo136bobo430bobo136bobo816bobo136bobo$1949bo142bo1386bo142bo283b2o2b2o
2b2o2b2o2b2o2b2o2b2o2b2o2b2o2b2o2b2o2b2o2b2o2b2o2b2o2b2o2b2o2b2o2b2o2b
2o2b2o2b2o2b2o2b2o2b2o2b2o2b2o2b2o2b2o2b2o2b2o2b2o2b2o2b2o2b2o2b2o2b2o
2b2o2b2o2b2o1245bo142bo428bo142bo814bo142bo$1949bo142bo1386bo142bo
1686bo142bo428bo142bo814bo142bo$1949bo2bo15b3o100b3o15bo2bo1386bo2bo
15b3o100b3o15bo2bo1686bo2bo15b3o100b3o15bo2bo428bo2bo15b3o100b3o15bo2b
o814bo2bo15b3o100b3o15bo2bo$1949b3o16bo2bo98bo2bo16b3o1386b3o16bo2bo
98bo2bo16b3o287b2o2b2o2b2o2b2o2b2o2b2o2b2o2b2o2b2o2b2o2b2o2b2o2b2o2b2o
2b2o2b2o2b2o2b2o2b2o2b2o2b2o2b2o2b2o2b2o2b2o2b2o2b2o2b2o2b2o2b2o2b2o2b
2o2b2o2b2o2b2o2b2o2b2o2b2o1249b3o16bo2bo98bo2bo16b3o428b3o16bo2bo98bo
2bo16b3o814b3o16bo2bo98bo2bo16b3o$1968bo104bo1424bo104bo306b2o2b2o2b2o
2b2o2b2o2b2o2b2o2b2o2b2o2b2o2b2o2b2o2b2o2b2o2b2o2b2o2b2o2b2o2b2o2b2o2b
2o2b2o2b2o2b2o2b2o2b2o2b2o2b2o2b2o2b2o2b2o2b2o2b2o2b2o2b2o2b2o2b2o2b2o
1268bo104bo466bo104bo852bo104bo$1968bo104bo1424bo104bo1724bo104bo466bo
104bo852bo104bo$1969bobo98bobo1426bobo98bobo1726bobo98bobo468bobo98bob
o854bobo98bobo$2007b3o21b3o1503b3o21b3o350b2o2b2o2b2o2b2o2b2o2b2o2b2o
2b2o2b2o2b2o2b2o2b2o2b2o2b2o2b2o2b2o2b2o2b2o2b2o2b2o2b2o2b2o2b2o2b2o2b
2o2b2o2b2o2b2o2b2o2b2o2b2o2b2o2b2o2b2o2b2o2b2o1311b3o21b3o546b3o21b3o
930b3o21b3o$2006bo2bo21bo2bo1501bo2bo21bo2bo349b2o2b2o2b2o2b2o2b2o2b2o
2b2o2b2o2b2o2b2o2b2o2b2o2b2o2b2o2b2o2b2o2b2o2b2o2b2o2b2o2b2o2b2o2b2o2b
2o2b2o2b2o2b2o2b2o2b2o2b2o2b2o2b2o2b2o2b2o2b2o2b2o1310bo2bo21bo2bo544b
o2bo21bo2bo928bo2bo21bo2bo$1989bobo17bo21bo17bobo1467bobo17bo21bo17bob
o1767bobo17bo21bo17bobo510bobo17bo21bo17bobo894bobo17bo21bo17bobo$
1988bo20bo21bo20bo1465bo20bo21bo20bo1765bo20bo21bo20bo508bo20bo21bo20b
o892bo20bo21bo20bo$1988bo17bobo23bobo17bo1465bo17bobo23bobo17bo335b2o
2b2o2b2o2b2o2b2o2b2o2b2o2b2o2b2o2b2o2b2o2b2o2b2o2b2o2b2o2b2o2b2o2b2o2b
2o2b2o2b2o2b2o2b2o2b2o2b2o2b2o2b2o2b2o2b2o2b2o2b2o2b2o2b2o2b2o1296bo
17bobo23bobo17bo508bo17bobo23bobo17bo892bo17bobo23bobo17bo$1988bo2bo
57bo2bo1465bo2bo57bo2bo335b2o2b2o2b2o2b2o2b2o2b2o2b2o2b2o2b2o2b2o2b2o
2b2o2b2o2b2o2b2o2b2o2b2o2b2o2b2o2b2o2b2o2b2o2b2o2b2o2b2o2b2o2b2o2b2o2b
2o2b2o2b2o2b2o2b2o2b2o1296bo2bo57bo2bo508bo2bo57bo2bo892bo2bo57bo2bo$
1988b3o59b3o1465b3o59b3o1765b3o59b3o508b3o59b3o892b3o59b3o$1948bobo
140bobo1384bobo140bobo1684bobo140bobo426bobo140bobo812bobo140bobo$
1951bo138bo1390bo138bo301b2o2b2o2b2o2b2o2b2o2b2o2b2o2b2o2b2o2b2o2b2o2b
2o2b2o2b2o2b2o2b2o2b2o2b2o2b2o2b2o2b2o2b2o2b2o2b2o2b2o2b2o2b2o2b2o2b2o
2b2o2b2o2b2o1263bo138bo432bo138bo818bo138bo$1951bo138bo1390bo138bo301b
2o2b2o2b2o2b2o2b2o2b2o2b2o2b2o2b2o2b2o2b2o2b2o2b2o2b2o2b2o2b2o2b2o2b2o
2b2o2b2o2b2o2b2o2b2o2b2o2b2o2b2o2b2o2b2o2b2o2b2o2b2o2b2o1263bo138bo
432bo138bo818bo138bo$1948bo2bo16b3o100b3o16bo2bo1384bo2bo16b3o100b3o
16bo2bo1684bo2bo16b3o100b3o16bo2bo426bo2bo16b3o100b3o16bo2bo812bo2bo
16b3o100b3o16bo2bo$1949b3o15bo2bo100bo2bo15b3o1386b3o15bo2bo100bo2bo
15b3o1686b3o15bo2bo100bo2bo15b3o428b3o15bo2bo100bo2bo15b3o814b3o15bo2b
o100bo2bo15b3o$1970bo100bo1428bo100bo324b2o2b2o2b2o2b2o2b2o2b2o2b2o2b
2o2b2o2b2o2b2o2b2o2b2o2b2o2b2o2b2o2b2o2b2o2b2o2b2o2b2o2b2o2b2o2b2o2b2o
2b2o2b2o2b2o2b2o2b2o1286bo100bo470bo100bo856bo100bo$1970bo100bo1428bo
100bo324b2o2b2o2b2o2b2o2b2o2b2o2b2o2b2o2b2o2b2o2b2o2b2o2b2o2b2o2b2o2b
2o2b2o2b2o2b2o2b2o2b2o2b2o2b2o2b2o2b2o2b2o2b2o2b2o2b2o2b2o1286bo100bo
470bo100bo856bo100bo$1967bobo102bobo1422bobo102bobo1722bobo102bobo464b
obo102bobo850bobo102bobo$2007b3o21b3o1503b3o21b3o1803b3o21b3o546b3o21b
3o930b3o21b3o$2007bo2bo19bo2bo1503bo2bo19bo2bo370b2o2b2o2b2o2b2o2b2o2b
2o2b2o2b2o2b2o2b2o2b2o2b2o2b2o2b2o2b2o2b2o2b2o2b2o2b2o2b2o2b2o2b2o2b2o
2b2o2b2o2b2o1331bo2bo19bo2bo546bo2bo19bo2bo930bo2bo19bo2bo$1987bobo17b
o25bo17bobo1463bobo17bo25bo17bobo350b2o2b2o2b2o2b2o2b2o2b2o2b2o2b2o2b
2o2b2o2b2o2b2o2b2o2b2o2b2o2b2o2b2o2b2o2b2o2b2o2b2o2b2o2b2o2b2o2b2o2b2o
1311bobo17bo25bo17bobo506bobo17bo25bo17bobo890bobo17bo25bo17bobo$1990b
o16bo25bo16bo1469bo16bo25bo16bo1769bo16bo25bo16bo512bo16bo25bo16bo896b
o16bo25bo16bo$1990bo17bobo19bobo17bo1469bo17bobo19bobo17bo1769bo17bobo
19bobo17bo512bo17bobo19bobo17bo896bo17bobo19bobo17bo$1987bo2bo59bo2bo
1463bo2bo59bo2bo358b2o2b2o2b2o2b2o2b2o2b2o2b2o2b2o2b2o2b2o2b2o2b2o2b2o
2b2o2b2o2b2o2b2o2b2o2b2o2b2o2b2o2b2o1319bo2bo59bo2bo506bo2bo59bo2bo
890bo2bo59bo2bo$1988b3o59b3o1465b3o59b3o359b2o2b2o2b2o2b2o2b2o2b2o2b2o
2b2o2b2o2b2o2b2o2b2o2b2o2b2o2b2o2b2o2b2o2b2o2b2o2b2o2b2o2b2o1320b3o59b
3o508b3o59b3o892b3o59b3o$1950bobo136bobo1388bobo136bobo1688bobo136bobo
430bobo136bobo816bobo136bobo$1949bo142bo1386bo142bo1686bo142bo428bo
142bo814bo142bo$1949bo142bo1386bo142bo331b2o2b2o2b2o2b2o2b2o2b2o2b2o2b
2o2b2o2b2o2b2o2b2o2b2o2b2o2b2o2b2o1293bo142bo428bo142bo814bo142bo$
1949bo2bo15b3o100b3o15bo2bo1386bo2bo15b3o100b3o15bo2bo331b2o2b2o2b2o2b
2o2b2o2b2o2b2o2b2o2b2o2b2o2b2o2b2o2b2o2b2o2b2o2b2o1293bo2bo15b3o100b3o
15bo2bo428bo2bo15b3o100b3o15bo2bo814bo2bo15b3o100b3o15bo2bo$1949b3o16b
o2bo98bo2bo16b3o1386b3o16bo2bo98bo2bo16b3o1686b3o16bo2bo98bo2bo16b3o
428b3o16bo2bo98bo2bo16b3o814b3o16bo2bo98bo2bo16b3o$1968bo104bo1424bo
104bo1724bo104bo466bo104bo852bo104bo$1968bo104bo1424bo104bo362b2o2b2o
2b2o2b2o2b2o2b2o2b2o2b2o2b2o2b2o1324bo104bo466bo104bo852bo104bo$1969bo
bo98bobo1426bobo98bobo363b2o2b2o2b2o2b2o2b2o2b2o2b2o2b2o2b2o2b2o1325bo
bo98bobo468bobo98bobo854bobo98bobo$2007b3o21b3o1503b3o21b3o1803b3o21b
3o546b3o21b3o930b3o21b3o$2006bo2bo21bo2bo1501bo2bo21bo2bo1801bo2bo21bo
2bo544bo2bo21bo2bo928bo2bo21bo2bo$1989bobo17bo21bo17bobo1467bobo17bo
21bo17bobo1767bobo17bo21bo17bobo510bobo17bo21bo17bobo894bobo17bo21bo
17bobo$1988bo20bo21bo20bo1465bo20bo21bo20bo1765bo20bo21bo20bo508bo20bo
21bo20bo892bo20bo21bo20bo$1988bo17bobo23bobo17bo1465bo17bobo23bobo17bo
1765bo17bobo23bobo17bo508bo17bobo23bobo17bo892bo17bobo23bobo17bo$1988b
o2bo57bo2bo1465bo2bo57bo2bo1765bo2bo57bo2bo508bo2bo57bo2bo892bo2bo57bo
2bo$1988b3o59b3o1465b3o59b3o1765b3o59b3o508b3o59b3o892b3o59b3o$1948bob
o140bobo1384bobo140bobo1684bobo140bobo426bobo140bobo812bobo140bobo$
1951bo138bo1390bo138bo1690bo138bo432bo138bo818bo138bo$1951bo138bo1390b
o138bo1690bo138bo432bo138bo818bo138bo$1948bo2bo16b3o100b3o16bo2bo1384b
o2bo16b3o100b3o16bo2bo1684bo2bo16b3o100b3o16bo2bo426bo2bo16b3o100b3o
16bo2bo812bo2bo16b3o100b3o16bo2bo$1949b3o15bo2bo100bo2bo15b3o1386b3o
15bo2bo100bo2bo15b3o1686b3o15bo2bo100bo2bo15b3o428b3o15bo2bo100bo2bo
15b3o814b3o15bo2bo100bo2bo15b3o$1970bo100bo1428bo100bo1728bo100bo470bo
100bo856bo100bo$1970bo100bo1428bo100bo1728bo100bo470bo100bo856bo100bo$
1967bobo102bobo1422bobo102bobo1722bobo102bobo464bobo102bobo850bobo102b
obo$2007b3o21b3o1503b3o21b3o1803b3o21b3o546b3o21b3o930b3o21b3o$2007bo
2bo19bo2bo1503bo2bo19bo2bo1803bo2bo19bo2bo546bo2bo19bo2bo930bo2bo19bo
2bo$1987bobo17bo25bo17bobo1463bobo17bo25bo17bobo1763bobo17bo25bo17bobo
506bobo17bo25bo17bobo890bobo17bo25bo17bobo$1990bo16bo25bo16bo1469bo16b
o25bo16bo1769bo16bo25bo16bo512bo16bo25bo16bo896bo16bo25bo16bo$1990bo
17bobo19bobo17bo1469bo17bobo19bobo17bo1769bo17bobo19bobo17bo512bo17bob
o19bobo17bo896bo17bobo19bobo17bo$1987bo2bo59bo2bo1463bo2bo59bo2bo1763b
o2bo59bo2bo506bo2bo59bo2bo890bo2bo59bo2bo$1988b3o59b3o1465b3o59b3o
1765b3o59b3o508b3o59b3o892b3o59b3o$1950bobo136bobo1388bobo136bobo1688b
obo136bobo430bobo136bobo816bobo136bobo$1949bo142bo1386bo142bo1686bo
142bo428bo142bo814bo142bo$1949bo142bo1386bo142bo1686bo142bo428bo142bo
814bo142bo$1949bo2bo15b3o100b3o15bo2bo1386bo2bo15b3o100b3o15bo2bo1686b
o2bo15b3o100b3o15bo2bo428bo2bo15b3o100b3o15bo2bo814bo2bo15b3o100b3o15b
o2bo$1949b3o16bo2bo98bo2bo16b3o1386b3o16bo2bo98bo2bo16b3o1686b3o16bo2b
o98bo2bo16b3o428b3o16bo2bo98bo2bo16b3o814b3o16bo2bo98bo2bo16b3o$1968bo
104bo1424bo104bo1724bo104bo466bo104bo852bo104bo$1968bo104bo1424bo104bo
1724bo104bo466bo104bo852bo104bo$1969bobo98bobo1426bobo98bobo1726bobo
98bobo468bobo98bobo854bobo98bobo$2007b3o21b3o1503b3o21b3o1803b3o21b3o
546b3o21b3o930b3o21b3o$2006bo2bo21bo2bo1501bo2bo21bo2bo1801bo2bo21bo2b
o544bo2bo21bo2bo928bo2bo21bo2bo$1989bobo17bo21bo17bobo1467bobo17bo21bo
17bobo1767bobo17bo21bo17bobo510bobo17bo21bo17bobo894bobo17bo21bo17bobo
$1988bo20bo21bo20bo1465bo20bo21bo20bo1765bo20bo21bo20bo508bo20bo21bo
20bo892bo20bo21bo20bo$1988bo17bobo23bobo17bo1465bo17bobo23bobo17bo
1765bo17bobo23bobo17bo508bo17bobo23bobo17bo892bo17bobo23bobo17bo$1988b
o2bo57bo2bo1465bo2bo57bo2bo1765bo2bo57bo2bo508bo2bo57bo2bo892bo2bo57bo
2bo$1988b3o59b3o1465b3o59b3o1765b3o59b3o508b3o59b3o892b3o59b3o$1948bob
o140bobo1384bobo140bobo1684bobo140bobo426bobo140bobo812bobo140bobo$
1951bo138bo1390bo138bo1690bo138bo432bo138bo818bo138bo$1951bo138bo1390b
o138bo1690bo138bo432bo138bo818bo138bo$1948bo2bo16b3o100b3o16bo2bo1384b
o2bo16b3o100b3o16bo2bo1684bo2bo16b3o100b3o16bo2bo426bo2bo16b3o100b3o
16bo2bo812bo2bo16b3o100b3o16bo2bo$1949b3o15bo2bo100bo2bo15b3o1386b3o
15bo2bo100bo2bo15b3o1686b3o15bo2bo100bo2bo15b3o428b3o15bo2bo100bo2bo
15b3o814b3o15bo2bo100bo2bo15b3o$1970bo100bo1428bo100bo1728bo100bo470bo
100bo856bo100bo$1970bo100bo1428bo100bo1728bo100bo470bo100bo856bo100bo$
1967bobo102bobo1422bobo102bobo1722bobo102bobo464bobo102bobo850bobo102b
obo$2007b3o21b3o1503b3o21b3o1803b3o21b3o546b3o21b3o930b3o21b3o$2007bo
2bo19bo2bo1503bo2bo19bo2bo1803bo2bo19bo2bo546bo2bo19bo2bo930bo2bo19bo
2bo$1987bobo17bo25bo17bobo1463bobo17bo25bo17bobo1763bobo17bo25bo17bobo
506bobo17bo25bo17bobo890bobo17bo25bo17bobo$1990bo16bo25bo16bo1469bo16b
o25bo16bo1769bo16bo25bo16bo512bo16bo25bo16bo896bo16bo25bo16bo$1990bo
17bobo19bobo17bo1469bo17bobo19bobo17bo1769bo17bobo19bobo17bo512bo17bob
o19bobo17bo896bo17bobo19bobo17bo$1987bo2bo59bo2bo1463bo2bo59bo2bo1763b
o2bo59bo2bo506bo2bo59bo2bo890bo2bo59bo2bo$1988b3o59b3o1465b3o59b3o
1765b3o59b3o508b3o59b3o892b3o59b3o$1950bobo136bobo1388bobo136bobo1688b
obo136bobo430bobo136bobo816bobo136bobo$1949bo142bo1386bo142bo1686bo
142bo428bo142bo814bo142bo$1949bo142bo1386bo142bo1686bo142bo428bo142bo
814bo142bo$1949bo2bo15b3o100b3o15bo2bo1386bo2bo15b3o100b3o15bo2bo1686b
o2bo15b3o100b3o15bo2bo428bo2bo15b3o100b3o15bo2bo814bo2bo15b3o100b3o15b
o2bo$1949b3o16bo2bo98bo2bo16b3o1386b3o16bo2bo98bo2bo16b3o1686b3o16bo2b
o98bo2bo16b3o428b3o16bo2bo98bo2bo16b3o814b3o16bo2bo98bo2bo16b3o$1968bo
104bo1424bo104bo1724bo104bo466bo104bo852bo104bo$1968bo104bo1424bo104bo
1724bo104bo466bo104bo852bo104bo$1969bobo98bobo1426bobo98bobo1726bobo
98bobo468bobo98bobo854bobo98bobo$2007b3o21b3o1503b3o21b3o1803b3o21b3o
546b3o21b3o930b3o21b3o$2006bo2bo21bo2bo1501bo2bo21bo2bo1801bo2bo21bo2b
o544bo2bo21bo2bo928bo2bo21bo2bo$1989bobo17bo21bo17bobo1467bobo17bo21bo
17bobo1767bobo17bo21bo17bobo510bobo17bo21bo17bobo894bobo17bo21bo17bobo
$1988bo20bo21bo20bo1465bo20bo21bo20bo1765bo20bo21bo20bo508bo20bo21bo
20bo892bo20bo21bo20bo$1988bo17bobo23bobo17bo1465bo17bobo23bobo17bo
1765bo17bobo23bobo17bo508bo17bobo23bobo17bo892bo17bobo23bobo17bo$1988b
o2bo57bo2bo1465bo2bo57bo2bo1765bo2bo57bo2bo508bo2bo57bo2bo892bo2bo57bo
2bo$1988b3o59b3o1465b3o59b3o1765b3o59b3o508b3o59b3o892b3o59b3o$1948bob
o140bobo1384bobo140bobo1684bobo140bobo426bobo140bobo812bobo140bobo$
1951bo138bo1390bo138bo1690bo138bo432bo138bo818bo138bo$1951bo138bo1390b
o138bo1690bo138bo432bo138bo818bo138bo$1948bo2bo16b3o100b3o16bo2bo1384b
o2bo16b3o100b3o16bo2bo1684bo2bo16b3o100b3o16bo2bo426bo2bo16b3o100b3o
16bo2bo812bo2bo16b3o100b3o16bo2bo$1949b3o15bo2bo100bo2bo15b3o1386b3o
15bo2bo100bo2bo15b3o1686b3o15bo2bo100bo2bo15b3o428b3o15bo2bo100bo2bo
15b3o814b3o15bo2bo100bo2bo15b3o$1970bo100bo1428bo100bo1728bo100bo470bo
100bo856bo100bo$1970bo100bo1428bo100bo1728bo100bo470bo100bo856bo100bo$
1967bobo102bobo1422bobo102bobo1722bobo102bobo464bobo102bobo850bobo102b
obo$2007b3o21b3o1503b3o21b3o1803b3o21b3o546b3o21b3o930b3o21b3o$2007bo
2bo19bo2bo1503bo2bo19bo2bo1803bo2bo19bo2bo546bo2bo19bo2bo930bo2bo19bo
2bo$1987bobo17bo25bo17bobo1463bobo17bo25bo17bobo1763bobo17bo25bo17bobo
506bobo17bo25bo17bobo890bobo17bo25bo17bobo$1990bo16bo25bo16bo1469bo16b
o25bo16bo1769bo16bo25bo16bo512bo16bo25bo16bo896bo16bo25bo16bo$1990bo
17bobo19bobo17bo1469bo17bobo19bobo17bo1769bo17bobo19bobo17bo512bo17bob
o19bobo17bo896bo17bobo19bobo17bo$1987bo2bo59bo2bo1463bo2bo59bo2bo1763b
o2bo59bo2bo506bo2bo59bo2bo890bo2bo59bo2bo$1988b3o59b3o1465b3o59b3o
1765b3o59b3o508b3o59b3o892b3o59b3o$1950bobo136bobo1388bobo136bobo1688b
obo136bobo430bobo136bobo816bobo136bobo$1949bo142bo1386bo142bo1686bo
142bo428bo142bo814bo142bo$1949bo142bo1386bo142bo1686bo142bo428bo142bo
814bo142bo$1949bo2bo15b3o100b3o15bo2bo1386bo2bo15b3o100b3o15bo2bo1686b
o2bo15b3o100b3o15bo2bo428bo2bo15b3o100b3o15bo2bo814bo2bo15b3o100b3o15b
o2bo$1949b3o16bo2bo98bo2bo16b3o1386b3o16bo2bo98bo2bo16b3o1686b3o16bo2b
o98bo2bo16b3o428b3o16bo2bo98bo2bo16b3o814b3o16bo2bo98bo2bo16b3o$1968bo
104bo1424bo104bo1724bo104bo466bo104bo852bo104bo$1968bo104bo1424bo104bo
1724bo104bo466bo104bo852bo104bo$1969bobo98bobo1426bobo98bobo1726bobo
98bobo468bobo98bobo854bobo98bobo$2007b3o21b3o1503b3o21b3o1803b3o21b3o
546b3o21b3o930b3o21b3o$2006bo2bo21bo2bo1501bo2bo21bo2bo1801bo2bo21bo2b
o544bo2bo21bo2bo928bo2bo21bo2bo$1989bobo17bo21bo17bobo1467bobo17bo21bo
17bobo1767bobo17bo21bo17bobo510bobo17bo21bo17bobo894bobo17bo21bo17bobo
$1988bo20bo21bo20bo1465bo20bo21bo20bo1765bo20bo21bo20bo508bo20bo21bo
20bo892bo20bo21bo20bo$1988bo17bobo23bobo17bo1465bo17bobo23bobo17bo
1765bo17bobo23bobo17bo508bo17bobo23bobo17bo892bo17bobo23bobo17bo$1988b
o2bo57bo2bo1465bo2bo57bo2bo1765bo2bo57bo2bo508bo2bo57bo2bo892bo2bo57bo
2bo$1988b3o59b3o1465b3o59b3o1765b3o59b3o508b3o59b3o892b3o59b3o$1948bob
o140bobo1384bobo140bobo1684bobo140bobo426bobo140bobo812bobo140bobo$
1951bo138bo1390bo138bo1690bo138bo432bo138bo818bo138bo$1951bo138bo1390b
o138bo1690bo138bo432bo138bo818bo138bo$1948bo2bo16b3o100b3o16bo2bo1384b
o2bo16b3o100b3o16bo2bo1684bo2bo16b3o100b3o16bo2bo426bo2bo16b3o100b3o
16bo2bo812bo2bo16b3o100b3o16bo2bo$1949b3o15bo2bo100bo2bo15b3o1386b3o
15bo2bo100bo2bo15b3o1686b3o15bo2bo100bo2bo15b3o428b3o15bo2bo100bo2bo
15b3o814b3o15bo2bo100bo2bo15b3o$1970bo100bo1428bo100bo1728bo100bo470bo
100bo856bo100bo$1970bo100bo1428bo100bo1728bo100bo470bo100bo856bo100bo$
1967bobo102bobo1422bobo102bobo1722bobo102bobo464bobo102bobo850bobo102b
obo$2007b3o21b3o1503b3o21b3o1803b3o21b3o546b3o21b3o930b3o21b3o$2007bo
2bo19bo2bo1503bo2bo19bo2bo1803bo2bo19bo2bo546bo2bo19bo2bo930bo2bo19bo
2bo$1987bobo17bo25bo17bobo1463bobo17bo25bo17bobo1763bobo17bo25bo17bobo
506bobo17bo25bo17bobo890bobo17bo25bo17bobo$1990bo16bo25bo16bo1469bo16b
o25bo16bo1769bo16bo25bo16bo512bo16bo25bo16bo896bo16bo25bo16bo$1990bo
17bobo19bobo17bo1469bo17bobo19bobo17bo1769bo17bobo19bobo17bo512bo17bob
o19bobo17bo896bo17bobo19bobo17bo$1987bo2bo59bo2bo1463bo2bo59bo2bo1763b
o2bo59bo2bo506bo2bo59bo2bo890bo2bo59bo2bo$1988b3o59b3o1465b3o59b3o
1765b3o59b3o508b3o59b3o892b3o59b3o$1950bobo136bobo1388bobo136bobo1688b
obo136bobo430bobo136bobo816bobo136bobo$1949bo142bo1386bo142bo1686bo
142bo428bo142bo814bo142bo$1949bo142bo1386bo142bo1686bo142bo428bo142bo
814bo142bo$1949bo2bo15b3o100b3o15bo2bo1386bo2bo15b3o100b3o15bo2bo1686b
o2bo15b3o100b3o15bo2bo428bo2bo15b3o100b3o15bo2bo814bo2bo15b3o100b3o15b
o2bo$1949b3o16bo2bo98bo2bo16b3o1386b3o16bo2bo98bo2bo16b3o1686b3o16bo2b
o98bo2bo16b3o428b3o16bo2bo98bo2bo16b3o814b3o16bo2bo98bo2bo16b3o$1968bo
104bo1424bo104bo1724bo104bo466bo104bo852bo104bo$1968bo104bo1424bo104bo
1724bo104bo466bo104bo852bo104bo$1969bobo98bobo1426bobo98bobo1726bobo
98bobo468bobo98bobo854bobo98bobo$2007b3o21b3o1503b3o21b3o1803b3o21b3o
546b3o21b3o930b3o21b3o$2006bo2bo21bo2bo1501bo2bo21bo2bo1801bo2bo21bo2b
o544bo2bo21bo2bo928bo2bo21bo2bo$1989bobo17bo21bo17bobo1467bobo17bo21bo
17bobo1767bobo17bo21bo17bobo510bobo17bo21bo17bobo894bobo17bo21bo17bobo
$1988bo20bo21bo20bo1465bo20bo21bo20bo1765bo20bo21bo20bo508bo20bo21bo
20bo892bo20bo21bo20bo$1988bo17bobo23bobo17bo1465bo17bobo23bobo17bo
1765bo17bobo23bobo17bo508bo17bobo23bobo17bo892bo17bobo23bobo17bo$1988b
o2bo57bo2bo1465bo2bo57bo2bo1765bo2bo57bo2bo508bo2bo57bo2bo892bo2bo57bo
2bo$1988b3o59b3o1465b3o59b3o1765b3o59b3o508b3o59b3o892b3o59b3o$1948bob
o140bobo1384bobo140bobo1684bobo140bobo426bobo140bobo812bobo140bobo$
1951bo138bo1390bo138bo1690bo138bo432bo138bo818bo138bo$1951bo138bo1390b
o138bo1690bo138bo432bo138bo818bo138bo$1948bo2bo16b3o100b3o16bo2bo1384b
o2bo16b3o100b3o16bo2bo1684bo2bo16b3o100b3o16bo2bo426bo2bo16b3o100b3o
16bo2bo812bo2bo16b3o100b3o16bo2bo$1949b3o15bo2bo100bo2bo15b3o1386b3o
15bo2bo100bo2bo15b3o1686b3o15bo2bo100bo2bo15b3o428b3o15bo2bo100bo2bo
15b3o814b3o15bo2bo100bo2bo15b3o$1970bo100bo1428bo100bo1728bo100bo470bo
100bo856bo100bo$1970bo100bo1428bo100bo1728bo100bo470bo100bo856bo100bo$
1967bobo102bobo1422bobo102bobo1722bobo102bobo464bobo102bobo850bobo102b
obo$2007b3o21b3o1503b3o21b3o1803b3o21b3o546b3o21b3o930b3o21b3o$2007bo
2bo19bo2bo1503bo2bo19bo2bo1803bo2bo19bo2bo546bo2bo19bo2bo930bo2bo19bo
2bo$1987bobo17bo25bo17bobo1463bobo17bo25bo17bobo1763bobo17bo25bo17bobo
506bobo17bo25bo17bobo890bobo17bo25bo17bobo$1990bo16bo25bo16bo1469bo16b
o25bo16bo1769bo16bo25bo16bo512bo16bo25bo16bo896bo16bo25bo16bo$1990bo
17bobo19bobo17bo1469bo17bobo19bobo17bo1769bo17bobo19bobo17bo512bo17bob
o19bobo17bo896bo17bobo19bobo17bo$1987bo2bo59bo2bo1463bo2bo59bo2bo1763b
o2bo59bo2bo506bo2bo59bo2bo890bo2bo59bo2bo$1988b3o59b3o1465b3o59b3o
1765b3o59b3o508b3o59b3o892b3o59b3o$1950bobo136bobo1388bobo136bobo1688b
obo136bobo430bobo136bobo816bobo136bobo$1949bo142bo1386bo142bo1686bo
142bo428bo142bo814bo142bo$1949bo142bo1386bo142bo1686bo142bo428bo142bo
814bo142bo$1949bo2bo15b3o100b3o15bo2bo1386bo2bo15b3o100b3o15bo2bo1686b
o2bo15b3o100b3o15bo2bo428bo2bo15b3o100b3o15bo2bo814bo2bo15b3o100b3o15b
o2bo$1949b3o16bo2bo98bo2bo16b3o1386b3o16bo2bo98bo2bo16b3o1686b3o16bo2b
o98bo2bo16b3o428b3o16bo2bo98bo2bo16b3o814b3o16bo2bo98bo2bo16b3o$1968bo
104bo1424bo104bo1724bo104bo466bo104bo852bo104bo$1968bo104bo1424bo104bo
1724bo104bo466bo104bo852bo104bo$1969bobo98bobo1426bobo98bobo1726bobo
98bobo468bobo98bobo854bobo98bobo$2007b3o21b3o1503b3o21b3o1803b3o21b3o
546b3o21b3o930b3o21b3o$2006bo2bo21bo2bo1501bo2bo21bo2bo1801bo2bo21bo2b
o544bo2bo21bo2bo928bo2bo21bo2bo$1989bobo17bo21bo17bobo1467bobo17bo21bo
17bobo1767bobo17bo21bo17bobo510bobo17bo21bo17bobo894bobo17bo21bo17bobo
$1988bo20bo21bo20bo1465bo20bo21bo20bo1765bo20bo21bo20bo508bo20bo21bo
20bo892bo20bo21bo20bo$1988bo17bobo23bobo17bo1465bo17bobo23bobo17bo
1765bo17bobo23bobo17bo508bo17bobo23bobo17bo892bo17bobo23bobo17bo$1988b
o2bo57bo2bo1465bo2bo57bo2bo1765bo2bo57bo2bo508bo2bo57bo2bo892bo2bo57bo
2bo$1988b3o59b3o1465b3o59b3o1765b3o59b3o508b3o59b3o892b3o59b3o$1948bob
o140bobo1384bobo140bobo1684bobo140bobo426bobo140bobo812bobo140bobo$
1951bo138bo1390bo138bo1690bo138bo432bo138bo818bo138bo$1951bo138bo1390b
o138bo1690bo138bo432bo138bo818bo138bo$1948bo2bo16b3o100b3o16bo2bo1384b
o2bo16b3o100b3o16bo2bo1684bo2bo16b3o100b3o16bo2bo426bo2bo16b3o100b3o
16bo2bo812bo2bo16b3o100b3o16bo2bo$1949b3o15bo2bo100bo2bo15b3o1386b3o
15bo2bo100bo2bo15b3o1686b3o15bo2bo100bo2bo15b3o428b3o15bo2bo100bo2bo
15b3o814b3o15bo2bo100bo2bo15b3o$1970bo100bo1428bo100bo1728bo100bo470bo
100bo856bo100bo$1970bo100bo1428bo100bo1728bo100bo470bo100bo856bo100bo$
1967bobo102bobo1422bobo102bobo1722bobo102bobo464bobo102bobo850bobo102b
obo$2007b3o21b3o1503b3o21b3o1803b3o21b3o546b3o21b3o930b3o21b3o$2007bo
2bo19bo2bo1503bo2bo19bo2bo1803bo2bo19bo2bo546bo2bo19bo2bo930bo2bo19bo
2bo$1987bobo17bo25bo17bobo1463bobo17bo25bo17bobo1763bobo17bo25bo17bobo
506bobo17bo25bo17bobo890bobo17bo25bo17bobo$1990bo16bo25bo16bo1469bo16b
o25bo16bo1769bo16bo25bo16bo512bo16bo25bo16bo896bo16bo25bo16bo$1990bo
17bobo19bobo17bo1469bo17bobo19bobo17bo1769bo17bobo19bobo17bo512bo17bob
o19bobo17bo896bo17bobo19bobo17bo$1987bo2bo59bo2bo1463bo2bo59bo2bo1763b
o2bo59bo2bo506bo2bo59bo2bo890bo2bo59bo2bo$1988b3o59b3o1465b3o59b3o
1765b3o59b3o508b3o59b3o892b3o59b3o$1950bobo136bobo1388bobo136bobo1688b
obo136bobo430bobo136bobo816bobo136bobo$1949bo142bo1386bo142bo1686bo
142bo428bo142bo814bo142bo$1949bo142bo1386bo142bo1686bo142bo428bo142bo
814bo142bo$1949bo2bo15b3o100b3o15bo2bo1386bo2bo15b3o100b3o15bo2bo1686b
o2bo15b3o100b3o15bo2bo428bo2bo15b3o100b3o15bo2bo814bo2bo15b3o100b3o15b
o2bo$1949b3o16bo2bo98bo2bo16b3o1386b3o16bo2bo98bo2bo16b3o1686b3o16bo2b
o98bo2bo16b3o428b3o16bo2bo98bo2bo16b3o814b3o16bo2bo98bo2bo16b3o$1968bo
104bo1424bo104bo1724bo104bo466bo104bo852bo104bo$1968bo104bo1424bo104bo
1724bo104bo466bo104bo852bo104bo$1969bobo98bobo1426bobo98bobo1726bobo
98bobo468bobo98bobo854bobo98bobo$2007b3o21b3o1503b3o21b3o1803b3o21b3o
546b3o21b3o930b3o21b3o$2006bo2bo21bo2bo1501bo2bo21bo2bo1801bo2bo21bo2b
o544bo2bo21bo2bo928bo2bo21bo2bo$1989bobo17bo21bo17bobo1467bobo17bo21bo
17bobo1767bobo17bo21bo17bobo510bobo17bo21bo17bobo894bobo17bo21bo17bobo
$1988bo20bo21bo20bo1465bo20bo21bo20bo1765bo20bo21bo20bo508bo20bo21bo
20bo892bo20bo21bo20bo$1988bo17bobo23bobo17bo1465bo17bobo23bobo17bo
1765bo17bobo23bobo17bo508bo17bobo23bobo17bo892bo17bobo23bobo17bo$1988b
o2bo57bo2bo1465bo2bo57bo2bo1765bo2bo57bo2bo508bo2bo57bo2bo892bo2bo57bo
2bo$1988b3o59b3o1465b3o59b3o1765b3o59b3o508b3o59b3o892b3o59b3o$1948bob
o140bobo1384bobo140bobo1684bobo140bobo426bobo140bobo812bobo140bobo$
1951bo138bo1390bo138bo1690bo138bo432bo138bo818bo138bo$1951bo138bo1390b
o138bo1690bo138bo432bo138bo818bo138bo$1948bo2bo16b3o100b3o16bo2bo1384b
o2bo16b3o100b3o16bo2bo1684bo2bo16b3o100b3o16bo2bo426bo2bo16b3o100b3o
16bo2bo812bo2bo16b3o100b3o16bo2bo$1949b3o15bo2bo100bo2bo15b3o1386b3o
15bo2bo100bo2bo15b3o1686b3o15bo2bo100bo2bo15b3o428b3o15bo2bo100bo2bo
15b3o814b3o15bo2bo100bo2bo15b3o$1970bo100bo1428bo100bo1728bo100bo470bo
100bo856bo100bo$1970bo100bo1428bo100bo1728bo100bo470bo100bo856bo100bo$
1967bobo102bobo1422bobo102bobo1722bobo102bobo464bobo102bobo850bobo102b
obo$2007b3o21b3o1503b3o21b3o1803b3o21b3o546b3o21b3o930b3o21b3o$2007bo
2bo19bo2bo1503bo2bo19bo2bo1803bo2bo19bo2bo546bo2bo19bo2bo930bo2bo19bo
2bo$1987bobo17bo25bo17bobo1463bobo17bo25bo17bobo1763bobo17bo25bo17bobo
506bobo17bo25bo17bobo890bobo17bo25bo17bobo$1990bo16bo25bo16bo1469bo16b
o25bo16bo1769bo16bo25bo16bo512bo16bo25bo16bo896bo16bo25bo16bo$1990bo
17bobo19bobo17bo1469bo17bobo19bobo17bo1769bo17bobo19bobo17bo512bo17bob
o19bobo17bo896bo17bobo19bobo17bo$1987bo2bo59bo2bo1463bo2bo59bo2bo1763b
o2bo59bo2bo506bo2bo59bo2bo890bo2bo59bo2bo$1988b3o59b3o1465b3o59b3o
1765b3o59b3o508b3o59b3o892b3o59b3o$1950bobo136bobo1388bobo136bobo1688b
obo136bobo430bobo136bobo816bobo136bobo$1949bo142bo1386bo142bo1686bo
142bo428bo142bo814bo142bo$1949bo142bo1386bo142bo1686bo142bo428bo142bo
814bo142bo$1949bo2bo15b3o100b3o15bo2bo1386bo2bo15b3o100b3o15bo2bo1686b
o2bo15b3o100b3o15bo2bo428bo2bo15b3o100b3o15bo2bo814bo2bo15b3o100b3o15b
o2bo$1949b3o16bo2bo98bo2bo16b3o1386b3o16bo2bo98bo2bo16b3o1686b3o16bo2b
o98bo2bo16b3o428b3o16bo2bo98bo2bo16b3o814b3o16bo2bo98bo2bo16b3o$1968bo
104bo1424bo104bo1724bo104bo466bo104bo852bo104bo$1968bo104bo1424bo104bo
1724bo104bo466bo104bo852bo104bo$1969bobo98bobo1426bobo98bobo1726bobo
98bobo468bobo98bobo854bobo98bobo$2007b3o21b3o1503b3o21b3o1803b3o21b3o
546b3o21b3o930b3o21b3o$2006bo2bo21bo2bo1501bo2bo21bo2bo1801bo2bo21bo2b
o544bo2bo21bo2bo928bo2bo21bo2bo$1989bobo17bo21bo17bobo1467bobo17bo21bo
17bobo1767bobo17bo21bo17bobo510bobo17bo21bo17bobo894bobo17bo21bo17bobo
$1988bo20bo21bo20bo1465bo20bo21bo20bo1765bo20bo21bo20bo508bo20bo21bo
20bo892bo20bo21bo20bo$1988bo17bobo23bobo17bo1465bo17bobo23bobo17bo
1765bo17bobo23bobo17bo508bo17bobo23bobo17bo892bo17bobo23bobo17bo$1988b
o2bo57bo2bo1465bo2bo57bo2bo1765bo2bo57bo2bo508bo2bo57bo2bo892bo2bo57bo
2bo$1988b3o59b3o1465b3o59b3o1765b3o59b3o508b3o59b3o892b3o59b3o$1948bob
o140bobo1384bobo140bobo1684bobo140bobo426bobo140bobo812bobo140bobo$
1951bo138bo1390bo138bo1690bo138bo432bo138bo818bo138bo$1951bo138bo444bo
114bo830bo138bo744bo114bo830bo138bo432bo138bo818bo138bo$1948bo2bo16b3o
100b3o16bo2bo441b2o3b3o100b3o3b2o827bo2bo16b3o100b3o16bo2bo741b2o3b3o
100b3o3b2o827bo2bo16b3o100b3o16bo2bo426bo2bo16b3o100b3o16bo2bo812bo2bo
16b3o100b3o16bo2bo$1949b3o15bo2bo100bo2bo15b3o441bobo2bo2bo100bo2bo2bo
bo827b3o15bo2bo100bo2bo15b3o741bobo2bo2bo100bo2bo2bobo827b3o15bo2bo
100bo2bo15b3o428b3o15bo2bo100bo2bo15b3o814b3o15bo2bo100bo2bo15b3o$
1970bo100bo470bo100bo856bo100bo770bo100bo856bo100bo470bo100bo856bo100b
o$1970bo100bo470bo100bo856bo100bo770bo100bo856bo100bo470bo100bo856bo
100bo$1967bobo102bobo464bobo102bobo850bobo102bobo764bobo102bobo850bobo
102bobo464bobo102bobo850bobo102bobo$2007b3o21b3o1503b3o21b3o1803b3o21b
3o546b3o21b3o930b3o21b3o$2007bo2bo19bo2bo1503bo2bo19bo2bo1803bo2bo19bo
2bo546bo2bo19bo2bo930bo2bo19bo2bo$1987bobo17bo25bo17bobo473b2o128b2o
858bobo17bo25bo17bobo773b2o128b2o858bobo17bo25bo17bobo506bobo17bo25bo
17bobo890bobo17bo25bo17bobo$1990bo16bo25bo16bo477b2o126b2o862bo16bo25b
o16bo777b2o126b2o862bo16bo25bo16bo512bo16bo25bo16bo896bo16bo25bo16bo$
1990bo17bobo19bobo17bo476bo130bo861bo17bobo19bobo17bo776bo130bo861bo
17bobo19bobo17bo512bo17bobo19bobo17bo896bo17bobo19bobo17bo$1952b2o33bo
2bo59bo2bo34b2o1392b2o33bo2bo59bo2bo34b2o1692b2o33bo2bo59bo2bo34b2o
434b2o34bo2bo59bo2bo33b2o820b2o33bo2bo59bo2bo34b2o$1988b3o59b3o1465b3o
59b3o1765b3o59b3o508b3o59b3o892b3o59b3o3$1926bo21bo144bo21bo382bo21bo
144bo21bo768bo21bo144bo21bo682bo21bo144bo21bo768bo21bo144bo21bo382bo
21bo144bo21bo768bo21bo144bo21bo$1926b3o19b2o18b3o100b3o18b2o19b3o382b
3o19b2o18b3o100b3o18b2o19b3o768b3o19b2o18b3o100b3o18b2o19b3o682b3o19b
2o18b3o100b3o18b2o19b3o768b3o19b2o18b3o100b3o18b2o19b3o382b3o19b2o18b
3o100b3o18b2o19b3o768b3o19b2o18b3o100b3o18b2o19b3o$1929bo17bobo18bo2bo
98bo2bo18bobo17bo388bo17bobo18bo2bo98bo2bo18bobo17bo774bo17bobo18bo2bo
98bo2bo18bobo17bo688bo17bobo18bo2bo98bo2bo18bobo17bo774bo17bobo18bo2bo
98bo2bo18bobo17bo388bo17bobo18bo2bo98bo2bo18bobo17bo774bo17bobo18bo2bo
98bo2bo18bobo17bo$1928b2o38bo104bo38b2o386b2o38bo104bo38b2o772b2o38bo
104bo38b2o686b2o38bo104bo38b2o772b2o38bo104bo38b2o386b2o38bo104bo38b2o
772b2o38bo104bo38b2o$1968bo104bo466bo104bo852bo104bo766bo104bo852bo
104bo466bo104bo852bo104bo$1958bo10bobo98bobo10bo446bo10bobo98bobo10bo
832bo10bobo98bobo10bo746bo10bobo98bobo10bo832bo10bobo98bobo10bo446bo
10bobo98bobo10bo832bo10bobo98bobo10bo$1956b3o48b3o21b3o49b3o442b3o124b
3o828b3o48b3o21b3o49b3o742b3o124b3o828b3o48b3o21b3o49b3o442b3o49b3o21b
3o48b3o828b3o48b3o21b3o49b3o$1931bo23bo50bo2bo21bo2bo51bo23bo392bo23bo
130bo23bo778bo23bo50bo2bo21bo2bo51bo23bo692bo23bo130bo23bo778bo23bo50b
o2bo21bo2bo51bo23bo392bo23bo51bo2bo21bo2bo50bo23bo778bo23bo50bo2bo21bo
2bo51bo23bo$1930b3o7b2o13b2o32bobo17bo21bo17bobo33b2o13b2o7b3o390b3o7b
2o13b2o128b2o13b2o7b3o776b3o7b2o13b2o32bobo17bo21bo17bobo33b2o13b2o7b
3o690b3o7b2o13b2o128b2o13b2o7b3o776b3o7b2o13b2o32bobo17bo21bo17bobo33b
2o13b2o7b3o390b3o7b2o13b2o33bobo17bo21bo17bobo32b2o13b2o7b3o776b3o7b2o
13b2o32bobo17bo21bo17bobo33b2o13b2o7b3o$1930b3o8b2o45bo20bo21bo20bo46b
2o8b3o390b3o8b2o156b2o8b3o776b3o8b2o45bo20bo21bo20bo46b2o8b3o690b3o8b
2o156b2o8b3o776b3o8b2o45bo20bo21bo20bo46b2o8b3o390b3o8b2o46bo20bo21bo
20bo45b2o8b3o776b3o8b2o45bo20bo21bo20bo46b2o8b3o$1940bo47bo17bobo23bob
o17bo48bo410bo160bo796bo47bo17bobo23bobo17bo48bo710bo160bo796bo47bo17b
obo23bobo17bo48bo410bo48bo17bobo23bobo17bo47bo796bo47bo17bobo23bobo17b
o48bo$1928b2o3b2o53bo2bo57bo2bo54b2o3b2o386b2o3b2o172b2o3b2o772b2o3b2o
53bo2bo57bo2bo54b2o3b2o686b2o3b2o172b2o3b2o772b2o3b2o53bo2bo57bo2bo54b
2o3b2o386b2o3b2o54bo2bo57bo2bo53b2o3b2o772b2o3b2o53bo2bo57bo2bo54b2o3b
2o$1928b2o3b2o53b3o59b3o54b2o3b2o386b2o3b2o172b2o3b2o772b2o3b2o53b3o
59b3o54b2o3b2o686b2o3b2o172b2o3b2o772b2o3b2o53b3o59b3o54b2o3b2o386b2o
3b2o54b3o59b3o53b2o3b2o772b2o3b2o53b3o59b3o54b2o3b2o2$1952b3o132b3o
434b3o132b3o820b3o132b3o734b3o132b3o820b3o132b3o434b3o132b3o820b3o132b
3o$1933b2o16bo3bo130bo3bo16b2o396b2o16bo3bo130bo3bo16b2o782b2o16bo3bo
130bo3bo16b2o696b2o16bo3bo130bo3bo16b2o782b2o16bo3bo130bo3bo16b2o396b
2o16bo3bo130bo3bo16b2o782b2o16bo3bo130bo3bo16b2o$1933bobo14bo5bo11b3o
100b3o11bo5bo14bobo396bobo14bo5bo11b3o100b3o11bo5bo14bobo782bobo14bo5b
o11b3o100b3o11bo5bo14bobo696bobo14bo5bo11b3o100b3o11bo5bo14bobo782bobo
14bo5bo11b3o100b3o11bo5bo14bobo396bobo14bo5bo11b3o100b3o11bo5bo14bobo
782bobo14bo5bo11b3o100b3o11bo5bo14bobo$1935b2o13b2obob2o10bo2bo100bo2b
o10b2obob2o13b2o400b2o13b2obob2o10bo2bo100bo2bo10b2obob2o13b2o786b2o
13b2obob2o10bo2bo100bo2bo10b2obob2o13b2o700b2o13b2obob2o10bo2bo100bo2b
o10b2obob2o13b2o786b2o13b2obob2o10bo2bo100bo2bo10b2obob2o13b2o400b2o
13b2obob2o10bo2bo100bo2bo10b2obob2o13b2o786b2o13b2obob2o10bo2bo100bo2b
o10b2obob2o13b2o$1934b2o34bo100bo34b2o398b2o34bo100bo34b2o784b2o34bo
100bo34b2o698b2o34bo100bo34b2o784b2o34bo100bo34b2o398b2o34bo100bo34b2o
784b2o34bo100bo34b2o$1934b2o34bo100bo34b2o398b2o34bo100bo34b2o784b2o
34bo100bo34b2o698b2o34bo100bo34b2o784b2o34bo100bo34b2o398b2o34bo100bo
34b2o784b2o34bo100bo34b2o$1930b3o20bo13bobo102bobo13bo20b3o390b3o20bo
13bobo102bobo13bo20b3o776b3o20bo13bobo102bobo13bo20b3o690b3o20bo13bobo
102bobo13bo20b3o776b3o20bo13bobo102bobo13bo20b3o390b3o20bo13bobo102bob
o13bo20b3o776b3o20bo13bobo102bobo13bo20b3o$1952bobo21b2o29b3o21b3o30b
2o21bobo434bobo21b2o86b2o21bobo820bobo21b2o29b3o21b3o30b2o21bobo734bob
o21b2o86b2o21bobo820bobo21b2o29b3o21b3o30b2o21bobo434bobo21b2o30b3o21b
3o29b2o21bobo820bobo21b2o29b3o21b3o30b2o21bobo$1952bobo21b2o29bo2bo19b
o2bo30b2o21bobo434bobo21b2o86b2o21bobo820bobo21b2o29bo2bo19bo2bo30b2o
21bobo734bobo21b2o86b2o21bobo820bobo21b2o29bo2bo19bo2bo30b2o21bobo434b
obo21b2o30bo2bo19bo2bo29b2o21bobo820bobo21b2o29bo2bo19bo2bo30b2o21bobo
$1952b2o33bobo17bo25bo17bobo34b2o434b2o134b2o96b2o722b2o33bobo17bo25bo
17bobo34b2o734b2o134b2o96b2o722b2o33bobo17bo25bo17bobo34b2o434b2o34bob
o17bo25bo17bobo33b2o96b2o722b2o33bobo17bo25bo17bobo34b2o$1951bo38bo16b
o25bo16bo39bo432bo138bo95bo722bo38bo16bo25bo16bo39bo732bo138bo95bo722b
o38bo16bo25bo16bo39bo432bo39bo16bo25bo16bo38bo95bo722bo38bo16bo25bo16b
o39bo$1930b2o3b2o13b3o37bo17bobo19bobo17bo38b3o13b2o3b2o390b2o3b2o13b
3o136b3o13b2o3b2o63bo8bobo701b2o3b2o13b3o37bo17bobo19bobo17bo38b3o13b
2o3b2o690b2o3b2o13b3o136b3o13b2o3b2o63bo8bobo701b2o3b2o13b3o37bo17bobo
19bobo17bo38b3o13b2o3b2o390b2o3b2o13b3o38bo17bobo19bobo17bo37b3o13b2o
3b2o63bo8bobo701b2o3b2o13b3o37bo17bobo19bobo17bo38b3o13b2o3b2o$1949bo
3bo33bo2bo59bo2bo34bo3bo428bo3bo134bo3bo82b2o7b2o4bo716bo3bo33bo2bo59b
o2bo34bo3bo728bo3bo134bo3bo82b2o7b2o4bo716bo3bo33bo2bo59bo2bo34bo3bo
428bo3bo34bo2bo59bo2bo33bo3bo82b2o7b2o4bo716bo3bo33bo2bo59bo2bo34bo3bo
$1931bo3bo12bob3obo33b3o59b3o34bob3obo12bo3bo392bo3bo12bob3obo132bob3o
bo12bo3bo52b2o11b2o10b3o698bo3bo12bob3obo33b3o59b3o34bob3obo12bo3bo
692bo3bo12bob3obo132bob3obo12bo3bo52b2o11b2o10b3o698bo3bo12bob3obo33b
3o59b3o34bob3obo12bo3bo392bo3bo12bob3obo34b3o59b3o33bob3obo12bo3bo52b
2o11b2o10b3o698bo3bo12bob3obo33b3o59b3o34bob3obo12bo3bo$1932b3o14b5o4b
o124bo4b5o14b3o394b3o14b5o4bo124bo4b5o14b3o52b3o3bo7b3o8bo702b3o14b5o
4bo124bo4b5o14b3o694b3o14b5o4bo124bo4b5o14b3o52b3o3bo7b3o8bo702b3o14b
5o4bo124bo4b5o14b3o394b3o14b5o4bo124bo4b5o14b3o52b3o3bo7b3o8bo702b3o
14b5o4bo124bo4b5o14b3o$1932b3o24b2o120b2o24b3o394b3o24b2o120b2o24b3o
42b2o5bob2o4b4o5b2o9b2o701b3o24b2o120b2o24b3o694b3o24b2o120b2o24b3o42b
2o5bob2o4b4o5b2o9b2o701b3o24b2o120b2o24b3o394b3o24b2o120b2o24b3o42b2o
5bob2o4b4o5b2o9b2o701b3o24b2o120b2o24b3o$1958b2o122b2o446b2o122b2o68b
2o5bo2bo4bo4bo2b2o739b2o122b2o746b2o122b2o68b2o5bo2bo4bo4bo2b2o739b2o
122b2o446b2o122b2o68b2o5bo2bo4bo4bo2b2o739b2o122b2o$1968b3o5b3o84b3o5b
3o466b3o5b3o84b3o5b3o85bob2o5bo3bo2bo750b3o5b3o84b3o5b3o766b3o5b3o84b
3o5b3o85bob2o5bo3bo2bo750b3o5b3o84b3o5b3o466b3o5b3o84b3o5b3o85bob2o5bo
3bo2bo8b2o740b3o5b3o84b3o5b3o$1968bo2bo3bo3bo82bo3bo3bo2bo466bo2bo3bo
3bo82bo3bo3bo2bo88b3o3b2obo754bo2bo3bo3bo82bo3bo3bo2bo766bo2bo3bo3bo
82bo3bo3bo2bo88b3o3b2obo754bo2bo3bo3bo82bo3bo3bo2bo466bo2bo3bo3bo82bo
3bo3bo2bo88b3o3b2obo11bobo740bo2bo3bo3bo82bo3bo3bo2bo$1968bo5bo5bo80bo
5bo5bo466bo5bo5bo80bo5bo5bo89b2o761bo5bo5bo80bo5bo5bo766bo5bo5bo80bo5b
o5bo89b2o761bo5bo5bo80bo5bo5bo466bo5bo5bo80bo5bo5bo89b2o20bo740bo5bo5b
o80bo5bo5bo$1932b2o34bo2bo2bo5bo80bo5bo2bo2bo34b2o394b2o34bo2bo2bo5bo
80bo5bo2bo2bo34b2o780b2o34bo2bo2bo5bo80bo5bo2bo2bo34b2o694b2o34bo2bo2b
o5bo80bo5bo2bo2bo34b2o780b2o34bo2bo2bo5bo80bo5bo2bo2bo34b2o394b2o34bo
2bo2bo5bo80bo5bo2bo2bo34b2o780b2o34bo2bo2bo5bo80bo5bo2bo2bo34b2o$1932b
2o35bo102bo35b2o394b2o35bo33bo35bo32bo35b2o780b2o35bo102bo35b2o694b2o
35bo33bo35bo32bo35b2o780b2o35bo102bo35b2o394b2o35bo102bo35b2o780b2o35b
o102bo35b2o$1974bo32b3o21b3o33bo478bo28b2o3b3o21b3o3b2o27bo108bobo753b
o32b3o21b3o33bo778bo28b2o3b3o21b3o3b2o27bo108bobo753bo32b3o21b3o33bo
478bo33b3o21b3o32bo108bobo753bo32b3o21b3o33bo$1974b2o30bo2bo21bo2bo31b
2o478b2o26bobo2bo2bo21bo2bo2bobo25b2o109b2o753b2o30bo2bo21bo2bo31b2o
778b2o26bobo2bo2bo21bo2bo2bobo25b2o109b2o753b2o30bo2bo21bo2bo31b2o478b
2o31bo2bo21bo2bo30b2o105bo3b2o753b2o30bo2bo21bo2bo31b2o$1974b2o13bobo
17bo21bo17bobo14b2o478b2o34bo21bo33b2o109bo754b2o13bobo17bo21bo17bobo
14b2o778b2o34bo21bo33b2o109bo754b2o13bobo17bo21bo17bobo14b2o478b2o14bo
bo17bo21bo17bobo13b2o105b3obo754b2o13bobo17bo21bo17bobo14b2o$1973b2o2b
o10bo20bo21bo20bo11bo2b2o476b2o2bo32bo21bo31bo2b2o862b2o2bo10bo20bo21b
o20bo11bo2b2o776b2o2bo32bo21bo31bo2b2o862b2o2bo10bo20bo21bo20bo11bo2b
2o476b2o2bo11bo20bo21bo20bo10bo2b2o103bobo756b2o2bo10bo20bo21bo20bo11b
o2b2o$1974bobo11bo17bobo23bobo17bo12bobo478bobo30bobo23bobo29bobo864bo
bo11bo17bobo23bobo17bo12bobo778bobo30bobo23bobo29bobo864bobo11bo17bobo
23bobo17bo12bobo478bobo12bo17bobo23bobo17bo11bobo864bobo11bo17bobo23bo
bo17bo12bobo$1975b2o11bo2bo57bo2bo12b2o480b2o88b2o866b2o11bo2bo57bo2bo
12b2o780b2o88b2o866b2o11bo2bo57bo2bo12b2o480b2o12bo2bo57bo2bo11b2o866b
2o11bo2bo57bo2bo12b2o$1954bo7b2o24b3o59b3o25b2o7bo438bo7b2o114b2o7bo
88b2o734bo7b2o24b3o59b3o25b2o7bo738bo7b2o114b2o7bo88b2o734bo7b2o24b3o
59b3o25b2o7bo438bo7b2o25b3o59b3o24b2o7bo88b2o734bo7b2o24b3o59b3o25b2o
7bo$1953b3o7b2o112b2o7b3o436b3o7b2o30b2o49b2o29b2o7b3o87b2o6bo726b3o7b
2o112b2o7b3o736b3o7b2o30b2o49b2o29b2o7b3o87b2o6bo726b3o7b2o112b2o7b3o
436b3o7b2o112b2o7b3o87b2o733b3o7b2o112b2o7b3o$1952b5o5bo9b2o3b2o84b2o
3b2o9bo5b5o434b5o5bo9b2o3b2o17b2o47b2o16b2o3b2o9bo5b5o95b2o723b5o5bo9b
2o3b2o84b2o3b2o9bo5b5o734b5o5bo9b2o3b2o17b2o47b2o16b2o3b2o9bo5b5o95b2o
723b5o5bo9b2o3b2o84b2o3b2o9bo5b5o434b5o5bo9b2o3b2o84b2o3b2o9bo5b5o820b
5o5bo9b2o3b2o84b2o3b2o9bo5b5o$1951b2o3b2o14b2o3b2o84b2o3b2o14b2o3b2o
432b2o3b2o14b2o3b2o16bo51bo15b2o3b2o14b2o3b2o93b2o723b2o3b2o14b2o3b2o
84b2o3b2o14b2o3b2o732b2o3b2o14b2o3b2o16bo51bo15b2o3b2o14b2o3b2o93b2o
723b2o3b2o14b2o3b2o84b2o3b2o14b2o3b2o432b2o3b2o14b2o3b2o84b2o3b2o14b2o
3b2o74b2o742b2o3b2o14b2o3b2o84b2o3b2o14b2o3b2o$6098b2o$1974b3o88b3o
478b3o88b3o864b3o88b3o778b3o88b3o864b3o88b3o478b3o88b3o97bo766b3o88b3o
$1956b2o16b3o88b3o16b2o442b2o16b3o88b3o16b2o828b2o16b3o88b3o16b2o742b
2o16b3o88b3o16b2o828b2o16b3o88b3o16b2o442b2o16b3o88b3o16b2o828b2o16b3o
88b3o16b2o$1958bo16bo90bo16bo446bo16bo90bo16bo832bo16bo90bo16bo746bo
16bo90bo16bo832bo16bo90bo16bo446bo16bo90bo16bo832bo16bo90bo16bo$1955bo
130bo440bo32bo65bo31bo826bo130bo740bo32bo65bo31bo826bo130bo440bo130bo
826bo130bo$1955bo2bo48b3o21b3o49bo2bo440bo2bo29b2o18b3o21b3o18b2o28bo
2bo104bobo719bo2bo48b3o21b3o49bo2bo740bo2bo29b2o18b3o21b3o18b2o28bo2bo
104bobo719bo2bo48b3o21b3o49bo2bo440bo2bo49b3o21b3o48bo2bo826bo2bo48b3o
21b3o49bo2bo$1954b2ob2o48bo2bo19bo2bo49b2ob2o438b2ob2o28bobo18bo2bo19b
o2bo18bobo27b2ob2o104b2o718b2ob2o48bo2bo19bo2bo49b2ob2o738b2ob2o28bobo
18bo2bo19bo2bo18bobo27b2ob2o104b2o718b2ob2o48bo2bo19bo2bo49b2ob2o438b
2ob2o49bo2bo19bo2bo48b2ob2o824b2ob2o48bo2bo19bo2bo49b2ob2o$1955b2o50bo
25bo51b2o440b2o51bo25bo50b2o105bo638b2o80b2o50bo25bo51b2o740b2o51bo25b
o50b2o105bo638b2o80b2o50bo25bo51b2o440b2o51bo25bo50b2o744b2o80b2o50bo
25bo51b2o$2007bo25bo546bo25bo797bo132bo25bo846bo25bo797bo132bo25bo546b
o25bo797bo132bo25bo$1964b2o8b2o21bo10bobo19bobo10bo21b2o8b2o460b2o8b2o
21bo10bobo19bobo10bo21b2o8b2o754bobo7b2o78b2o8b2o21bo10bobo19bobo10bo
21b2o8b2o760b2o8b2o21bo10bobo19bobo10bo21b2o8b2o754bobo7b2o78b2o8b2o
21bo10bobo19bobo10bo21b2o8b2o460b2o8b2o21bo10bobo19bobo10bo21b2o8b2o
754bobo7b2o78b2o8b2o21bo10bobo19bobo10bo21b2o8b2o$1953b2o3b2o4b2o8b2o
19b3o45b3o19b2o8b2o5b2o3b2o436b2o3b2o5b2o8b2o19b3o45b3o19b2o8b2o4b2o3b
2o744b2o7b2o67b2o3b2o4b2o8b2o19b3o45b3o19b2o8b2o5b2o3b2o736b2o3b2o5b2o
8b2o19b3o45b3o19b2o8b2o4b2o3b2o744b2o7b2o67b2o3b2o4b2o8b2o19b3o45b3o
19b2o8b2o5b2o3b2o436b2o3b2o5b2o8b2o19b3o45b3o19b2o8b2o4b2o3b2o744b2o7b
2o67b2o3b2o4b2o8b2o19b3o45b3o19b2o8b2o5b2o3b2o$1953b2o3b2o34bo51bo35b
2o3b2o436b2o3b2o35bo51bo34b2o3b2o750b2o10bo4bo54b2o3b2o34bo51bo35b2o3b
2o736b2o3b2o35bo51bo34b2o3b2o750b2o10bo4bo54b2o3b2o34bo51bo35b2o3b2o
436b2o3b2o35bo51bo34b2o3b2o750b2o10bo4bo54b2o3b2o34bo51bo35b2o3b2o$
1954b5o20b2o13b2o49b2o13b2o21b5o438b5o21b2o13b2o49b2o13b2o20b5o111bo
638b3o10bo4bobo53b5o20b2o13b2o49b2o13b2o21b5o738b5o21b2o13b2o49b2o13b
2o20b5o111bo638b3o10bo4bobo53b5o20b2o13b2o49b2o13b2o21b5o438b5o21b2o
13b2o49b2o13b2o20b5o750b3o10bo4bobo53b5o20b2o13b2o49b2o13b2o21b5o$
1955bobo22b2o77b2o23bobo440bobo23b2o77b2o22bobo113b2o637b2o10bo7b2o4b
2o46bobo22b2o77b2o23bobo740bobo23b2o77b2o22bobo113b2o637b2o10bo7b2o4b
2o46bobo22b2o77b2o23bobo440bobo23b2o77b2o22bobo752b2o10bo7b2o4b2o46bob
o22b2o77b2o23bobo$1979bo81bo490bo81bo136b2o641b2o2b2o11b2o4b2o70bo81bo
790bo81bo136b2o641b2o2b2o11b2o4b2o70bo81bo490bo81bo779b2o2b2o11b2o4b2o
70bo81bo$1955b3o126b3o260bo179b3o126b3o755b2o2bo2b2o8b2o52b3o126b3o
560bo179b3o126b3o755b2o2bo2b2o8b2o52b3o126b3o260bo179b3o126b3o755b2o2b
o2b2o8b2o52b3o126b3o$2347b3o1069b4o5bobo746b3o1069b4o5bobo446b3o1069b
4o5bobo$2350bo1069bo7bo751bo1069bo7bo451bo1069bo7bo$1991b3o53b3o299b2o
213b3o53b3o898b3o53b3o599b2o213b3o53b3o898b3o53b3o299b2o213b3o53b3o
898b3o53b3o$1972bo17bo3bo51bo3bo17bo476bo17bo3bo51bo3bo17bo860bo17bo3b
o51bo3bo17bo776bo17bo3bo51bo3bo17bo860bo17bo3bo51bo3bo17bo476bo17bo3bo
51bo3bo17bo860bo17bo3bo51bo3bo17bo$1962b2o3b2o3b2o15bo5bo11b3o21b3o11b
o5bo15b2o3b2o3b2o456b2o3b2o3b2o15bo5bo11b3o21b3o11bo5bo15b2o3b2o3b2o
58b2o45b2o19bobo711b2o3b2o3b2o15bo5bo11b3o21b3o11bo5bo15b2o3b2o3b2o
756b2o3b2o3b2o15bo5bo11b3o21b3o11bo5bo15b2o3b2o3b2o58b2o45b2o19bobo
711b2o3b2o3b2o15bo5bo11b3o21b3o11bo5bo15b2o3b2o3b2o456b2o3b2o3b2o15bo
5bo11b3o21b3o11bo5bo15b2o3b2o3b2o58b2o45b2o733b2o3b2o3b2o15bo5bo11b3o
21b3o11bo5bo15b2o3b2o3b2o$1955b2o14bobo15b2obob2o10bo2bo21bo2bo10b2obo
b2o15bobo14b2o442b2o14bobo15b2obob2o10bo2bo21bo2bo10b2obob2o15bobo14b
2o51bo48bo19b2o630bobo71b2o14bobo15b2obob2o10bo2bo21bo2bo10b2obob2o15b
obo14b2o742b2o14bobo15b2obob2o10bo2bo21bo2bo10b2obob2o15bobo14b2o51bo
48bo19b2o630bobo71b2o14bobo15b2obob2o10bo2bo21bo2bo10b2obob2o15bobo14b
2o442b2o14bobo15b2obob2o10bo2bo21bo2bo10b2obob2o15bobo14b2o51bo48bo
651bobo71b2o14bobo15b2obob2o10bo2bo21bo2bo10b2obob2o15bobo14b2o$1955b
2o6bo3bo41bo21bo41bo3bo6b2o442b2o6bo3bo41bo21bo41bo3bo6b2o39bo9bobo35b
2o12bo18bo631b2o72b2o6bo3bo41bo21bo41bo3bo6b2o742b2o6bo3bo41bo21bo41bo
3bo6b2o39bo9bobo35b2o12bo18bo631b2o72b2o6bo3bo41bo21bo41bo3bo6b2o442b
2o6bo3bo41bo21bo41bo3bo6b2o39bo9bobo35b2o12bo650b2o72b2o6bo3bo41bo21bo
41bo3bo6b2o$1964b3o42bo21bo42b3o274b3o183b3o42bo21bo42b3o47bobo8b2o36b
2o4bo7bo8b2o641bo81b3o42bo21bo42b3o574b3o183b3o42bo21bo42b3o47bobo8b2o
36b2o4bo7bo8b2o641bo81b3o42bo21bo42b3o274b3o183b3o42bo21bo42b3o47bobo
8b2o36b2o4bo7bo8b2o641bo81b3o42bo21bo42b3o$1964b3o25bo13bobo23bobo13bo
25b3o273bo3bo182b3o25bo13bobo23bobo13bo25b3o37b2o6b2o3bo42b2o5b2o8bo8b
2o723b3o25bo13bobo23bobo13bo25b3o573bo3bo182b3o25bo13bobo23bobo13bo25b
3o37b2o6b2o3bo42b2o5b2o8bo8b2o723b3o25bo13bobo23bobo13bo25b3o273bo3bo
182b3o25bo13bobo23bobo13bo25b3o37b2o6b2o3bo42b2o5b2o8bo8b2o723b3o25bo
13bobo23bobo13bo25b3o$1991bobo21b2o7b2o21bobo514bobo21b2o7b2o21bobo63b
obo4b2obo3bo34b2o5b3o5bo2b2o4bo761bobo21b2o7b2o21bobo814bobo21b2o7b2o
21bobo63bobo4b2obo3bo34b2o5b3o5bo2b2o4bo761bobo21b2o7b2o21bobo514bobo
21b2o7b2o21bobo63bobo4b2obo3bo34b2o5b3o5bo2b2o4bo761bobo21b2o7b2o21bob
o$1991bobo21b2o7b2o21bobo299bo5bo208bobo21b2o7b2o21bobo53b2o7b3o4b3obo
3bo34b2o6b2o6b5ob2o762bobo21b2o7b2o21bobo599bo5bo208bobo21b2o7b2o21bob
o53b2o7b3o4b3obo3bo34b2o6b2o6b5ob2o762bobo21b2o7b2o21bobo299bo5bo208bo
bo21b2o7b2o21bobo53b2o7b3o4b3obo3bo34b2o6b2o6b5ob2o762bobo21b2o7b2o21b
obo$1967bo23b2o55b2o23bo275b2o3b2o184bo23b2o55b2o23bo29b2o6b3o4bo2b2ob
obo46b2o4bo744bo23b2o55b2o23bo575b2o3b2o184bo23b2o55b2o23bo29b2o6b3o4b
o2b2obobo46b2o4bo744bo23b2o55b2o23bo275b2o3b2o184bo23b2o55b2o23bo29b2o
6b3o4bo2b2obobo46b2o4bo744bo23b2o55b2o23bo$1966b3o21bo59bo21b3o464b3o
21bo59bo21b3o37b3o4b2o4bo47b2o657bo90b3o21bo59bo21b3o764b3o21bo59bo21b
3o37b3o4b2o4bo47b2o657bo90b3o21bo59bo21b3o464b3o21bo59bo21b3o37b3o4b2o
4bo47b2o657bo90b3o21bo59bo21b3o$1965bo3bo19b3o57b3o19bo3bo462bo3bo19b
3o57b3o19bo3bo37bobo68bobo643b2o25bo64bo3bo19b3o57b3o19bo3bo762bo3bo
19b3o57b3o19bo3bo37bobo68bobo643b2o25bo64bo3bo19b3o57b3o19bo3bo462bo3b
o19b3o57b3o19bo3bo37bobo68bobo26bo2bo26bo2bo26bo2bo26bo2bo26bo2bo26bo
2bo26bo2bo26bo2bo26bo2bo26bo2bo26bo2bo26bo2bo26bo2bo26bo2bo26bo2bo26bo
2bo26bo2bo26bo2bo26bo2bo26bo2bo26bo2bo13b2o25bo64bo3bo19b3o57b3o19bo3b
o$1967bo20bo3bo55bo3bo20bo278bo24bo162bo20bo3bo55bo3bo20bo40b2o71bo11b
4o628b2o23bobo65bo20bo3bo55bo3bo20bo578bo24bo162bo20bo3bo55bo3bo20bo
40b2o71bo11b4o628b2o23bobo65bo20bo3bo55bo3bo20bo278bo24bo162bo20bo3bo
55bo3bo20bo40b2o71bo11b4o14bo11b4o14bo11b4o14bo11b4o14bo11b4o14bo11b4o
14bo11b4o14bo11b4o14bo11b4o14bo11b4o14bo11b4o14bo11b4o14bo11b4o14bo11b
4o14bo11b4o14bo11b4o14bo11b4o14bo11b4o14bo11b4o14bo11b4o14bo11b4o14bo
13b2o23bobo65bo20bo3bo55bo3bo20bo$1964bo5bo16bob3obo53bob3obo16bo5bo
273b2obo21b3o159bo5bo16bob3obo53bob3obo16bo5bo106bo3bo10bo3bo643b2o7bo
b2o62bo5bo16bob3obo53bob3obo16bo5bo573b2obo21b3o159bo5bo16bob3obo53bob
3obo16bo5bo106bo3bo10bo3bo643b2o7bob2o62bo5bo16bob3obo53bob3obo16bo5bo
273b2obo21b3o159bo5bo16bob3obo53bob3obo16bo5bo106bo3bo10bo3bo10bo3bo
10bo3bo10bo3bo10bo3bo10bo3bo10bo3bo10bo3bo10bo3bo10bo3bo10bo3bo10bo3bo
10bo3bo10bo3bo10bo3bo10bo3bo10bo3bo10bo3bo10bo3bo10bo3bo10bo3bo10bo3bo
10bo3bo10bo3bo10bo3bo10bo3bo10bo3bo10bo3bo10bo3bo10bo3bo10bo3bo10bo3bo
10bo3bo10bo3bo10bo3bo10bo3bo10bo3bo10bo3bo10bo3bo10bo3bo10bo3bo10bo3bo
28b2o7bob2o62bo5bo16bob3obo53bob3obo16bo5bo$1964bo5bo17b5o4bo45bo4b5o
17bo5bo276bo20bo162bo5bo17b5o4bo45bo4b5o17bo5bo51bo55b4o14bo642bobo6b
2ob2o16bo45bo5bo17b5o4bo45bo4b5o17bo5bo576bo20bo162bo5bo17b5o4bo45bo4b
5o17bo5bo51bo55b4o14bo642bobo6b2ob2o16bo45bo5bo17b5o4bo45bo4b5o17bo5bo
276bo20bo162bo5bo17b5o4bo45bo4b5o17bo5bo51bo55b4o14bo11b4o14bo11b4o14b
o11b4o14bo11b4o14bo11b4o14bo11b4o14bo11b4o14bo11b4o14bo11b4o14bo11b4o
14bo11b4o14bo11b4o14bo11b4o14bo11b4o14bo11b4o14bo11b4o14bo11b4o14bo11b
4o14bo11b4o14bo11b4o14bo11b4o27bobo6b2ob2o16bo45bo5bo17b5o4bo45bo4b5o
17bo5bo$1965bo3bo28b2o41b2o28bo3bo273bo3bo20b2o162bo3bo28b2o41b2o28bo
3bo50bobo69bo2bo642bo6b3obob2o15b2o46bo3bo28b2o41b2o28bo3bo573bo3bo20b
2o162bo3bo28b2o41b2o28bo3bo50bobo69bo2bo642bo6b3obob2o15b2o46bo3bo28b
2o41b2o28bo3bo273bo3bo20b2o162bo3bo28b2o41b2o28bo3bo50bobo69bo2bo26bo
2bo26bo2bo26bo2bo26bo2bo26bo2bo26bo2bo26bo2bo26bo2bo26bo2bo26bo2bo26bo
2bo26bo2bo26bo2bo26bo2bo26bo2bo26bo2bo26bo2bo26bo2bo26bo2bo26bo2bo24bo
17bo6b3obob2o15b2o46bo3bo28b2o41b2o28bo3bo$1966b3o28b2o43b2o28b3o274bo
2bo186b3o28b2o43b2o28b3o52b2o715bo2bo2bo2bo2bobo14b2o11b2o35b3o28b2o
43b2o28b3o574bo2bo186b3o28b2o43b2o28b3o52b2o715bo2bo2bo2bo2bobo14b2o
11b2o35b3o28b2o43b2o28b3o274bo2bo186b3o28b2o43b2o28b3o52b2o697bo17bo2b
o2bo2bo2bobo14b2o11b2o35b3o28b2o43b2o28b3o$2007b3o5b3o5b3o5b3o314b5o
227b3o5b3o5b3o5b3o810bo6b2o4bo14b3o7bo3b3o75b3o5b3o5b3o5b3o614b5o227b
3o5b3o5b3o5b3o810bo6b2o4bo14b3o7bo3b3o75b3o5b3o5b3o5b3o314b5o227b3o5b
3o5b3o5b3o810bo6b2o4bo14b3o7bo3b3o75b3o5b3o5b3o5b3o$2007bo2bo3bo3bo3bo
3bo3bo2bo314b5o227bo2bo3bo3bo3bo3bo3bo2bo141bo647bobo11b2o6bobo25b2o5b
4o4b2obo5b2o65bo2bo3bo3bo3bo3bo3bo2bo614b5o227bo2bo3bo3bo3bo3bo3bo2bo
141bo647bobo11b2o6bobo25b2o5b4o4b2obo5b2o65bo2bo3bo3bo3bo3bo3bo2bo314b
5o227bo2bo3bo3bo3bo3bo3bo2bo141bo661b2o6bobo25b2o5b4o4b2obo5b2o65bo2bo
3bo3bo3bo3bo3bo2bo$2007bo5bo5bobo5bo5bo313b2o3b2o226bo5bo5bobo5bo5bo
141b2o646b2o11bobo7b2o26b2o2bo4bo4bo2bo5b2o65bo5bo5bobo5bo5bo613b2o3b
2o226bo5bo5bobo5bo5bo141b2o646b2o11bobo7b2o26b2o2bo4bo4bo2bo5b2o65bo5b
o5bobo5bo5bo313b2o3b2o226bo5bo5bobo5bo5bo141b2o659bobo7b2o26b2o2bo4bo
4bo2bo5b2o65bo5bo5bobo5bo5bo$2007bo2bo2bo5bobo5bo2bo2bo314b5o18b3o206b
o2bo2bo5bobo5bo2bo2bo140bobo647bo11bo38bo2bo3bo5b2obo72bo2bo2bo5bobo5b
o2bo2bo614b5o18b3o206bo2bo2bo5bobo5bo2bo2bo140bobo647bo11bo38bo2bo3bo
5b2obo72bo2bo2bo5bobo5bo2bo2bo314b5o18b3o206bo2bo2bo5bobo5bo2bo2bo140b
obo659bo38bo2bo3bo5b2obo72bo2bo2bo5bobo5bo2bo2bo$2008bo23bo316b3o5bobo
10bo3bo206bo23bo94b2o6bo699b2o21bobo18bob2o3b3o76bo23bo616b3o5bobo10bo
3bo206bo23bo94b2o6bo699b2o21bobo18bob2o3b3o76bo23bo316b3o5bobo10bo3bo
206bo23bo94b2o6bo699b2o21bobo18bob2o3b3o76bo23bo$2013bo13bo322bo7b2o
226bo13bo99b2o7bo52bo669b2o25b2o82bo13bo622bo7b2o226bo13bo99b2o7bo52bo
669b2o25b2o82bo13bo322bo7b2o226bo13bo99b2o7bo52bo669b2o25b2o82bo13bo$
2013b2o11b2o330bo10bo5bo210b2o11b2o106b3o24b2o25b2o669bo110b2o11b2o
630bo10bo5bo210b2o11b2o106b3o24b2o25b2o669bo110b2o11b2o330bo10bo5bo
210b2o11b2o106b3o24b2o25b2o669bo110b2o11b2o$2013b2o11b2o341b2o3b2o210b
2o11b2o132b3o3b2obo18bobo779b2o11b2o641b2o3b2o210b2o11b2o132b3o3b2obo
18bobo779b2o11b2o341b2o3b2o210b2o11b2o132b3o3b2obo18bobo779b2o11b2o$
1966b2o44b2o2bo7bo2b2o44b2o464b2o44b2o2bo7bo2b2o44b2o75b2o5bob2o5bo3bo
2bo643bo54bobo21bo26b2o44b2o2bo7bo2b2o44b2o764b2o44b2o2bo7bo2b2o44b2o
75b2o5bob2o5bo3bo2bo643bo54bobo21bo26b2o44b2o2bo7bo2b2o44b2o464b2o44b
2o2bo7bo2b2o44b2o75b2o5bob2o5bo3bo2bo698bobo21bo26b2o44b2o2bo7bo2b2o
44b2o$1966b2o45bobo9bobo45b2o464b2o45bobo9bobo45b2o75b2o5bo2bo4bo4bo2b
2o26b2o612b2o55b2o22bobo24b2o45bobo9bobo45b2o764b2o45bobo9bobo45b2o75b
2o5bo2bo4bo4bo2b2o26b2o612b2o55b2o22bobo24b2o45bobo9bobo45b2o464b2o45b
obo9bobo45b2o75b2o5bo2bo4bo4bo2b2o26b2o669b2o22bobo24b2o45bobo9bobo45b
2o$2014b2o9b2o345bo214b2o9b2o130bob2o4b4o5b2o25bobo612b2o55bo11b2o12b
2o6b2o62b2o9b2o645bo214b2o9b2o130bob2o4b4o5b2o25bobo612b2o55bo11b2o12b
2o6b2o62b2o9b2o345bo214b2o9b2o130bob2o4b4o5b2o25bobo669bo11b2o12b2o6b
2o62b2o9b2o$1993bo7b2o35b2o7bo317bo4b2obo192bo7b2o35b2o7bo112b3o3bo7b
3o14bo4b2o6bo7b2o671b2o12b2o4bo3bo40bo7b2o35b2o7bo617bo4b2obo192bo7b2o
35b2o7bo112b3o3bo7b3o14bo4b2o6bo7b2o671b2o12b2o4bo3bo40bo7b2o35b2o7bo
317bo4b2obo192bo7b2o35b2o7bo112b3o3bo7b3o14bo4b2o6bo7b2o671b2o12b2o4bo
3bo40bo7b2o35b2o7bo$1992b3o7b2o33b2o7b3o317b2o5bo191b3o7b2o33b2o7b3o
94bo17b2o11b2o14bobo2bo2bo2bo2bo7b2o685b2o3bo5bo8b2o28b3o7b2o33b2o7b3o
617b2o5bo191b3o7b2o33b2o7b3o94bo17b2o11b2o14bobo2bo2bo2bo2bo7b2o685b2o
3bo5bo8b2o28b3o7b2o33b2o7b3o317b2o5bo191b3o7b2o33b2o7b3o94bo17b2o11b2o
14bobo2bo2bo2bo2bo7b2o685b2o3bo5bo8b2o28b3o7b2o33b2o7b3o$1991b5o5bo9b
2o3b2o5b2o3b2o9bo5b5o315b2o2bo3bo190b5o5bo9b2o3b2o5b2o3b2o9bo5b5o91bob
o29b2o15b2obob3o6bo612bo2bo26bo2bo45bobo4b2obo3bo8b2o27b5o5bo9b2o3b2o
5b2o3b2o9bo5b5o615b2o2bo3bo190b5o5bo9b2o3b2o5b2o3b2o9bo5b5o91bobo29b2o
15b2obob3o6bo612bo2bo26bo2bo45bobo4b2obo3bo8b2o27b5o5bo9b2o3b2o5b2o3b
2o9bo5b5o315b2o2bo3bo190b5o5bo9b2o3b2o5b2o3b2o9bo5b5o91bobo29b2o15b2ob
ob3o6bo42bo2bo26bo2bo26bo2bo26bo2bo26bo2bo26bo2bo26bo2bo26bo2bo26bo2bo
26bo2bo26bo2bo26bo2bo26bo2bo26bo2bo26bo2bo26bo2bo26bo2bo26bo2bo26bo2bo
26bo2bo26bo2bo45bobo4b2obo3bo8b2o27b5o5bo9b2o3b2o5b2o3b2o9bo5b5o$1990b
2o3b2o14b2o3b2o5b2o3b2o14b2o3b2o299b2o17bo2bo190b2o3b2o14b2o3b2o5b2o3b
2o14b2o3b2o91b2o29bo16b2ob2o6bobo612bo14b4o11bo14b4o31bo7bo5bo36b2o3b
2o14b2o3b2o5b2o3b2o14b2o3b2o599b2o17bo2bo190b2o3b2o14b2o3b2o5b2o3b2o
14b2o3b2o91b2o29bo16b2ob2o6bobo612bo14b4o11bo14b4o31bo7bo5bo36b2o3b2o
14b2o3b2o5b2o3b2o14b2o3b2o299b2o17bo2bo190b2o3b2o14b2o3b2o5b2o3b2o14b
2o3b2o91b2o29bo16b2ob2o6bobo27b4o11bo14b4o11bo14b4o11bo14b4o11bo14b4o
11bo14b4o11bo14b4o11bo14b4o11bo14b4o11bo14b4o11bo14b4o11bo14b4o11bo14b
4o11bo14b4o11bo14b4o11bo14b4o11bo14b4o11bo14b4o11bo14b4o11bo14b4o11bo
14b4o11bo14b4o31bo7bo5bo36b2o3b2o14b2o3b2o5b2o3b2o14b2o3b2o$2350b2o16b
5o390b2obo7b2o613bo3bo10bo3bo10bo3bo10bo3bo39bo3bo697b2o16b5o390b2obo
7b2o613bo3bo10bo3bo10bo3bo10bo3bo39bo3bo397b2o16b5o390b2obo7b2o28bo3bo
10bo3bo10bo3bo10bo3bo10bo3bo10bo3bo10bo3bo10bo3bo10bo3bo10bo3bo10bo3bo
10bo3bo10bo3bo10bo3bo10bo3bo10bo3bo10bo3bo10bo3bo10bo3bo10bo3bo10bo3bo
10bo3bo10bo3bo10bo3bo10bo3bo10bo3bo10bo3bo10bo3bo10bo3bo10bo3bo10bo3bo
10bo3bo10bo3bo10bo3bo10bo3bo10bo3bo10bo3bo10bo3bo10bo3bo10bo3bo10bo3bo
10bo3bo10bo3bo39bo3bo$2013b3o9b3o340b5o213b3o9b3o162bobo623b4o11bo14b
4o11bo45b2o61b3o9b3o640b5o213b3o9b3o162bobo623b4o11bo14b4o11bo45b2o61b
3o9b3o340b5o213b3o9b3o162bobo38bo14b4o11bo14b4o11bo14b4o11bo14b4o11bo
14b4o11bo14b4o11bo14b4o11bo14b4o11bo14b4o11bo14b4o11bo14b4o11bo14b4o
11bo14b4o11bo14b4o11bo14b4o11bo14b4o11bo14b4o11bo14b4o11bo14b4o11bo14b
4o11bo14b4o11bo45b2o61b3o9b3o$1995b2o16b3o9b3o16b2o321b2o3b2o194b2o16b
3o9b3o16b2o145bo24b2o614bo2bo26bobo32bo54b2o16b3o9b3o16b2o621b2o3b2o
194b2o16b3o9b3o16b2o145bo24b2o614bo2bo26bobo32bo54b2o16b3o9b3o16b2o
321b2o3b2o194b2o16b3o9b3o16b2o145bo24b2o14bo2bo26bo2bo26bo2bo26bo2bo
26bo2bo26bo2bo26bo2bo26bo2bo26bo2bo26bo2bo26bo2bo26bo2bo26bo2bo26bo2bo
26bo2bo26bo2bo26bo2bo26bo2bo26bo2bo26bo2bo26bo2bo26bobo32bo54b2o16b3o
9b3o16b2o$1997bo16bo11bo16bo324b5o197bo16bo11bo16bo171bobo656b2o19b2o
57bo16bo11bo16bo624b5o197bo16bo11bo16bo171bobo656b2o19b2o57bo16bo11bo
16bo324b5o197bo16bo11bo16bo171bobo656b2o19b2o57bo16bo11bo16bo$1994bo
51bo322b3o195bo51bo103bo64bo653bo4b2o20b2o53bo51bo622b3o195bo51bo103bo
64bo653bo4b2o20b2o53bo51bo322b3o195bo51bo103bo64bo653bo4b2o20b2o53bo
51bo$1994bo2bo45bo2bo323bo196bo2bo45bo2bo104bo62b2o647b2ob5o6b2o6b2o
64bo2bo45bo2bo623bo196bo2bo45bo2bo104bo62b2o647b2ob5o6b2o6b2o64bo2bo
45bo2bo323bo196bo2bo45bo2bo104bo62b2o647b2ob5o6b2o6b2o64bo2bo45bo2bo$
1993b2ob2o45b2ob2o518b2ob2o45b2ob2o101b3o710bo4b2o2bo5b3o5b2o63b2ob2o
45b2ob2o818b2ob2o45b2ob2o101b3o710bo4b2o2bo5b3o5b2o63b2ob2o45b2ob2o
518b2ob2o45b2ob2o101b3o710bo4b2o2bo5b3o5b2o63b2ob2o45b2ob2o$1994b2o49b
2o520b2o49b2o804b2o8bo8b2o5b2o72b2o49b2o820b2o49b2o804b2o8bo8b2o5b2o
72b2o49b2o520b2o49b2o804b2o8bo8b2o5b2o72b2o49b2o$3424b2o8bo7bo4b2o
1805b2o8bo7bo4b2o1505b2o8bo7bo4b2o$2013b2o11b2o454bo103b2o11b2o106b2o
725bo12b2o94b2o11b2o754bo103b2o11b2o106b2o725bo12b2o94b2o11b2o454bo
103b2o11b2o106b2o725bo12b2o94b2o11b2o$1992b2o3b2o14b2o11b2o14b2o3b2o
431b3o82b2o3b2o14b2o11b2o14b2o3b2o87bo725bo25bobo58b2o3b2o14b2o11b2o
14b2o3b2o731b3o82b2o3b2o14b2o11b2o14b2o3b2o87bo725bo25bobo58b2o3b2o14b
2o11b2o14b2o3b2o431b3o82b2o3b2o14b2o11b2o14b2o3b2o87bo725bo25bobo58b2o
3b2o14b2o11b2o14b2o3b2o$1992b2o3b2o43b2o3b2o430bo85b2o3b2o43b2o3b2o74b
2o12bo725b2o23b2o59b2o3b2o43b2o3b2o730bo85b2o3b2o43b2o3b2o74b2o12bo
725b2o23b2o59b2o3b2o43b2o3b2o430bo85b2o3b2o43b2o3b2o74b2o12bo725b2o23b
2o59b2o3b2o43b2o3b2o$1993b5o45b5o423b2o6b2o85b5o45b5o75b2o4bo7bo8b2o
10bo730bo60b5o45b5o723b2o6b2o85b5o45b5o75b2o4bo7bo8b2o10bo730bo60b5o
45b5o423b2o6b2o85b5o45b5o75b2o4bo7bo8b2o10bo730bo60b5o45b5o$1994bobo
47bobo424bobo93bobo47bobo73b2o5b2o8bo8b2o8bobo792bobo47bobo724bobo93bo
bo47bobo73b2o5b2o8bo8b2o8bobo792bobo47bobo424bobo93bobo47bobo73b2o5b2o
8bo8b2o8bobo792bobo47bobo$2370b2o100bo212b2o5b3o5bo2b2o4bo20b2o1468b2o
100bo212b2o5b3o5bo2b2o4bo20b2o1168b2o100bo212b2o5b3o5bo2b2o4bo20b2o$
1994b3o47b3o323b2o195b3o47b3o65b2o6b2o6b5ob2o815b3o47b3o623b2o195b3o
47b3o65b2o6b2o6b5ob2o815b3o47b3o323b2o195b3o47b3o65b2o6b2o6b5ob2o815b
3o47b3o$2696b2o4bo1823b2o4bo1523b2o4bo$2484b2o210b2o757bo858b2o210b2o
757bo558b2o210b2o$2476b2o6b2o221bobo743b2o25bo825b2o6b2o221bobo743b2o
25bo525b2o6b2o221bobo26bo2bo26bo2bo26bo2bo26bo2bo26bo2bo26bo2bo26bo2bo
26bo2bo26bo2bo26bo2bo26bo2bo26bo2bo26bo2bo26bo2bo26bo2bo26bo2bo26bo2bo
26bo2bo26bo2bo26bo2bo26bo2bo26bo2bo26bo2bo26bo2bo50bo$2476b2o232bo11b
4o728b2o23bobo824b2o232bo11b4o728b2o23bobo524b2o232bo11b4o14bo11b4o14b
o11b4o14bo11b4o14bo11b4o14bo11b4o14bo11b4o14bo11b4o14bo11b4o14bo11b4o
14bo11b4o14bo11b4o14bo11b4o14bo11b4o14bo11b4o14bo11b4o14bo11b4o14bo11b
4o14bo11b4o14bo11b4o14bo11b4o14bo11b4o14bo11b4o14bo11b4o14bo11b4o33bob
o$2706bo3bo10bo3bo743b2o7bob2o1054bo3bo10bo3bo743b2o7bob2o754bo3bo10bo
3bo10bo3bo10bo3bo10bo3bo10bo3bo10bo3bo10bo3bo10bo3bo10bo3bo10bo3bo10bo
3bo10bo3bo10bo3bo10bo3bo10bo3bo10bo3bo10bo3bo10bo3bo10bo3bo10bo3bo10bo
3bo10bo3bo10bo3bo10bo3bo10bo3bo10bo3bo10bo3bo10bo3bo10bo3bo10bo3bo10bo
3bo10bo3bo10bo3bo10bo3bo10bo3bo10bo3bo10bo3bo10bo3bo10bo3bo10bo3bo10bo
3bo10bo3bo10bo3bo10bo3bo10bo3bo10bo3bo10bo3bo10bo3bo10bo3bo23b2o7bob2o
$1995b2o47b2o421b2o99b2o47b2o88b4o14bo742bobo6b2ob2o16bo26b2o47b2o721b
2o99b2o47b2o88b4o14bo742bobo6b2ob2o16bo26b2o47b2o421b2o99b2o47b2o88b4o
14bo11b4o14bo11b4o14bo11b4o14bo11b4o14bo11b4o14bo11b4o14bo11b4o14bo11b
4o14bo11b4o14bo11b4o14bo11b4o14bo11b4o14bo11b4o14bo11b4o14bo11b4o14bo
11b4o14bo11b4o14bo11b4o14bo11b4o14bo11b4o14bo11b4o14bo11b4o14bo11b4o
14bo11b4o14bo22bobo6b2ob2o16bo26b2o47b2o$1995b2o47b2o421b2o99b2o47b2o
102bo2bo742bo6b3obob2o15b2o26b2o47b2o721b2o99b2o47b2o102bo2bo742bo6b3o
bob2o15b2o26b2o47b2o421b2o99b2o47b2o102bo2bo26bo2bo26bo2bo26bo2bo26bo
2bo26bo2bo26bo2bo26bo2bo26bo2bo26bo2bo26bo2bo26bo2bo26bo2bo26bo2bo26bo
2bo26bo2bo26bo2bo26bo2bo26bo2bo26bo2bo26bo2bo26bo2bo26bo2bo26bo2bo26bo
2bo22bo6b3obob2o15b2o26b2o47b2o$3467bo2bo2bo2bo2bobo14b2o11b2o1786bo2b
o2bo2bo2bobo14b2o11b2o1486bo2bo2bo2bo2bobo14b2o11b2o$2482b2o983bo6b2o
4bo14b3o7bo3b3o800b2o983bo6b2o4bo14b3o7bo3b3o500b2o983bo6b2o4bo14b3o7b
o3b3o$2482bobo213bo747bobo11b2o6bobo25b2o5b4o4b2obo797bobo213bo747bobo
11b2o6bobo25b2o5b4o4b2obo497bobo213bo761b2o6bobo25b2o5b4o4b2obo$2484bo
213b2o746b2o11bobo7b2o26b2o2bo4bo4bo2bo5b2o792bo213b2o746b2o11bobo7b2o
26b2o2bo4bo4bo2bo5b2o492bo213b2o759bobo7b2o26b2o2bo4bo4bo2bo5b2o$2484b
2o211bobo747bo11bo38bo2bo3bo5b2obo5b2o792b2o211bobo747bo11bo38bo2bo3bo
5b2obo5b2o492b2o211bobo759bo38bo2bo3bo5b2obo5b2o$3458b2o21bobo18bob2o
3b3o1776b2o21bobo18bob2o3b3o1476b2o21bobo18bob2o3b3o$2712bo769b2o25b2o
1031bo769b2o25b2o731bo769b2o25b2o$2684b2o25b2o769bo1031b2o25b2o769bo
731b2o25b2o769bo$2683b3o3b2obo18bobo1799b3o3b2obo18bobo1499b3o3b2obo
18bobo$2673b2o5bob2o5bo3bo2bo743bo54bobo1005b2o5bob2o5bo3bo2bo743bo54b
obo705b2o5bob2o5bo3bo2bo798bobo$2673b2o5bo2bo4bo4bo2b2o26b2o712b2o55b
2o1006b2o5bo2bo4bo4bo2b2o26b2o712b2o55b2o706b2o5bo2bo4bo4bo2b2o26b2o
769b2o$2507b2o171bob2o4b4o5b2o25bobo712b2o55bo840b2o171bob2o4b4o5b2o
25bobo712b2o55bo540b2o171bob2o4b4o5b2o25bobo769bo$2507b2o174b3o3bo7b3o
14bo4b2o6bo7b2o1600b2o174b3o3bo7b3o14bo4b2o6bo7b2o1300b2o174b3o3bo7b3o
14bo4b2o6bo7b2o$2684b2o11b2o14bobo2bo2bo2bo2bo7b2o1777b2o11b2o14bobo2b
o2bo2bo2bo7b2o1477b2o11b2o14bobo2bo2bo2bo2bo7b2o$2696b2o15b2obob3o6bo
712bo2bo26bo2bo1052b2o15b2obob3o6bo712bo2bo26bo2bo752b2o15b2obob3o6bo
22bo2bo26bo2bo26bo2bo26bo2bo26bo2bo26bo2bo26bo2bo26bo2bo26bo2bo26bo2bo
26bo2bo26bo2bo26bo2bo26bo2bo26bo2bo26bo2bo26bo2bo26bo2bo26bo2bo26bo2bo
26bo2bo26bo2bo26bo2bo26bo2bo26bo2bo$2507bo129b2o57bo16b2ob2o6bobo712bo
14b4o11bo14b4o849bo129b2o57bo16b2ob2o6bobo712bo14b4o11bo14b4o549bo129b
2o57bo16b2ob2o6bobo22bo14b4o11bo14b4o11bo14b4o11bo14b4o11bo14b4o11bo
14b4o11bo14b4o11bo14b4o11bo14b4o11bo14b4o11bo14b4o11bo14b4o11bo14b4o
11bo14b4o11bo14b4o11bo14b4o11bo14b4o11bo14b4o11bo14b4o11bo14b4o11bo14b
4o11bo14b4o11bo14b4o11bo14b4o11bo14b4o$2506bobo128bo75b2obo7b2o713bo3b
o10bo3bo10bo3bo10bo3bo847bobo128bo75b2obo7b2o713bo3bo10bo3bo10bo3bo10b
o3bo547bobo128bo75b2obo7b2o23bo3bo10bo3bo10bo3bo10bo3bo10bo3bo10bo3bo
10bo3bo10bo3bo10bo3bo10bo3bo10bo3bo10bo3bo10bo3bo10bo3bo10bo3bo10bo3bo
10bo3bo10bo3bo10bo3bo10bo3bo10bo3bo10bo3bo10bo3bo10bo3bo10bo3bo10bo3bo
10bo3bo10bo3bo10bo3bo10bo3bo10bo3bo10bo3bo10bo3bo10bo3bo10bo3bo10bo3bo
10bo3bo10bo3bo10bo3bo10bo3bo10bo3bo10bo3bo10bo3bo10bo3bo10bo3bo10bo3bo
10bo3bo10bo3bo10bo3bo10bo3bo$2505bo3bo116b2o7bobo75bobo723b4o11bo14b4o
11bo850bo3bo116b2o7bobo75bobo723b4o11bo14b4o11bo550bo3bo116b2o7bobo75b
obo33b4o11bo14b4o11bo14b4o11bo14b4o11bo14b4o11bo14b4o11bo14b4o11bo14b
4o11bo14b4o11bo14b4o11bo14b4o11bo14b4o11bo14b4o11bo14b4o11bo14b4o11bo
14b4o11bo14b4o11bo14b4o11bo14b4o11bo14b4o11bo14b4o11bo14b4o11bo14b4o
11bo14b4o11bo14b4o11bo$2505b5o116b2o7b2o77bo26b2o712bo2bo26bobo847b5o
116b2o7b2o77bo26b2o712bo2bo26bobo547b5o116b2o7b2o77bo26b2o22bo2bo26bo
2bo26bo2bo26bo2bo26bo2bo26bo2bo26bo2bo26bo2bo26bo2bo26bo2bo26bo2bo26bo
2bo26bo2bo26bo2bo26bo2bo26bo2bo26bo2bo26bo2bo26bo2bo26bo2bo26bo2bo26bo
2bo26bo2bo26bo2bo26bobo$2504b2o3b2o102bo4bo10b2o16bo92bobo754b2o835b2o
3b2o102bo4bo10b2o16bo92bobo754b2o535b2o3b2o102bo4bo10b2o16bo92bobo754b
2o$2505b5o101bobo4bo10b3o13b3o92bo751bo4b2o836b5o101bobo4bo10b3o13b3o
92bo751bo4b2o536b5o101bobo4bo10b3o13b3o92bo751bo4b2o$2421bo84b3o100b2o
7bo10b2o13bo94b2o745b2ob5o6b2o6b2o741bo84b3o100b2o7bo10b2o13bo94b2o
745b2ob5o6b2o6b2o441bo84b3o100b2o7bo10b2o13bo94b2o745b2ob5o6b2o6b2o$
2420bobo84bo95b2o4b2o11b2o2b2o16b2o839bo4b2o2bo5b3o5b2o740bobo84bo95b
2o4b2o11b2o2b2o16b2o839bo4b2o2bo5b3o5b2o440bobo84bo95b2o4b2o11b2o2b2o
16b2o839bo4b2o2bo5b3o5b2o$2410b2o7bob2o180b2o4b2o8b2o2bo2b2o846b2o8bo
8b2o5b2o738b2o7bob2o180b2o4b2o8b2o2bo2b2o846b2o8bo8b2o5b2o438b2o7bob2o
180b2o4b2o8b2o2bo2b2o846b2o8bo8b2o5b2o$2020b2o387bobo6b2ob2o10b2o157b
2o17bobo5b4o851b2o8bo7bo4b2o51b2o687bobo6b2ob2o10b2o157b2o17bobo5b4o
851b2o8bo7bo4b2o51b2o387bobo6b2ob2o10b2o157b2o17bobo5b4o851b2o8bo7bo4b
2o51b2o$2020b2o386bo6b3obob2o10b2o157b2o19bo7bo862bo12b2o51b2o686bo6b
3obob2o10b2o157b2o19bo7bo862bo12b2o51b2o386bo6b3obob2o10b2o157b2o19bo
7bo862bo12b2o51b2o$2408bo2bo2bo2bo2bobo83bo17bo116b3o841bo752bo2bo2bo
2bo2bobo83bo17bo116b3o841bo452bo2bo2bo2bo2bobo83bo17bo116b3o841bo$
2408bo6b2o4bo86b2o13bobo114b2ob2o841b2o750bo6b2o4bo86b2o13bobo114b2ob
2o841b2o450bo6b2o4bo86b2o13bobo114b2ob2o841b2o$2016b2o2b2o2b2o375b2o6b
obo95b3o78b2o2b2o2b2o42b2ob2o901b2o2b2o2b2o675b2o6bobo95b3o78b2o2b2o2b
2o42b2ob2o901b2o2b2o2b2o375b2o6bobo95b3o78b2o2b2o2b2o42b2ob2o901b2o2b
2o2b2o$2016b2o2b2o2b2o374bobo7b2o95b2o79b2o2b2o2b2o30bobo9b5o841b2o58b
2o2b2o2b2o674bobo7b2o95b2o79b2o2b2o2b2o30bobo9b5o841b2o58b2o2b2o2b2o
374bobo7b2o95b2o79b2o2b2o2b2o30bobo9b5o841b2o58b2o2b2o2b2o$2400bo107bo
14b3o103b2o8b2o3b2o839bo744bo107bo14b3o103b2o8b2o3b2o839bo444bo107bo
14b3o103b2o8b2o3b2o839bo$2399b2o21bobo82bobo13b3o103bo854bo12b2o730b2o
21bobo82bobo13b3o103bo854bo12b2o430b2o21bobo82bobo13b3o103bo854bo12b2o
$2020b2o401b2o83b2o14bo67b2o880b2o8bo7bo4b2o51b2o701b2o83b2o14bo67b2o
880b2o8bo7bo4b2o51b2o401b2o83b2o14bo67b2o880b2o8bo7bo4b2o51b2o$2020b2o
401bo168b2o47b2o831b2o8bo8b2o5b2o48b2o701bo168b2o47b2o831b2o8bo8b2o5b
2o48b2o401bo168b2o47b2o831b2o8bo8b2o5b2o48b2o$2627b2o11b5o840bo4b2o2bo
5b3o5b2o947b2o11b5o840bo4b2o2bo5b3o5b2o647b2o11b5o840bo4b2o2bo5b3o5b2o
$2434b2o66b2obob2o15bo102b2o110b2o745b2ob5o6b2o6b2o754b2o66b2obob2o15b
o102b2o110b2o745b2ob5o6b2o6b2o454b2o66b2obob2o15bo102b2o110b2o745b2ob
5o6b2o6b2o$2434b2o87b3o111b4ob3o95bo751bo4b2o765b2o87b3o111b4ob3o95bo
751bo4b2o465b2o87b3o111b4ob3o95bo751bo4b2o$2502bo5bo6bo7b3o109b2obo5bo
95bobo754b2o833bo5bo6bo7b3o109b2obo5bo95bobo754b2o533bo5bo6bo7b3o109b
2obo5bo95bobo754b2o$2430bo85b2o119bo4b2o70bo26b2o712bo2bo26bobo772bo
85b2o119bo4b2o70bo26b2o712bo2bo26bobo472bo85b2o119bo4b2o70bo26b2o22bo
2bo26bo2bo26bo2bo26bo2bo26bo2bo26bo2bo26bo2bo26bo2bo26bo2bo26bo2bo26bo
2bo26bo2bo26bo2bo26bo2bo26bo2bo26bo2bo26bo2bo26bo2bo26bo2bo26bo2bo26bo
2bo26bo2bo26bo2bo26bo2bo26bobo$2431b2o70b2ob2o7b2o125b2o69bobo723b4o
11bo14b4o11bo776b2o70b2ob2o7b2o125b2o69bobo723b4o11bo14b4o11bo476b2o
70b2ob2o7b2o125b2o69bobo33b4o11bo14b4o11bo14b4o11bo14b4o11bo14b4o11bo
14b4o11bo14b4o11bo14b4o11bo14b4o11bo14b4o11bo14b4o11bo14b4o11bo14b4o
11bo14b4o11bo14b4o11bo14b4o11bo14b4o11bo14b4o11bo14b4o11bo14b4o11bo14b
4o11bo14b4o11bo14b4o11bo14b4o11bo14b4o11bo$2430b2o73bo17bobo187b2obo7b
2o713bo3bo10bo3bo10bo3bo10bo3bo771b2o73bo17bobo187b2obo7b2o713bo3bo10b
o3bo10bo3bo10bo3bo471b2o73bo17bobo187b2obo7b2o23bo3bo10bo3bo10bo3bo10b
o3bo10bo3bo10bo3bo10bo3bo10bo3bo10bo3bo10bo3bo10bo3bo10bo3bo10bo3bo10b
o3bo10bo3bo10bo3bo10bo3bo10bo3bo10bo3bo10bo3bo10bo3bo10bo3bo10bo3bo10b
o3bo10bo3bo10bo3bo10bo3bo10bo3bo10bo3bo10bo3bo10bo3bo10bo3bo10bo3bo10b
o3bo10bo3bo10bo3bo10bo3bo10bo3bo10bo3bo10bo3bo10bo3bo10bo3bo10bo3bo10b
o3bo10bo3bo10bo3bo10bo3bo10bo3bo10bo3bo10bo3bo$2434b2o88bo171bo16b2ob
2o6bobo712bo14b4o11bo14b4o776b2o88bo171bo16b2ob2o6bobo712bo14b4o11bo
14b4o476b2o88bo171bo16b2ob2o6bobo22bo14b4o11bo14b4o11bo14b4o11bo14b4o
11bo14b4o11bo14b4o11bo14b4o11bo14b4o11bo14b4o11bo14b4o11bo14b4o11bo14b
4o11bo14b4o11bo14b4o11bo14b4o11bo14b4o11bo14b4o11bo14b4o11bo14b4o11bo
14b4o11bo14b4o11bo14b4o11bo14b4o11bo14b4o11bo14b4o$2435b2o200b2o3b2o
52b2o15b2obob3o6bo712bo2bo26bo2bo791b2o200b2o3b2o52b2o15b2obob3o6bo
712bo2bo26bo2bo491b2o200b2o3b2o52b2o15b2obob3o6bo22bo2bo26bo2bo26bo2bo
26bo2bo26bo2bo26bo2bo26bo2bo26bo2bo26bo2bo26bo2bo26bo2bo26bo2bo26bo2bo
26bo2bo26bo2bo26bo2bo26bo2bo26bo2bo26bo2bo26bo2bo26bo2bo26bo2bo26bo2bo
26bo2bo26bo2bo$2434bo202bobobobo40b2o11b2o14bobo2bo2bo2bo2bo7b2o1527bo
202bobobobo40b2o11b2o14bobo2bo2bo2bo2bo7b2o1227bo202bobobobo40b2o11b2o
14bobo2bo2bo2bo2bo7b2o$2442bo195b5o40b3o3bo7b3o14bo4b2o6bo7b2o1535bo
195b5o40b3o3bo7b3o14bo4b2o6bo7b2o1235bo195b5o40b3o3bo7b3o14bo4b2o6bo7b
2o$2421b2o20bo64bo13bobo114b3o38bob2o4b4o5b2o25bobo712b2o55bo754b2o20b
o64bo13bobo114b3o38bob2o4b4o5b2o25bobo712b2o55bo454b2o20bo64bo13bobo
114b3o38bob2o4b4o5b2o25bobo769bo$2419bo2bo18b3o62b2ob2o7b2o3b2o115bo
32b2o5bo2bo4bo4bo2b2o26b2o712b2o55b2o752bo2bo18b3o62b2ob2o7b2o3b2o115b
o32b2o5bo2bo4bo4bo2b2o26b2o712b2o55b2o452bo2bo18b3o62b2ob2o7b2o3b2o
115bo32b2o5bo2bo4bo4bo2b2o26b2o769b2o$2418bo7b3o3bo86b2o2bo149b2o5bob
2o5bo3bo2bo743bo54bobo750bo7b3o3bo86b2o2bo149b2o5bob2o5bo3bo2bo743bo
54bobo450bo7b3o3bo86b2o2bo149b2o5bob2o5bo3bo2bo798bobo$2410b2o6bo6bo3b
5o33bobo35bo5bo6bo164b3o3b2obo18bobo1526b2o6bo6bo3b5o33bobo35bo5bo6bo
164b3o3b2obo18bobo1226b2o6bo6bo3b5o33bobo35bo5bo6bo164b3o3b2obo18bobo$
2410b2o6bo7bo3b2ob2o30bo3bo54bo159b2o25b2o769bo757b2o6bo7bo3b2ob2o30bo
3bo54bo159b2o25b2o769bo457b2o6bo7bo3b2ob2o30bo3bo54bo159b2o25b2o769bo$
2419bo2bo3bo3b2ob3o29bo19bo19b2obob2o11bobo186bo769b2o25b2o738bo2bo3bo
3b2ob3o29bo19bo19b2obob2o11bobo186bo769b2o25b2o438bo2bo3bo3b2ob3o29bo
19bo19b2obob2o11bobo186bo769b2o25b2o$2421b2o5b4ob2o23b2o4bo4bo14b4o
970b2o21bobo18bob2o3b3o739b2o5b4ob2o23b2o4bo4bo14b4o970b2o21bobo18bob
2o3b3o439b2o5b4ob2o23b2o4bo4bo14b4o970b2o21bobo18bob2o3b3o$2430b4o8b2o
6bo7b2o5bo12bo4b2obobo208bobo747bo11bo38bo2bo3bo5b2obo5b2o738b4o8b2o6b
o7b2o5bo12bo4b2obobo208bobo747bo11bo38bo2bo3bo5b2obo5b2o438b4o8b2o6bo
7b2o5bo12bo4b2obobo208bobo759bo38bo2bo3bo5b2obo5b2o$2432bo9bobo3bobo
14bo3bo3bob2o5b3obo2bo2b2o17b2o10b3o114b2o56b2o746b2o11bobo7b2o26b2o2b
o4bo4bo2bo5b2o740bo9bobo3bobo14bo3bo3bob2o5b3obo2bo2b2o17b2o10b3o114b
2o56b2o746b2o11bobo7b2o26b2o2bo4bo4bo2bo5b2o440bo9bobo3bobo14bo3bo3bob
2o5b3obo2bo2b2o17b2o10b3o114b2o56b2o759bobo7b2o26b2o2bo4bo4bo2bo5b2o$
2444bo4b2o16bobo2bob4o5b2obobo3b2o16bobo10b3o114b2o56bo747bobo11b2o6bo
bo25b2o5b4o4b2obo759bo4b2o16bobo2bob4o5b2obobo3b2o16bobo10b3o114b2o56b
o747bobo11b2o6bobo25b2o5b4o4b2obo459bo4b2o16bobo2bob4o5b2obobo3b2o16bo
bo10b3o114b2o56bo761b2o6bobo25b2o5b4o4b2obo$2444b2o26b2o2b2o6b4o23bo
12bo942bo6b2o4bo14b3o7bo3b3o762b2o26b2o2b2o6b4o23bo12bo942bo6b2o4bo14b
3o7bo3b3o462b2o26b2o2b2o6b4o23bo12bo942bo6b2o4bo14b3o7bo3b3o$2485bo24b
2o955bo2bo2bo2bo2bobo14b2o11b2o804bo24b2o955bo2bo2bo2bo2bobo14b2o11b2o
504bo24b2o955bo2bo2bo2bo2bobo14b2o11b2o$2510b3o208bo2bo18bo723bo6b3obo
b2o15b2o841b3o208bo2bo18bo723bo6b3obob2o15b2o541b3o208bo2bo26bo2bo26bo
2bo26bo2bo26bo2bo26bo2bo26bo2bo26bo2bo26bo2bo26bo2bo26bo2bo26bo2bo26bo
2bo26bo2bo26bo2bo26bo2bo26bo2bo26bo2bo26bo2bo26bo2bo26bo2bo26bo2bo26bo
2bo26bo2bo26bo2bo22bo6b3obob2o15b2o$2511b2o11bo182b4o14bo11b4o2b2o723b
obo6b2ob2o16bo842b2o11bo182b4o14bo11b4o2b2o723bobo6b2ob2o16bo542b2o11b
o182b4o14bo11b4o14bo11b4o14bo11b4o14bo11b4o14bo11b4o14bo11b4o14bo11b4o
14bo11b4o14bo11b4o14bo11b4o14bo11b4o14bo11b4o14bo11b4o14bo11b4o14bo11b
4o14bo11b4o14bo11b4o14bo11b4o14bo11b4o14bo11b4o14bo11b4o14bo11b4o14bo
11b4o14bo11b4o14bo22bobo6b2ob2o16bo$2457bo51bo13b3o180bo3bo10bo3bo10bo
3bobobo724b2o7bob2o805bo51bo13b3o180bo3bo10bo3bo10bo3bobobo724b2o7bob
2o505bo51bo13b3o180bo3bo10bo3bo10bo3bo10bo3bo10bo3bo10bo3bo10bo3bo10bo
3bo10bo3bo10bo3bo10bo3bo10bo3bo10bo3bo10bo3bo10bo3bo10bo3bo10bo3bo10bo
3bo10bo3bo10bo3bo10bo3bo10bo3bo10bo3bo10bo3bo10bo3bo10bo3bo10bo3bo10bo
3bo10bo3bo10bo3bo10bo3bo10bo3bo10bo3bo10bo3bo10bo3bo10bo3bo10bo3bo10bo
3bo10bo3bo10bo3bo10bo3bo10bo3bo10bo3bo10bo3bo10bo3bo10bo3bo10bo3bo10bo
3bo10bo3bo10bo3bo23b2o7bob2o$2458bo64b3o184bo11b4o14bo713b2o23bobo806b
o64b3o184bo11b4o14bo713b2o23bobo506bo64b3o184bo11b4o14bo11b4o14bo11b4o
14bo11b4o14bo11b4o14bo11b4o14bo11b4o14bo11b4o14bo11b4o14bo11b4o14bo11b
4o14bo11b4o14bo11b4o14bo11b4o14bo11b4o14bo11b4o14bo11b4o14bo11b4o14bo
11b4o14bo11b4o14bo11b4o14bo11b4o14bo11b4o14bo11b4o14bo11b4o33bobo$
2456b3o6bobo239bobo26bo2bo713b2o25bo805b3o6bobo239bobo26bo2bo713b2o25b
o505b3o6bobo239bobo26bo2bo26bo2bo26bo2bo26bo2bo26bo2bo26bo2bo26bo2bo
26bo2bo26bo2bo26bo2bo26bo2bo26bo2bo26bo2bo26bo2bo26bo2bo26bo2bo26bo2bo
26bo2bo26bo2bo26bo2bo26bo2bo26bo2bo26bo2bo26bo2bo50bo$2465b2o229b2o
757bo839b2o229b2o757bo539b2o229b2o$2466bo43bo12bobo170b2o4bo1593bo43bo
12bobo170b2o4bo1293bo43bo12bobo170b2o4bo$2452b2o55b3o12bo160b2o6b2o6b
5ob2o1573b2o55b3o12bo160b2o6b2o6b5ob2o1273b2o55b3o12bo160b2o6b2o6b5ob
2o$2452b2o54b5o172b2o5b3o5bo2b2o4bo25b2o1545b2o54b5o172b2o5b3o5bo2b2o
4bo25b2o1245b2o54b5o172b2o5b3o5bo2b2o4bo25b2o$2507b2o3b2o179b2o5b2o8bo
8b2o15b2o1599b2o3b2o179b2o5b2o8bo8b2o15b2o1299b2o3b2o179b2o5b2o8bo8b2o
15b2o$2508b5o183b2o4bo7bo8b2o14bo726bo875b5o183b2o4bo7bo8b2o14bo726bo
575b5o183b2o4bo7bo8b2o14bo726bo$2443b2o63bo3bo183b2o12bo750b2o810b2o
63bo3bo183b2o12bo750b2o510b2o63bo3bo183b2o12bo750b2o$2443bobo63bobo
197bo726b2o23bobo809bobo63bobo197bo726b2o23bobo509bobo63bobo197bo726b
2o23bobo$2444bo22b2o41bo196b2o726bo838bo22b2o41bo196b2o726bo538bo22b2o
41bo196b2o726bo$2468bo965bo12b2o849bo965bo12b2o549bo965bo12b2o$2468bob
o7b2o248bo695b2o8bo7bo4b2o849bobo7b2o248bo695b2o8bo7bo4b2o549bobo7b2o
248bo695b2o8bo7bo4b2o$2469b2o6bobo30b2o216b2o694b2o8bo8b2o5b2o6b2o839b
2o6bobo30b2o216b2o694b2o8bo8b2o5b2o6b2o539b2o6bobo30b2o216b2o694b2o8bo
8b2o5b2o6b2o$2447b2o27bo6b2o4bo20b2o215bobo705bo4b2o2bo5b3o5b2o817b2o
27bo6b2o4bo20b2o215bobo705bo4b2o2bo5b3o5b2o517b2o27bo6b2o4bo20b2o215bo
bo705bo4b2o2bo5b3o5b2o$2447b2o27bo2bo2bo2bo2bobo296b2o647b2ob5o6b2o17b
2o806b2o27bo2bo2bo2bo2bobo296b2o647b2ob5o6b2o17b2o506b2o27bo2bo2bo2bo
2bobo296b2o647b2ob5o6b2o17b2o$2442b2o32bo6b3obob2o10b2o285bo653bo4b2o
19b2o802b2o32bo6b3obob2o10b2o285bo653bo4b2o19b2o502b2o32bo6b3obob2o10b
2o285bo653bo4b2o19b2o$2441bobo33bobo6b2ob2o10b2o285bobo656b2o21bo800bo
bo33bobo6b2ob2o10b2o285bobo656b2o21bo500bobo33bobo6b2ob2o10b2o285bobo
656b2o21bo$2441bo36b2o7bob2o273bo24b2o614bo2bo26bobo42b2o789bo36b2o7bo
b2o273bo24b2o614bo2bo26bobo42b2o489bo36b2o7bob2o273bo24b2o14bo2bo26bo
2bo26bo2bo26bo2bo26bo2bo26bo2bo26bo2bo26bo2bo26bo2bo26bo2bo26bo2bo26bo
2bo26bo2bo26bo2bo26bo2bo26bo2bo26bo2bo26bo2bo26bo2bo26bo2bo26bo2bo26bo
bo42b2o$2440b2o13b2o31bobo272bobo623b4o11bo14b4o11bo43bo3bo787b2o13b2o
31bobo272bobo623b4o11bo14b4o11bo43bo3bo487b2o13b2o31bobo272bobo38bo14b
4o11bo14b4o11bo14b4o11bo14b4o11bo14b4o11bo14b4o11bo14b4o11bo14b4o11bo
14b4o11bo14b4o11bo14b4o11bo14b4o11bo14b4o11bo14b4o11bo14b4o11bo14b4o
11bo14b4o11bo14b4o11bo14b4o11bo14b4o11bo14b4o11bo43bo3bo$2455bo33bo
230b2o41b2obo7b2o613bo3bo10bo3bo10bo3bo10bo3bo30bo7bo5bo801bo33bo230b
2o41b2obo7b2o613bo3bo10bo3bo10bo3bo10bo3bo30bo7bo5bo501bo33bo230b2o41b
2obo7b2o28bo3bo10bo3bo10bo3bo10bo3bo10bo3bo10bo3bo10bo3bo10bo3bo10bo3b
o10bo3bo10bo3bo10bo3bo10bo3bo10bo3bo10bo3bo10bo3bo10bo3bo10bo3bo10bo3b
o10bo3bo10bo3bo10bo3bo10bo3bo10bo3bo10bo3bo10bo3bo10bo3bo10bo3bo10bo3b
o10bo3bo10bo3bo10bo3bo10bo3bo10bo3bo10bo3bo10bo3bo10bo3bo10bo3bo10bo3b
o10bo3bo10bo3bo10bo3bo10bo3bo30bo7bo5bo$2448b2o6b3o24b2o236b2o23bo16b
2ob2o6bobo612bo14b4o11bo14b4o31bobo4b2obo3bo8b2o784b2o6b3o24b2o236b2o
23bo16b2ob2o6bobo612bo14b4o11bo14b4o31bobo4b2obo3bo8b2o484b2o6b3o24b2o
236b2o23bo16b2ob2o6bobo27b4o11bo14b4o11bo14b4o11bo14b4o11bo14b4o11bo
14b4o11bo14b4o11bo14b4o11bo14b4o11bo14b4o11bo14b4o11bo14b4o11bo14b4o
11bo14b4o11bo14b4o11bo14b4o11bo14b4o11bo14b4o11bo14b4o11bo14b4o11bo14b
4o11bo14b4o31bobo4b2obo3bo8b2o$2448b2o8bo25b2o234bo25b2o15b2obob3o6bo
612bo2bo26bo2bo48b2o3bo5bo8b2o784b2o8bo25b2o234bo25b2o15b2obob3o6bo
612bo2bo26bo2bo48b2o3bo5bo8b2o484b2o8bo25b2o234bo25b2o15b2obob3o6bo42b
o2bo26bo2bo26bo2bo26bo2bo26bo2bo26bo2bo26bo2bo26bo2bo26bo2bo26bo2bo26b
o2bo26bo2bo26bo2bo26bo2bo26bo2bo26bo2bo26bo2bo26bo2bo26bo2bo26bo2bo26b
o2bo48b2o3bo5bo8b2o$2483bo250b2o11b2o14bobo2bo2bo2bo2bo7b2o671b2o12b2o
4bo3bo830bo250b2o11b2o14bobo2bo2bo2bo2bo7b2o671b2o12b2o4bo3bo530bo250b
2o11b2o14bobo2bo2bo2bo2bo7b2o671b2o12b2o4bo3bo$2733b3o3bo7b3o14bo4b2o
6bo7b2o671b2o12b2o6b2o1081b3o3bo7b3o14bo4b2o6bo7b2o671b2o12b2o6b2o781b
3o3bo7b3o14bo4b2o6bo7b2o671b2o12b2o6b2o$2574bobo153bob2o4b4o5b2o25bobo
612b2o55bo22bobo932bobo153bob2o4b4o5b2o25bobo612b2o55bo22bobo632bobo
153bob2o4b4o5b2o25bobo669bo22bobo$2572bo3bo153bo2bo4bo4bo2b2o26b2o612b
2o55b2o22bo932bo3bo153bo2bo4bo4bo2b2o26b2o612b2o55b2o22bo632bo3bo153bo
2bo4bo4bo2b2o26b2o669b2o22bo$2572bo12b2o126bo16bob2o5bo3bo2bo643bo54bo
bo954bo12b2o126bo16bob2o5bo3bo2bo643bo54bobo654bo12b2o126bo16bob2o5bo
3bo2bo698bobo$2476bo94bo4bo8b2o126b2o10b2o6b3o3b2obo18bobo1542bo94bo4b
o8b2o126b2o10b2o6b3o3b2obo18bobo1242bo94bo4bo8b2o126b2o10b2o6b3o3b2obo
18bobo$2476b2o94bo139bobo9bobo7b2o25b2o669bo873b2o94bo139bobo9bobo7b2o
25b2o669bo573b2o94bo139bobo9bobo7b2o25b2o669bo$2452b2o21bobo88b2o4bo3b
o147bo37bo669b2o25b2o821b2o21bobo88b2o4bo3bo147bo37bo669b2o25b2o521b2o
21bobo88b2o4bo3bo147bo37bo669b2o25b2o$2453bo111bobo6bobo126b2o18b2o
683b2o21bobo18bob2o3b3o821bo111bobo6bobo126b2o18b2o683b2o21bobo18bob2o
3b3o521bo111bobo6bobo126b2o18b2o683b2o21bobo18bob2o3b3o$2453bobo7b2o
100bo137b2o42bobo647bo11bo38bo2bo3bo5b2obo5b2o811bobo7b2o100bo137b2o
42bobo647bo11bo38bo2bo3bo5b2obo5b2o511bobo7b2o100bo137b2o42bobo659bo
38bo2bo3bo5b2obo5b2o$2454b2o6bobo99b2o182b2o646b2o11bobo7b2o26b2o2bo4b
o4bo2bo5b2o812b2o6bobo99b2o182b2o646b2o11bobo7b2o26b2o2bo4bo4bo2bo5b2o
512b2o6bobo99b2o182b2o659bobo7b2o26b2o2bo4bo4bo2bo5b2o$2461bo6b2o4bo
273bo647bobo11b2o6bobo25b2o5b4o4b2obo826bo6b2o4bo273bo647bobo11b2o6bob
o25b2o5b4o4b2obo526bo6b2o4bo273bo661b2o6bobo25b2o5b4o4b2obo$2461bo2bo
2bo2bo2bobo229b2o710bo6b2o4bo14b3o7bo3b3o829bo2bo2bo2bo2bobo229b2o710b
o6b2o4bo14b3o7bo3b3o529bo2bo2bo2bo2bobo229b2o710bo6b2o4bo14b3o7bo3b3o$
2461bo6b3obob2o10b2o218b2o709bo2bo2bo2bo2bobo14b2o11b2o830bo6b3obob2o
10b2o218b2o709bo2bo2bo2bo2bobo14b2o11b2o530bo6b3obob2o10b2o218b2o691bo
17bo2bo2bo2bo2bobo14b2o11b2o$2462bobo6b2ob2o10b2o217bo65bo2bo15b2o625b
o6b3obob2o15b2o843bobo6b2ob2o10b2o217bo65bo2bo15b2o625bo6b3obob2o15b2o
543bobo6b2ob2o10b2o217bo65bo2bo26bo2bo26bo2bo26bo2bo26bo2bo26bo2bo26bo
2bo26bo2bo26bo2bo26bo2bo26bo2bo26bo2bo26bo2bo26bo2bo26bo2bo26bo2bo26bo
2bo26bo2bo26bo2bo26bo2bo26bo2bo24bo17bo6b3obob2o15b2o$2463b2o7bob2o
281b4o14bo14b4o624bobo6b2ob2o16bo844b2o7bob2o281b4o14bo14b4o624bobo6b
2ob2o16bo544b2o7bob2o281b4o14bo11b4o14bo11b4o14bo11b4o14bo11b4o14bo11b
4o14bo11b4o14bo11b4o14bo11b4o14bo11b4o14bo11b4o14bo11b4o14bo11b4o14bo
11b4o14bo11b4o14bo11b4o14bo11b4o14bo11b4o14bo11b4o14bo11b4o14bo11b4o
14bo11b4o27bobo6b2ob2o16bo$2473bobo280bo3bo10bo3bo10bob2o2b2o625b2o7bo
b2o871bobo280bo3bo10bo3bo10bob2o2b2o625b2o7bob2o571bobo280bo3bo10bo3bo
10bo3bo10bo3bo10bo3bo10bo3bo10bo3bo10bo3bo10bo3bo10bo3bo10bo3bo10bo3bo
10bo3bo10bo3bo10bo3bo10bo3bo10bo3bo10bo3bo10bo3bo10bo3bo10bo3bo10bo3bo
10bo3bo10bo3bo10bo3bo10bo3bo10bo3bo10bo3bo10bo3bo10bo3bo10bo3bo10bo3bo
10bo3bo10bo3bo10bo3bo10bo3bo10bo3bo10bo3bo10bo3bo10bo3bo10bo3bo10bo3bo
10bo3bo28b2o7bob2o$2474bo285bo11b4o628b2o23bobo872bo285bo11b4o628b2o
23bobo572bo285bo11b4o14bo11b4o14bo11b4o14bo11b4o14bo11b4o14bo11b4o14bo
11b4o14bo11b4o14bo11b4o14bo11b4o14bo11b4o14bo11b4o14bo11b4o14bo11b4o
14bo11b4o14bo11b4o14bo11b4o14bo11b4o14bo11b4o14bo11b4o14bo11b4o14bo13b
2o23bobo$2687bo9b2o58bobo643b2o25bo1086bo9b2o58bobo643b2o25bo786bo9b2o
58bobo26bo2bo26bo2bo26bo2bo26bo2bo26bo2bo26bo2bo26bo2bo26bo2bo26bo2bo
26bo2bo26bo2bo26bo2bo26bo2bo26bo2bo26bo2bo26bo2bo26bo2bo26bo2bo26bo2bo
26bo2bo26bo2bo13b2o25bo$2686bobo7b4o46b2o657bo1110bobo7b4o46b2o657bo
810bobo7b4o46b2o657bo$2685bob2o5b3o2bo2bobo41b2o4bo1762bob2o5b3o2bo2bo
bo41b2o4bo1462bob2o5b3o2bo2bobo41b2o4bo$2679b2o3b2ob2o9b2o2bo2bo29b2o
6b2o6b5ob2o1750b2o3b2ob2o9b2o2bo2bo29b2o6b2o6b5ob2o1450b2o3b2ob2o9b2o
2bo2bo29b2o6b2o6b5ob2o$2679b2o4bob2o6bo9b2o28b2o5b3o5bo2b2o4bo24b2o
1723b2o4bob2o6bo9b2o28b2o5b3o5bo2b2o4bo24b2o1423b2o4bob2o6bo9b2o28b2o
5b3o5bo2b2o4bo$2686bobo5bo8bo3b2o34b2o5b2o8bo8b2o12bobo1730bobo5bo8bo
3b2o34b2o5b2o8bo8b2o12bobo1430bobo5bo8bo3b2o34b2o5b2o8bo8b2o$2687bo6bo
10b2o39b2o4bo7bo8b2o14bo626bo1104bo6bo10b2o39b2o4bo7bo8b2o14bo626bo
804bo6bo10b2o39b2o4bo7bo8b2o641bo$2702bo2bo5b2o33b2o12bo650b2o1119bo2b
o5b2o33b2o12bo650b2o819bo2bo5b2o33b2o12bo650b2o$2702bobo6bobo45bo651bo
bo1118bobo6bobo45bo651bobo818bobo6bobo45bo651bobo$2713bo43b2o1784bo43b
2o1484bo43b2o$2713b2o1828b2o1528b2o2$2776b3o641bo7bo1177b3o641bo7bo
1521bo7bo$2778bo640b4o5bobo1177bo640b4o5bobo1518b4o5bobo$2777bo636b2o
2bo2b2o8b2o1174bo636b2o2bo2b2o8b2o1511b2o2bo2b2o8b2o$3414b2o2b2o11b2o
4b2o1805b2o2b2o11b2o4b2o1505b2o2b2o11b2o4b2o$3411b2o10bo7b2o4b2o1802b
2o10bo7b2o4b2o1502b2o10bo7b2o4b2o$3410b3o10bo4bobo1809b3o10bo4bobo
1509b3o10bo4bobo$3411b2o10bo4bo1812b2o10bo4bo1512b2o10bo4bo$2769b2o
634b2o7b2o1183b2o634b2o7b2o1519b2o7b2o$2768bobo633bobo7b2o1182bobo633b
obo7b2o1518bobo7b2o$2770bo633bo1195bo633bo1529bo$3403b2o1828b2o1528b2o
5$2761b3o1827b3o$2763bo1829bo$2762bo1829bo2$6103bo$2750b2o1828b2o1522b
o5b2o$2750b2o1828b2o1520b3o5b2o$2754b2o1828b2o$2753bobo1827bobo$2755bo
1829bo2$6113bobo$6114b2o$6114bo2$2735b2o9b3o1816b2o9b3o1516b2o9b3o$
2735bo2bo9bo1816bo2bo9bo1516bo2bo9bo$2727b5o7bo7bo5bo1803b5o7bo7bo5bo
1503b5o7bo7bo5bo$2726bo5bo6bo12b4o1800bo5bo6bo12b4o1500bo5bo6bo12b4o$
2726bo3b2o7bo11b2obobo4b2o1793bo3b2o7bo11b2obobo4b2o1493bo3b2o7bo11b2o
bobo4b2o$2727bo7bo2bo11b3obo2bo3bo1795bo7bo2bo11b3obo2bo3bo1495bo7bo2b
o11b3obo2bo3bo$2735b2o14b2obob2o4b3o1800b2o14b2obob2o4b3o1500b2o14b2ob
ob2o4b3o$2752b4ob3o4bo1817b4ob3o4bo1517b4ob3o4bo$2753bo4bobo1822bo4bob
o1522bo4bobo$2760bo1829bo1529bo$2760b2o1828b2o1528b2o!
