#N Oscillator garden
#C 68 oscillators from the Life Lexicon and LifeWiki collections:
#C Blinker, Toad, Beacon, Clock, Bipole, Spark coil, Test tube baby, Mold, Quad, Tripole, Caterer, Blocker, Candelabra, By flops, Jam, Monogram, Why not, Muttering moat 1, Fumarole, Tumbler, Silver's p5, Laputa, Heavyweight emulator, Queen bee shuttle, Trans-queen bee shuttle, Smiley, Octagon 2, Mazing, Great on-off, Phoenix 1, Cuphook, Coe's p8, Unix, Achim's p8, Achim's p4, Gray counter, Pentadecathlon, Figure eight, Cross, Mini pressure cooker, Mathematician, Worker bee, Glasses, Snacker, Baker's dozen, Hertz oscillator, Negentropy, Hustler, Pinwheel, Pentoad, 101, Kok's galaxy, Middleweight volcano, Dinner table, Star, Wavefront, Twin bees shuttle, p60 glider shuttle, Roteightor, Karel's p15, Airforce, Pulsar, Achim's p16, Eureka, Fountain, Jolson, Tanner's p46, Hectic
#C golwall-world {"title":{"en":"Oscillator garden","pt":"Jardim de osciladores"},"width":640,"height":360,"view":[0,0,640,360],"gps":6,"palette":"synthwave","x":0,"y":0}
x = 640, y = 360, rule = B3/S23
22$199b2o2b2o2b2o10b2o2b2o2b2o14b2o2b2o2b2o14b2o2b2o2b2o26b2o2b2o2b2o
2b2o14b2o2b2o2b2o26b2o14b2o6b2o2b2o2b2o6b2o2b2o2b2o2b2o14b2o2b2o2b2o$
199b2o2b2o2b2o10b2o2b2o2b2o14b2o2b2o2b2o14b2o2b2o2b2o26b2o2b2o2b2o2b2o
14b2o2b2o2b2o26b2o14b2o6b2o2b2o2b2o6b2o2b2o2b2o2b2o14b2o2b2o2b2o3$203b
2o10b2o14b2o6b2o14b2o6b2o14b2o22b2o14b2o6b2o14b2o22b2o14b2o10b2o10b2o
14b2o6b2o14b2o$203b2o10b2o14b2o6b2o14b2o6b2o14b2o22b2o14b2o6b2o14b2o
22b2o14b2o10b2o10b2o14b2o6b2o14b2o3$203b2o10b2o14b2o6b2o22b2o14b2o22b
2o14b2o6b2o14b2o22b2o14b2o10b2o10b2o14b2o6b2o14b2o$203b2o10b2o14b2o6b
2o22b2o14b2o22b2o14b2o6b2o14b2o22b2o14b2o10b2o10b2o14b2o6b2o14b2o3$
203b2o10b2o14b2o6b2o6b2o2b2o2b2o6b2o14b2o22b2o14b2o6b2o2b2o2b2o2b2o2b
2o22b2o14b2o10b2o10b2o14b2o6b2o2b2o2b2o2b2o2b2o$203b2o10b2o14b2o6b2o6b
2o2b2o2b2o6b2o14b2o22b2o14b2o6b2o2b2o2b2o2b2o2b2o22b2o14b2o10b2o10b2o
14b2o6b2o2b2o2b2o2b2o2b2o3$191b2o10b2o10b2o14b2o6b2o14b2o6b2o14b2o22b
2o14b2o6b2o14b2o22b2o14b2o10b2o10b2o14b2o6b2o14b2o$191b2o10b2o10b2o14b
2o6b2o14b2o6b2o14b2o22b2o14b2o6b2o14b2o22b2o14b2o10b2o10b2o14b2o6b2o
14b2o3$191b2o10b2o10b2o14b2o6b2o14b2o6b2o14b2o22b2o14b2o6b2o14b2o26b2o
6b2o14b2o10b2o14b2o6b2o14b2o$191b2o10b2o10b2o14b2o6b2o14b2o6b2o14b2o
22b2o14b2o6b2o14b2o26b2o6b2o14b2o10b2o14b2o6b2o14b2o3$195b2o2b2o18b2o
2b2o2b2o14b2o2b2o2b2o14b2o2b2o2b2o26b2o2b2o2b2o2b2o10b2o14b2o30b2o14b
2o2b2o2b2o6b2o2b2o2b2o2b2o10b2o14b2o$195b2o2b2o18b2o2b2o2b2o14b2o2b2o
2b2o14b2o2b2o2b2o26b2o2b2o2b2o2b2o10b2o14b2o30b2o14b2o2b2o2b2o6b2o2b2o
2b2o2b2o10b2o14b2o40$387b2o45b2o2b2o43b2o50bo54bobo$139b2o47bo45b2o46b
2o4b2o43b2o4b2o45bo2bo44bo2bobo43bobo47bo3b4o48bo$93b3o43bo46bobo45bob
o45bobo2bobo43bobo2bobo43bo2bobo45bo97bo3bo46b2o2bo4bo$46b3o43b3o47bo
44bobo94bo2bo47bo2bo49bo49bo46bobo45bo50b2obo2bob2o$141b2o44bo48bobo
43bobo2bobo45bo2bo45bob2o46bobo2bo48bo47bo51b2o$237b2o43b2o4b2o46b2o
47bo48b2o2b2o47b2o45b2o32$101bo45b2o88bo42b2o46b2o43bo5bo40b2o50b2ob2o
50b2o55bo$47b2o4b2o44bobo44bo2bo38b2o3b2o42bobo40bo3b2o40bo4bo40bobo3b
obo39bo51b2obo3b2o41b2obo4bob2o48bobo$44bo2bo6bo2bo45bo40bo2bobo39bobo
bo41bo45bobobo40bo4bo40bo2bobo2bo40bo2bo52bo2bo41bo10bo47bobo$43bobobo
6bobobo39b5o41bo3bo40b2ob2o40bob5o85bo4bo42bo3bo44b2o45b6ob3o43b2o6b2o
42b2o3bo2bo11b2o$44bo2bob4obo2bo45bo40bo44bobobo41bo45b2o2bo41bo2bo43b
2ob2o44bo3bob2o38bo2bobo45b3o2b6o2b3o39b2o4bobo11b2o$47bobo2bobo44bobo
45bo40b2o3b2o42bobo43bo2bo38bobo2bobo89bo4b2obo38b2o3bob2o42bo2bo8bo2b
o46bobo$48bo4bo47bo43b2o90bo47b2o38b2o4b2o89b2o49b2ob2o43b2o10b2o49bo
32$440b2o45b2o47b2o3b2o47bo$53bo99b2o91b2o47bo46b2o96b2o44bo48bo2bobo
2bo45bobo$51bobo50b3ob3o41bo2bo45b2o42bo2bo46bobo40b2obobo42b2o99bo3bo
43bob2ob2obo44bobobo$50bobo11b2o39bobobo41bo4bo42bobo43bobo45bo44b2obo
44b2o2b2o48bo46bo3b2o41b2o7b2o40bo2bo3bo2bo$44b2o3bo2bo11b2o84bo6bo40b
o5bo39b2obo2bo47b2o41bo49b2o46bobo47bobo44bobobobo41bobobo3bobobo$44b
2o4bobo52bo3bo40bo6bo41bo3b2o43b2obo40b2o47bo2bo45bo2bo45bo2bo2b2o41b
2o3bo40b2o7b2o40bo2bo3bo2bo$51bobo97bo4bo94bo46bo43b2obo47bo2b2o45bob
2o42bo3bo41bob2ob2obo44bobobo$53bo50bobobobo41bo2bo45bobo44b3o43bobo
48bo45bobo2b2o43b2o51bo40bo2bobo2bo45bobo$106bobo44b2o47bo45bo47bo48b
2o145b2o42b2o3b2o47bo32$234bo39b2o12b2o40bo8bo39b2o16b2o36b2o9b2o50b2o
bo42b2obo44b2o$189bo43bobo39bo12bo39b3o8b3o38bo16bo37b4obo5b2o50bob2o
42bob2o44b2o$141b4o43bobo42bobo39bobo8bobo38bo14bo37bobo12bobo37bobo2b
3o$95b2o44bo2bo43bobo41b2ob2o39b2o8b2o39bo2b3o4b3o2bo38b2o12b2o49bo52b
3o43b3o42b4o$47bo4bo42b2obo40b3o2b3o40b2ob2o38bo7bo87b2obo3bo2bo3bob2o
42bo4bo47b2o4bobo50bobobob2o38bobobob2o35bobo4bo$45b2ob4ob2o44bo39bo6b
o37bobo5bobo35b3o3b3o40b6o44bo3b4o3bo43b2ob4ob2o45bo5bo2bo4bo44bo3bob
2o38b2o2bob2o35b2obo3bo$47bo4bo43bo42bo6bo37b2obobobob2o134bo3bo2bo3bo
45bo4bo54b2o4b2o41b2obo3bo38b2obo3bo41bo3bob2o$97bob2o38b3o2b3o40bo3bo
38b9o37b2o8b2o42b3o4b3o41b2o12b2o98b2obo3bo38b2obo3bo41bo4bobo$99b2o
40bo2bo42bobobo38bo7bo36bobo8bobo91bobo12bobo52b3o2bobo41b3o43b3o43b4o
$141b4o43bobo42b4o38bo12bo41b2obo2bob2o40bo16bo47b2o5bob4o$189bo43bo2b
2o36b2o12b2o40bob2o2b2obo39b2o16b2o46b2o9b2o41b2obo42b2obo42b2o$499bob
2o42bob2o42b2o32$269bo95b2o172bo$46b2o47b2o35b2o6b2o127b3o7b2o36b3o45b
o53b2o118b3o8b2o37bo4bo$46b2o47bo35bobo6bobo39bo2bobo39b5o40bo6bo86bo
35b2o15bobo7b2o111bo7bo38b6o$93bobo35bo10bo37b2obob3o38bo5bo38b2o4bobo
35bobobobo43b2o35b2o17bo7b2o40bo4bo64b2o5bobo38bo4bo$44b4o45b2o33b2obo
10bob2o35bo6bo35b3o5b3o42b2o83b2o3b2o50b3o47b2ob4ob2o69b2o$40b2obo4bo
40b2o37b2obobo2b2o2bobob2o34b2o5bo35bo11bo38bo38bobo5bobo37bo2b3o2bo
101bo4bo$40b2obo2bobo41bo40bobobo2bobobo80bob3obob4o37b2obo37bo9bo37bo
5b2o116bo58b2o$43bo3b2ob2o38bo40bobobo2bobobo38bo5b2o35bo3b3o82bobo5bo
bo38bo3bo119b2o8bo4bo41b2obo42b6o$43bobo2bob2o38b2o36b2obobo2b2o2bobob
2o34bo6bo38bo5b2obo34bo3bo2bo79b2obobo3bo52b3o63b2o7b2ob4ob2o40b3o41bo
6bo$44b4o38b2o40b2obo10bob2o35b3obob2o36b2obobobob2o33bob2o4bo37bobobo
bo35bob2obob2o36b2o17bo74bo4bo38b2o3b3o39bo8bo$85bobo43bo10bo38bobo2bo
39bobo2bo37bo6bo84bobo38b2o15bobo117bobo5b2o39bo6bo$44b2o39bo45bobo6bo
bo83bo2b2o37b2o7b3o37b3o41bobo55b2o118bo7bo41b6o$44b2o38b2o46b2o6b2o
83b2o52bo82bo175b2o8b3o$550bo32$572b2o$572b2o5$485b2o$485bo$486bo$485b
2o$404b2o6b2o$403bo2bo4bo2bo77b2o$58bo278bo65bo2bo4bo2bo77bo66bo10b2o
3b2o$57bobo62b3o3b3o65b2o205bo2bo4bo2bo78bo63bobo12b3o$58bo137bobo59bo
14bo57b2obo5bob2o60b2o6b2o78b2o62bobo12bo3bo$120bo4bobo4bo58bo4bob2o
57bobo4bo7bobo56bo5bo5bo140b2o64b2o3bo2bo13bobo$56b5o59bo4bobo4bo57b2o
5bo60bo3b2ob2o6bo58b2ob2ob2ob2o141b2o6b2o56b2o4bobo14bo$55bo5bob2o55bo
4bobo4bo56bo2bo71bo145bo72bo7bobo63bobo6bobo$54bob2o3bob2o57b3o3b3o58b
3o142b2o3b2o67bo2bob2o69b2o6bo66bo6b2o$54bobo2bobo266b2o15b2o62b2o2b2o
69b2o7b3o71bo3bo$51b2obo3b2obo60b3o3b3o68b3o126bo2bo3bobobo3bo2bo148bo
75b2o6bo$51b2obo5bo59bo4bobo4bo65bo2bo62bo64b3ob9ob3o224bobo6bobo$55b
5o60bo4bobo4bo60bo5b2o57bo3b2ob2o6bo58bo4bo4bo66b4o152bo14bobo4b2o$
120bo4bobo4bo58b2obo4bo57bobo4bo7bobo56b2o9b2o64b6o150bobo13bo2bo3b2o$
57bo134bobo63bo14bo57bo11bo63b8o148bo3bo12bobo$56bobo63b3o3b3o62b2o
138bo7bo64b2o6b2o148b3o12bobo$57bo274b2o7b2o64b8o147b2o3b2o10bo$408b6o
70b2o$409b4o71b2o2b2o$488bobo$490bo$490b2o6$565b2o$565b2o!
