#N Spaceship parade
#C 12 lanes of spaceships, alternating directions:
#C Lightweight spaceship (c/2), Weekender (2c/7), Copperhead (c/10), Middleweight spaceship (c/2), Loafer (c/7), 30P5H2V0 (2c/5), Spider (c/5), Heavyweight spaceship (c/2), Dart (c/3), Schick engine (c/2), Turtle (c/3), Hammerhead (c/2)
#C golwall-world {"title":{"en":"Spaceship parade","pt":"Desfile de naves"},"width":960,"height":540,"view":[0,0,960,540],"gps":20,"palette":"ice","x":0,"y":0}
x = 960, y = 540, rule = B3/S23
16$b4o156b4o156b4o156b4o156b4o156b4o$o3bo155bo3bo155bo3bo155bo3bo155bo
3bo155bo3bo$4bo159bo159bo159bo159bo159bo$o2bo156bo2bo156bo2bo156bo2bo
156bo2bo156bo2bo34$99bo319bo319bo$97b2ob2o315b2ob2o315b2ob2o$99bo2bobo
314bo2bobo314bo2bobo$104bo319bo319bo$104bobo317bobo317bobo$104bo2bo
316bo2bo316bo2bo$102b2o3bo314b2o3bo314b2o3bo$102b2o318b2o318b2o$102b2o
318b2o318b2o$102b2o3bo314b2o3bo314b2o3bo$104bo2bo316bo2bo316bo2bo$104b
obo317bobo317bobo$104bo319bo319bo$99bo2bobo314bo2bobo314bo2bobo$97b2ob
2o315b2ob2o315b2ob2o$99bo319bo319bo34$7bob2o188bob2o188bob2o188bob2o
188bob2o$6bo6bo184bo6bo184bo6bo184bo6bo184bo6bo$5b2o3bo2bo183b2o3bo2bo
183b2o3bo2bo183b2o3bo2bo183b2o3bo2bo$2b2obo5b2o181b2obo5b2o181b2obo5b
2o181b2obo5b2o181b2obo5b2o$2b2obo5b2o181b2obo5b2o181b2obo5b2o181b2obo
5b2o181b2obo5b2o$5b2o3bo2bo183b2o3bo2bo183b2o3bo2bo183b2o3bo2bo183b2o
3bo2bo$6bo6bo184bo6bo184bo6bo184bo6bo184bo6bo$7bob2o188bob2o188bob2o
188bob2o188bob2o35$131b5o155b5o155b5o155b5o155b5o155b5o$131bo4bo154bo
4bo154bo4bo154bo4bo154bo4bo154bo4bo$131bo159bo159bo159bo159bo159bo$
132bo3bo155bo3bo155bo3bo155bo3bo155bo3bo155bo3bo$134bo159bo159bo159bo
159bo159bo35$4b2o190b2o190b2o190b2o190b2o$6bo191bo191bo191bo191bo$7bo
191bo191bo191bo191bo$4b3o189b3o189b3o189b3o189b3o$4bo191bo191bo191bo
191bo$10bo191bo191bo191bo191bo$9bobo189bobo189bobo189bobo189bobo$5b2o
2bo2bo184b2o2bo2bo184b2o2bo2bo184b2o2bo2bo184b2o2bo2bo$4b2obo2b2o184b
2obo2b2o184b2obo2b2o184b2obo2b2o184b2obo2b2o34$10b2o238b2o238b2o238b2o
$9b3o237b3o237b3o237b3o$7bo239bo239bo239bo$6b2obo236b2obo236b2obo236b
2obo$5b2o238b2o238b2o238b2o$6b2ob3o234b2ob3o234b2ob3o234b2ob3o$7bo239b
o239bo239bo$9bo239bo239bo239bo$13bo239bo239bo239bo$10bo3bo235bo3bo235b
o3bo235bo3bo$9b2ob2o235b2ob2o235b2ob2o235b2ob2o$10bo239bo239bo239bo$
11b2ob2o235b2ob2o235b2ob2o235b2ob2o32$266b2o318b2o318b2o$263b2o2bo315b
2o2bo315b2o2bo$263b2o2bo315b2o2bo315b2o2bo$268bo319bo319bo$263bob4o
314bob4o314bob4o$262b2obo316b2obo316b2obo$266b3o317b3o317b3o$267bo319b
o319bo$267b2o318b2o318b2o$269bo319bo319bo$268bo319bo319bo$268bo319bo
319bo$264b3o317b3o317b3o2$264b3o317b3o317b3o$268bo319bo319bo$268bo319b
o319bo$269bo319bo319bo$267b2o318b2o318b2o$267bo319bo319bo$266b3o317b3o
317b3o$262b2obo316b2obo316b2obo$263bob4o314bob4o314bob4o$268bo319bo
319bo$263b2o2bo315b2o2bo315b2o2bo$263b2o2bo315b2o2bo315b2o2bo$266b2o
318b2o318b2o37$39b6o154b6o154b6o154b6o154b6o154b6o$39bo5bo153bo5bo153b
o5bo153bo5bo153bo5bo153bo5bo$39bo159bo159bo159bo159bo159bo$40bo4bo154b
o4bo154bo4bo154bo4bo154bo4bo154bo4bo$42b2o158b2o158b2o158b2o158b2o158b
2o35$57bo239bo239bo239bo$56bobo237bobo237bobo237bobo$58b2o238b2o238b2o
238b2o$56bo239bo239bo239bo$56bo3bo235bo3bo235bo3bo235bo3bo$60bo2bo236b
o2bo236bo2bo236bo2bo$56b4o2bobo231b4o2bobo231b4o2bobo231b4o2bobo$62bo
2bo236bo2bo236bo2bo236bo2bo$56b4o2bobo231b4o2bobo231b4o2bobo231b4o2bob
o$60bo2bo236bo2bo236bo2bo236bo2bo$56bo3bo235bo3bo235bo3bo235bo3bo$56bo
239bo239bo239bo$58b2o238b2o238b2o238b2o$56bobo237bobo237bobo237bobo$
57bo239bo239bo239bo33$234bo2bo316bo2bo316bo2bo$233bo319bo319bo$233bo3b
o315bo3bo315bo3bo$233b4o9b2o305b4o9b2o305b4o9b2o$239b3o5b2o310b3o5b2o
310b3o5b2o$239b2ob2o6b3o306b2ob2o6b3o306b2ob2o6b3o$239b3o5b2o310b3o5b
2o310b3o5b2o$233b4o9b2o305b4o9b2o305b4o9b2o$233bo3bo315bo3bo315bo3bo$
233bo319bo319bo$234bo2bo316bo2bo316bo2bo32$10bo7b3o229bo7b3o229bo7b3o
229bo7b3o$10b2ob2obo2b2o229b2ob2obo2b2o229b2ob2obo2b2o229b2ob2obo2b2o$
11bo4b3o232bo4b3o232bo4b3o232bo4b3o$11bo3bobo2bo230bo3bobo2bo230bo3bob
o2bo230bo3bobo2bo$11bo4bo4bo229bo4bo4bo229bo4bo4bo229bo4bo4bo$11bo4bo
4bo229bo4bo4bo229bo4bo4bo229bo4bo4bo$11bo3bobo2bo230bo3bobo2bo230bo3bo
bo2bo230bo3bobo2bo$11bo4b3o232bo4b3o232bo4b3o232bo4b3o$10b2ob2obo2b2o
229b2ob2obo2b2o229b2ob2obo2b2o229b2ob2obo2b2o$10bo7b3o229bo7b3o229bo7b
3o229bo7b3o35$107b5o315b5o315b5o$107bo4bo7b2o305bo4bo7b2o305bo4bo7b2o$
107bo11b2ob3o302bo11b2ob3o302bo11b2ob3o$108bo9b2ob4o303bo9b2ob4o303bo
9b2ob4o$110b2o3b2ob2o2b2o306b2o3b2ob2o2b2o306b2o3b2ob2o2b2o$112bo4bo2b
o311bo4bo2bo311bo4bo2bo$113bobobobo313bobobobo313bobobobo$114bo319bo
319bo$114bo319bo319bo$113bobobobo313bobobobo313bobobobo$112bo4bo2bo
311bo4bo2bo311bo4bo2bo$110b2o3b2ob2o2b2o306b2o3b2ob2o2b2o306b2o3b2ob2o
2b2o$108bo9b2ob4o303bo9b2ob4o303bo9b2ob4o$107bo11b2ob3o302bo11b2ob3o
302bo11b2ob3o$107bo4bo7b2o305bo4bo7b2o305bo4bo7b2o$107b5o315b5o315b5o!
